skills/davinci/davinci-film-colorist/assets/HF-Astra-Looks/DCTL/ASTRA_LookMixer_Data/ektachrome.cube
# System: Cinema - Ektachrome ECN-2
# Mode: Full Emulation
# Source: DaVinci Wide Gamut Intermediate
# Camera | Exposure: 0.000, Temperature: -409, Tint: -0.039
# Negative | Color & Tone Stock: Ektachrome, Gamut Compression | Amount: 1.000, Threshold: (0.250, 0.250, 0.074), Distance: (0.045, 0.045, 0.037)
# Lab | Neutralize: 0.225, Richness: 0.068, Vibrance: 0.000, Density: 0.000, Contrast: 0.147, Push/Pull: 0.000, Split Tone: [Hue: 0.628, Intensity: 0.085, Pivot: 0.000, Dead Zone Width: 0.000, Shadows: -1.000, Highlights: 0.000], Printer Lights: [25.630, 27.050, 26.311, Invert: Enabled], Acutance: [Fine Detail: 0.543, Fine Size: -0.519, Fine Halo: 0.318, Coarse Detail: 0.000, Coarse Size: 0.000, Coarse Halo: 0.000] *** Acutance cannot be represented in a LUT ***
# Print | System: EktachromeCross_V1, Style: Custom, Tone Curve: 1.000, Color: 0.442, Neutralize Balance: 0.000, Black Point: 0.326
# Display Colorspace: RCM SDR
LUT_3D_SIZE 5
0.0787570179 0.0656261742 0.0495033748
0.2769679129 0.1687023044 0.1390094608
0.5221275091 0.3119119406 0.2741913497
0.5716797709 0.3968768418 0.3088612556
0.6515402794 0.5111714005 0.3499493897
0.1952179372 0.2519328594 0.1732874364
0.2458029687 0.2726737559 0.1934929788
0.5168476701 0.3386308849 0.2810209990
0.5770901442 0.4061405063 0.3119135797
0.6522459388 0.5120657682 0.3503157794
0.3648503721 0.4844298065 0.3131488264
0.3765623569 0.4929229915 0.3179558218
0.5035732985 0.4902074635 0.3226442039
0.6228221059 0.4722724557 0.3331724405
0.6593682170 0.5208840370 0.3539126515
0.4702701271 0.6230413914 0.3750784099
0.4746808112 0.6241712570 0.3752742410
0.5168655515 0.6256288886 0.3771398067
0.6857783198 0.5981363654 0.3774523139
0.6980787516 0.5684519410 0.3725346327
0.5793035030 0.6423266530 0.3999355733
0.5800181627 0.6422697902 0.3999692202
0.5870596766 0.6419268847 0.4003559947
0.6425891519 0.6387750506 0.4030119479
0.7526586056 0.6366432309 0.4084324837
0.1457496285 0.1356942654 0.2348358780
0.3069143891 0.2065390050 0.2612106800
0.5257750154 0.3024761975 0.2801288366
0.5710657835 0.3958059549 0.3084988296
0.6514627337 0.5110713243 0.3499085307
0.1731676757 0.2206137776 0.2331996709
0.2364441305 0.2517448366 0.2577248812
0.5258975029 0.3257145584 0.2845743597
0.5764806271 0.4051534832 0.3115929961
0.6521635652 0.5119671822 0.3502749801
0.3609436452 0.4800105989 0.3178432882
0.3737949133 0.4923515320 0.3244574070
0.5033814311 0.4895327389 0.3223383129
0.6224405169 0.4717702866 0.3329431415
0.6592977643 0.5207954049 0.3538764715
0.4700975418 0.6229758263 0.3750637472
0.4745099545 0.6241197586 0.3752565086
0.5167456865 0.6256189346 0.3771264553
0.6857730150 0.5981048942 0.3774447441
0.6980547309 0.5684242249 0.3725224137
0.5792773962 0.6423282623 0.3999336958
0.5799922943 0.6422715187 0.3999670446
0.5870375633 0.6419275403 0.4003540576
0.6425767541 0.6387753487 0.4030105770
0.7526577711 0.6366422176 0.4084314108
0.2472186685 0.2465900630 0.4043973088
0.3121841550 0.2670496702 0.4182297885
0.5166365504 0.3240620494 0.4172747135
0.5528700352 0.3661499619 0.3994100094
0.6506359577 0.5100052357 0.3494730294
0.2539114654 0.2586220205 0.4212543666
0.2803166509 0.2693841457 0.4325086474
0.5168079138 0.3317496479 0.4429338276
0.5595899820 0.3786509335 0.4025298357
0.6513397694 0.5109125972 0.3498436809
0.3260659277 0.4280412793 0.4459180534
0.3473274410 0.4518543780 0.4647107422
0.5612474680 0.5370559692 0.5358343124
0.6206932664 0.4817872047 0.4223334193
0.6585519314 0.5198708177 0.3534897268
0.4600810111 0.6267315745 0.4414292872
0.4660604894 0.6280278563 0.4419227540
0.5265606046 0.6333361864 0.4389460981
0.6857190132 0.5977789164 0.3773635030
0.6977937222 0.5681240559 0.3723909855
0.5789999962 0.6423462629 0.3999139965
0.5797179341 0.6422902942 0.3999456763
0.5868023634 0.6419337988 0.4003330469
0.6424452066 0.6387785673 0.4029963315
0.7526493669 0.6366313696 0.4084202051
0.2856459916 0.2848690450 0.4603454471
0.3011753559 0.2881500423 0.4621430039
0.4223637581 0.3173027337 0.4799562991
0.5390655994 0.3488357663 0.4781954885
0.7023975253 0.5571478009 0.6011862755
0.2859252691 0.2849084437 0.4603404403
0.3016128540 0.2882490158 0.4622186422
0.4225364029 0.3173328340 0.4799311161
0.5390594602 0.3488264978 0.4781705737
0.7043766975 0.5591626763 0.6020669937
0.2815409303 0.3215661645 0.4654526114
0.2822799087 0.3224175572 0.4657128751
0.3659753799 0.3456838727 0.4942502677
0.5562626123 0.3873574734 0.5301656127
0.7213189006 0.5771411657 0.6079166532
0.4161022604 0.5621261001 0.5631110668
0.4183319807 0.5649895668 0.5652461648
0.4725769758 0.6117604375 0.5993041992
0.7948859930 0.6924555302 0.6431751251
0.7874060273 0.6671560407 0.6180353761
0.6471908689 0.7435273528 0.6071342230
0.6483560205 0.7435067892 0.6070889831
0.6603232622 0.7433163524 0.6064537168
0.7431412339 0.7392361760 0.5951407552
0.7525609732 0.6365153193 0.4083003402
0.3593862057 0.3169845939 0.5053117871
0.3622553647 0.3177358210 0.5061095953
0.3883812129 0.3246768713 0.5132284164
0.4840271771 0.3468584716 0.5204225183
0.5502412319 0.3641436398 0.5216608047
0.3594572842 0.3170031309 0.5053316951
0.3623258173 0.3177539110 0.5061281919
0.3884343207 0.3246901035 0.5132403374
0.4840391576 0.3468609452 0.5204210281
0.5502406955 0.3641429543 0.5216587782
0.3602056801 0.3171985447 0.5055404902
0.3630665541 0.3179441392 0.5063235164
0.3889946342 0.3248292506 0.5133655071
0.4841645956 0.3468866646 0.5204063058
0.5502348542 0.3641357422 0.5216370821
0.3851731420 0.4730639458 0.5453801751
0.3875070512 0.4742497802 0.5463694334
0.4120011032 0.4870201051 0.5572339296
0.5531709194 0.5146946311 0.5891070366
0.6647605300 0.5230278969 0.6126046181
0.5649136305 0.7220774889 0.6585875154
0.5668489933 0.7224696875 0.6587011814
0.5864067078 0.7255936861 0.6586407423
0.7147215009 0.7303090692 0.6532738805
0.8453482389 0.7436401844 0.6569637656
