skills/davinci/davinci-film-colorist/assets/HF-Astra-Looks/DCTL/ASTRA_LookMixer_Data/ektachrome.cube
# System: Cinema - Ektachrome ECN-2
# Mode: Full Emulation
# Source: DaVinci Wide Gamut Intermediate
# Camera | Exposure: 0.000, Temperature: -409, Tint: -0.039
# Negative | Color & Tone Stock: Ektachrome, Gamut Compression | Amount: 1.000, Threshold: (0.250, 0.250, 0.074), Distance: (0.045, 0.045, 0.037)
# Lab | Neutralize: 0.225, Richness: 0.068, Vibrance: 0.000, Density: 0.000, Contrast: 0.147, Push/Pull: 0.000, Split Tone: [Hue: 0.628, Intensity: 0.085, Pivot: 0.000, Dead Zone Width: 0.000, Shadows: -1.000, Highlights: 0.000], Printer Lights: [25.630, 27.050, 26.311, Invert: Enabled], Acutance: [Fine Detail: 0.543, Fine Size: -0.519, Fine Halo: 0.318, Coarse Detail: 0.000, Coarse Size: 0.000, Coarse Halo: 0.000] *** Acutance cannot be represented in a LUT ***
# Print | System: EktachromeCross_V1, Style: Custom, Tone Curve: 1.000, Color: 0.442, Neutralize Balance: 0.000, Black Point: 0.326
# Display Colorspace: RCM SDR
LUT_3D_SIZE 65
0.0787570179 0.0656261742 0.0495033748
0.0839272141 0.0674025938 0.0507465117
0.0892356858 0.0694392100 0.0522686578
0.0949153230 0.0716587901 0.0539531112
0.1004177108 0.0739456415 0.0558336861
0.1062682942 0.0765944049 0.0582017377
0.1129659191 0.0798257738 0.0609701574
0.1218599603 0.0839645416 0.0643888786
0.1324857622 0.0889441296 0.0679394379
0.1445552260 0.0953093246 0.0720352083
0.1583450139 0.1028218791 0.0773511156
0.1736822426 0.1105656847 0.0828668028
0.1925212741 0.1203028411 0.0902120173
0.2139829695 0.1318999976 0.1008796766
0.2340555191 0.1437226832 0.1124516577
0.2548812926 0.1559232324 0.1248439252
0.2769679129 0.1687023044 0.1390094608
0.2984213233 0.1811062396 0.1516663581
0.3203388453 0.1936547309 0.1645656526
0.3419314027 0.2057977915 0.1770421714
0.3621489704 0.2174879611 0.1891970783
0.3814822435 0.2286372930 0.2006461322
0.4001379609 0.2392567694 0.2114449888
0.4179378152 0.2492711842 0.2212033272
0.4354502261 0.2590756714 0.2305893898
0.4522033930 0.2684326470 0.2393862605
0.4662247896 0.2762852907 0.2465736270
0.4784346819 0.2833296657 0.2527379692
0.4896865785 0.2901649177 0.2583976388
0.4991207421 0.2962711453 0.2630746663
0.5076876283 0.3021887243 0.2673244178
0.5156314969 0.3073220849 0.2710927427
0.5221275091 0.3119119406 0.2741913497
0.5269269347 0.3159714639 0.2766529620
0.5320212841 0.3207328320 0.2793842554
0.5352567434 0.3248779774 0.2814075351
0.5384475589 0.3291649520 0.2834533453
0.5401321650 0.3330395222 0.2850286067
0.5417537093 0.3371033072 0.2866251469
0.5436062217 0.3415120244 0.2883842885
0.5458880067 0.3464323878 0.2903843820
0.5482779741 0.3516020179 0.2923960686
0.5510345101 0.3572515547 0.2946034968
0.5540076494 0.3633448482 0.2969144583
0.5571487546 0.3696871102 0.2992584705
0.5605494976 0.3762427270 0.3016632497
0.5640458465 0.3829255998 0.3040614128
0.5677456260 0.3899317682 0.3065115511
0.5716797709 0.3968768418 0.3088612556
0.5758118033 0.4040555358 0.3112370968
0.5802080035 0.4112588167 0.3135578334
0.5845407844 0.4186047316 0.3158344626
0.5892800093 0.4259801507 0.3180707097
0.5943017006 0.4334107637 0.3203137219
0.5995268822 0.4409505725 0.3225274682
0.6046444178 0.4482114315 0.3246976733
0.6102119684 0.4556706846 0.3270659149
0.6155739427 0.4629219174 0.3296036124
0.6211322546 0.4702628255 0.3324332535
0.6263764501 0.4774210751 0.3354702890
0.6312853694 0.4844313860 0.3386217058
0.6367772818 0.4915068448 0.3416687846
0.6421954632 0.4982543886 0.3445928395
0.6469535232 0.5048177838 0.3473558724
0.6515402794 0.5111714005 0.3499493897
0.0806439444 0.0722490102 0.0529179387
0.0837162584 0.0729392692 0.0535567887
0.0882439166 0.0744106546 0.0546556748
0.0936517045 0.0762702152 0.0560760610
0.0993262902 0.0781457350 0.0578642786
0.1050501168 0.0799592212 0.0598603338
0.1116534099 0.0823137909 0.0621888191
0.1190833896 0.0857105106 0.0651438832
0.1294967532 0.0904003307 0.0686550811
0.1416526586 0.0962836519 0.0725880787
0.1553582847 0.1033533067 0.0776377395
0.1701891869 0.1105870083 0.0828979015
0.1882361770 0.1195101514 0.0895780101
0.2101364285 0.1308858544 0.0997525454
0.2305500060 0.1428250968 0.1113511771
0.2512266338 0.1548262388 0.1234971881
0.2738033831 0.1676430404 0.1376431882
0.2953068018 0.1799401194 0.1503131092
0.3173560202 0.1926068068 0.1633055955
0.3393703103 0.2050038576 0.1759577692
0.3600261211 0.2168431282 0.1882974356
0.3795424700 0.2280204743 0.1998534054
0.3984332085 0.2387535572 0.2107449621
0.4163011611 0.2487669587 0.2205082625
0.4339558482 0.2586960495 0.2300337702
0.4509104788 0.2681506276 0.2389219552
0.4651980698 0.2761307955 0.2462331653
0.4776302874 0.2834364474 0.2525438070
0.4889436960 0.2902821600 0.2582269013
0.4984754622 0.2965582311 0.2629750669
0.5073991418 0.3026854992 0.2673961222
0.5154638886 0.3078202009 0.2712005377
0.5219162703 0.3124145865 0.2742768526
0.5268778801 0.3165190518 0.2768032253
0.5320655107 0.3213384748 0.2795750201
0.5353094935 0.3254159987 0.2815750539
0.5386239886 0.3297601342 0.2836792767
0.5403435230 0.3335807621 0.2852439880
0.5419623852 0.3376125693 0.2868292034
0.5438253284 0.3419964015 0.2885855138
0.5460912585 0.3468723893 0.2905589938
0.5484794974 0.3520180285 0.2925613523
0.5512214899 0.3576388955 0.2947539389
0.5541636348 0.3636838198 0.2970421612
0.5573148727 0.3700020909 0.2993754148
0.5606847405 0.3765162826 0.3017581701
0.5641735792 0.3831650913 0.3041459620
0.5678654313 0.3901459873 0.3065865636
0.5717884302 0.3970656097 0.3089248836
0.5759150982 0.4042253792 0.3112923801
0.5803011060 0.4114057124 0.3136018813
0.5846170187 0.4187347591 0.3158724606
0.5893574357 0.4260941744 0.3181052208
0.5943695307 0.4335086346 0.3203427494
0.5995843410 0.4410354495 0.3225522935
0.6046980023 0.4482850432 0.3247190118
0.6102616787 0.4557353556 0.3270857930
0.6156136394 0.4629764259 0.3296218216
0.6211684942 0.4703106582 0.3324516714
0.6264046431 0.4774602354 0.3354881108
0.6313104033 0.4844661653 0.3386371732
0.6368018389 0.4915358722 0.3416813910
0.6422145963 0.4982790649 0.3446033001
0.6469687223 0.5048395395 0.3473647833
0.6515541077 0.5111890435 0.3499566019
0.0817933008 0.0777744204 0.0555631816
0.0848550871 0.0783675760 0.0561789908
0.0879031196 0.0790113434 0.0568336695
0.0926309749 0.0803242400 0.0580592528
0.0983869433 0.0818538889 0.0599842258
0.1038971767 0.0834584683 0.0617719032
0.1103102490 0.0854361281 0.0637083426
0.1178792417 0.0883741081 0.0663854927
0.1263912171 0.0921086967 0.0693605766
0.1390634328 0.0977561399 0.0734654963
0.1523517221 0.1039216220 0.0778351054
0.1672719568 0.1110587940 0.0829559267
0.1839858741 0.1190430075 0.0891972557
0.2062494755 0.1303949207 0.0991891995
0.2271004021 0.1420502067 0.1105327457
0.2477612793 0.1538204998 0.1222692654
0.2703448236 0.1665679067 0.1361981928
0.2919247448 0.1788384318 0.1489652544
0.3143701553 0.1916483194 0.1620206684
0.3369488716 0.2043205947 0.1750072688
0.3579446077 0.2162142247 0.1873915792
0.3776476979 0.2273962945 0.1990326941
0.3967154622 0.2382372469 0.2100152820
0.4146306813 0.2482982874 0.2198485285
0.4325183928 0.2583382726 0.2294892967
0.4496005177 0.2678499818 0.2384293377
0.4642194211 0.2761240304 0.2459650040
0.4768335819 0.2835460901 0.2523592710
0.4882045686 0.2904457450 0.2580666244
0.4978849590 0.2968704402 0.2629272640
0.5071055889 0.3031732142 0.2674627006
0.5153205991 0.3083524406 0.2713253200
0.5217487216 0.3129235208 0.2743808031
0.5269110203 0.3171799779 0.2770038545
0.5321164727 0.3219386041 0.2797682285
0.5353459716 0.3259330988 0.2817379236
0.5387855768 0.3303468525 0.2838990092
0.5405536294 0.3341189623 0.2854581475
0.5421701074 0.3381195068 0.2870323658
0.5440436602 0.3424791992 0.2887860835
0.5462939143 0.3473110497 0.2907330692
0.5486807823 0.3524332941 0.2927263379
0.5514084697 0.3580260575 0.2949043512
0.5543227196 0.3640208244 0.2971671522
0.5574811697 0.3703176379 0.2994929850
0.5608200431 0.3767899275 0.3018531501
0.5642970800 0.3834140897 0.3042333424
0.5679855347 0.3903607428 0.3066617250
0.5718972683 0.3972547054 0.3089886010
0.5760185719 0.4043953419 0.3113476932
0.5803943276 0.4115528464 0.3136459887
0.5846933126 0.4188649058 0.3159104288
0.5894350410 0.4262085855 0.3181397915
0.5944375396 0.4336066544 0.3203718662
0.5996412039 0.4411194921 0.3225769103
0.6047515273 0.4483586550 0.3247404099
0.6103117466 0.4558002949 0.3271057308
0.6156533360 0.4630307257 0.3296399713
0.6212050915 0.4703589678 0.3324702382
0.6264325976 0.4774993062 0.3355059028
0.6313372254 0.4845011830 0.3386527598
0.6368266344 0.4915654063 0.3416942358
0.6422337294 0.4983038604 0.3446138501
0.6469839215 0.5048614740 0.3473737538
0.6515681148 0.5112071633 0.3499639928
0.0829710737 0.0828854814 0.0581852160
0.0860749111 0.0833921507 0.0586969554
0.0889861360 0.0839202628 0.0592981502
0.0923916250 0.0846889615 0.0602319837
0.0975241214 0.0858981013 0.0620221794
0.1029579192 0.0874403939 0.0638986677
0.1091315374 0.0892896354 0.0656973124
0.1164911464 0.0916900784 0.0679263771
0.1241345778 0.0949197412 0.0706314296
0.1359530985 0.0995722488 0.0745045915
0.1491509974 0.1049347669 0.0783922374
0.1639178842 0.1118253022 0.0833415166
0.1800395101 0.1193388999 0.0893746093
0.2018044442 0.1300150454 0.0989553556
0.2230755538 0.1414177716 0.1096702144
0.2439583689 0.1531119347 0.1213981360
0.2664279342 0.1655031294 0.1346982121
0.2884839773 0.1779384613 0.1477454007
0.3113602400 0.1908760667 0.1609098911
0.3343242109 0.2036706060 0.1740368009
0.3556520641 0.2155846208 0.1864429414
0.3755744994 0.2268305868 0.1982030123
0.3947269619 0.2376651764 0.2092252374
0.4129833579 0.2479174137 0.2192466408
0.4309557080 0.2579787076 0.2288922817
0.4481657445 0.2675983012 0.2378960997
0.4631443024 0.2761568427 0.2456842065
0.4759656489 0.2836676836 0.2521850467
0.4874084890 0.2906705439 0.2579102218
0.4972300231 0.2972481847 0.2628746033
0.5066662431 0.3036543727 0.2674816251
0.5151721239 0.3089822829 0.2714698017
0.5215972662 0.3134941459 0.2745088041
0.5269775987 0.3179159462 0.2772469521
0.5321959257 0.3226388395 0.2799926400
0.5353786349 0.3264967799 0.2819161713
0.5388551950 0.3309227824 0.2840953469
0.5407866240 0.3347148895 0.2856953144
0.5423990488 0.3386783600 0.2872563004
0.5442881584 0.3430113792 0.2890067101
0.5465193987 0.3477911651 0.2909227014
0.5489032269 0.3528924882 0.2929088175
0.5516158938 0.3584540784 0.2950704694
0.5544987321 0.3643939793 0.2973055243
0.5576653481 0.3706685007 0.2996248007
0.5609701276 0.3770932257 0.3019583821
0.5644341111 0.3836914599 0.3043307066
0.5681187510 0.3905988038 0.3067450821
0.5720180869 0.3974645138 0.3090593219
0.5761334896 0.4045841694 0.3114092052
0.5804976821 0.4117160141 0.3136948347
0.5847780704 0.4190095961 0.3159526885
0.5895211697 0.4263355136 0.3181781769
0.5945129991 0.4337155819 0.3204042614
0.5997042060 0.4412125051 0.3226041496
0.6048111320 0.4484406114 0.3247642517
0.6103673577 0.4558725059 0.3271279931
0.6156973839 0.4630912244 0.3296602070
0.6212455630 0.4704126120 0.3324908912
0.6264639497 0.4775430262 0.3355257809
0.6313670874 0.4845401049 0.3386700451
0.6368538737 0.4915979207 0.3417083323
0.6422548890 0.4983314574 0.3446255624
0.6470010877 0.5048859119 0.3473837972
0.6515834928 0.5112268329 0.3499720395
0.0854749009 0.0898536891 0.0622759499
0.0881819353 0.0903585777 0.0631221682
0.0911060125 0.0908897594 0.0638911128
0.0943998918 0.0914528146 0.0645594150
0.0983441547 0.0924939141 0.0658404902
0.1030426174 0.0938981399 0.0676019713
0.1089289486 0.0955713913 0.0694860220
0.1160441861 0.0976052210 0.0714120269
0.1233666018 0.0998493731 0.0734140500
0.1323826164 0.1030172110 0.0761718899
0.1454130113 0.1077959985 0.0800157562
0.1599191725 0.1136352718 0.0845543966
0.1762224138 0.1205803007 0.0900326744
0.1962541342 0.1297126263 0.0983993560
0.2180666178 0.1407054216 0.1086386591
0.2397650927 0.1525879502 0.1207002550
0.2627007365 0.1650186479 0.1338718235
0.2849310040 0.1774343848 0.1469928324
0.3080238700 0.1901024133 0.1598283350
0.3313170373 0.2029155791 0.1729351133
0.3530251086 0.2150179148 0.1854888052
0.3731792569 0.2262818217 0.1972953379
0.3924367428 0.2370851636 0.2083141506
0.4111742377 0.2476729304 0.2186501026
0.4292017519 0.2576834857 0.2282606512
0.4464356303 0.2673845589 0.2373093665
0.4619284868 0.2762193084 0.2453882694
0.4749772549 0.2839158773 0.2520118058
0.4865391254 0.2910369635 0.2578154206
0.4964565039 0.2977117300 0.2627915740
0.5061144233 0.3042102754 0.2675128877
0.5149935484 0.3096921146 0.2716335952
0.5214197040 0.3141673803 0.2746611536
0.5270498395 0.3187406957 0.2775207460
0.5322790742 0.3234358132 0.2802470028
0.5354452729 0.3271970451 0.2821475267
0.5390106440 0.3315977454 0.2843415737
0.5410577655 0.3353998959 0.2859682739
0.5426644087 0.3393213749 0.2875146568
0.5445799232 0.3436319828 0.2892631590
0.5467790365 0.3483420610 0.2911401093
0.5491592884 0.3534200490 0.2931177318
0.5518684983 0.3589498997 0.2952611446
0.5547057390 0.3648239374 0.2974644005
0.5578777790 0.3710733652 0.2997771502
0.5611438155 0.3774443865 0.3020802438
0.5645924211 0.3840116560 0.3044430912
0.5682725310 0.3908738494 0.3068413436
0.5721567869 0.3977076113 0.3091402054
0.5762664080 0.4048025012 0.3114803135
0.5806173086 0.4119047523 0.3137513697
0.5848866701 0.4191769958 0.3160045743
0.5896211267 0.4264827967 0.3182227015
0.5946003199 0.4338419139 0.3204420507
0.5997771025 0.4413200319 0.3226357102
0.6048799753 0.4485355020 0.3247918487
0.6104319692 0.4559562504 0.3271538317
0.6157487035 0.4631615579 0.3296836913
0.6212924123 0.4704745710 0.3325147033
0.6265003085 0.4775936604 0.3355488181
0.6314016581 0.4845851958 0.3386901021
0.6368854642 0.4916355610 0.3417247236
0.6422796249 0.4983633757 0.3446390927
0.6470207572 0.5049141049 0.3473953307
0.6516013145 0.5112499595 0.3499814570
0.0887188390 0.0975959897 0.0672790036
0.0911641121 0.0979593843 0.0679856166
0.0938784331 0.0983513445 0.0687395707
0.0968648717 0.0988050252 0.0695549250
0.1002907902 0.0994669646 0.0704220831
0.1040047929 0.1003535092 0.0714343041
0.1089347973 0.1015385911 0.0728463903
0.1156493798 0.1033121571 0.0746594444
0.1226329058 0.1052590683 0.0764496028
0.1310740411 0.1078028157 0.0787523836
0.1415675730 0.1114961505 0.0820678398
0.1562808007 0.1167547479 0.0866652504
0.1720245779 0.1228535920 0.0915345475
0.1918334812 0.1312999874 0.0996127725
0.2131770551 0.1414432973 0.1090143248
0.2354212254 0.1528627872 0.1206987873
0.2586378753 0.1649216264 0.1333542913
0.2807832360 0.1770459563 0.1460692883
0.3039810956 0.1895530522 0.1587343812
0.3275976181 0.2023555785 0.1717841029
0.3499153554 0.2145835459 0.1845191419
0.3703930676 0.2258094847 0.1962863356
0.3902176321 0.2368512005 0.2075991631
0.4091044664 0.2474028319 0.2179430872
0.4272328615 0.2575397491 0.2276687324
0.4444467425 0.2671517134 0.2366710156
0.4604509771 0.2763278484 0.2450251281
0.4738132060 0.2842156887 0.2518149018
0.4855410755 0.2915193439 0.2577079833
0.4956206381 0.2982763648 0.2627264559
0.5055519938 0.3049280941 0.2675786018
0.5147950053 0.3104992211 0.2718203366
0.5212705135 0.3150236011 0.2748796046
0.5271336436 0.3196752369 0.2778259516
0.5323597193 0.3243195117 0.2805261314
0.5355372429 0.3280255497 0.2824250162
0.5392010212 0.3323984146 0.2846300900
0.5413675308 0.3361823857 0.2862800360
0.5429708958 0.3400585949 0.2878117263
0.5449110866 0.3443445563 0.2895535827
0.5470640063 0.3489732146 0.2913847864
0.5494543910 0.3540232778 0.2933541536
0.5521590710 0.3595203757 0.2954804897
0.5549521446 0.3653238714 0.2976481915
0.5581233501 0.3715415001 0.2999532223
0.5613593459 0.3778563440 0.3022291362
0.5647750497 0.3843811452 0.3045727909
0.5684502125 0.3911915720 0.3069525659
0.5723122954 0.3979904950 0.3092303276
0.5764206052 0.4050559402 0.3115627468
0.5807561874 0.4121238291 0.3138170242
0.5850160718 0.4193713069 0.3160658181
0.5897366405 0.4266529679 0.3182741702
0.5947013497 0.4339882135 0.3204857707
0.5998615026 0.4414446652 0.3226722181
0.6049597263 0.4486453831 0.3248238266
0.6105067134 0.4560531974 0.3271842599
0.6158077717 0.4632425606 0.3297107518
0.6213470101 0.4705466628 0.3325424492
0.6265420914 0.4776519835 0.3355753720
0.6314416528 0.4846372604 0.3387132585
0.6369224191 0.4916794300 0.3417438269
0.6423081756 0.4984003305 0.3446548283
0.6470435858 0.5049468875 0.3474087417
0.6516221166 0.5112767220 0.3499924242
0.0926245749 0.1060990617 0.0727267340
0.0947984010 0.1064740121 0.0733894706
0.0973980948 0.1068992838 0.0740759149
0.1001314372 0.1073722765 0.0748275742
0.1031064913 0.1080629081 0.0757458359
0.1063646004 0.1088558584 0.0767793655
0.1102030128 0.1097442359 0.0780815259
0.1160803959 0.1112826765 0.0798723921
0.1229464114 0.1131040677 0.0818210989
0.1310270131 0.1152777597 0.0840341449
0.1406186372 0.1179701462 0.0866383836
0.1530844420 0.1221878827 0.0907649174
0.1682401150 0.1274512708 0.0957074761
0.1877793670 0.1350288689 0.1024464071
0.2076015770 0.1432513446 0.1104279086
0.2301967889 0.1539573073 0.1213488951
0.2539110780 0.1655764133 0.1333278716
0.2762383819 0.1771450341 0.1452742815
0.2995050550 0.1893636733 0.1578345746
0.3232825696 0.2017173618 0.1703745425
0.3463323116 0.2140622735 0.1833350360
0.3675647974 0.2256394476 0.1954718381
0.3878011405 0.2367615849 0.2069458663
0.4066489339 0.2472328246 0.2172078788
0.4250892997 0.2575294971 0.2270929217
0.4423982203 0.2671944797 0.2361354530
0.4587372541 0.2765148878 0.2446131706
0.4724974930 0.2846409082 0.2516113818
0.4844588339 0.2921913862 0.2576242387
0.4947567880 0.2991088331 0.2627532780
0.5048582554 0.3056718707 0.2676178515
0.5142195821 0.3113134801 0.2719035745
0.5213199258 0.3161615133 0.2752394080
0.5272432566 0.3207913041 0.2781832814
0.5323979855 0.3252560496 0.2808195353
0.5356290936 0.3289660215 0.2827360630
0.5394232869 0.3333162665 0.2849611044
0.5417510867 0.3371275365 0.2866589427
0.5433191657 0.3408927321 0.2881478071
0.5452910662 0.3451623023 0.2898868918
0.5473908186 0.3497020006 0.2916670740
0.5497950912 0.3547192216 0.2936284840
0.5524945855 0.3601790369 0.2957337797
0.5552386642 0.3659049571 0.2978618443
0.5584079027 0.3720831275 0.3001568615
0.5616127253 0.3783341348 0.3024055064
0.5649855733 0.3848073184 0.3047223389
0.5686557889 0.3915594816 0.3070816696
0.5724923015 0.3983179033 0.3093348742
0.5765995383 0.4053498805 0.3116584122
0.5809174776 0.4123784006 0.3138933182
0.5851659775 0.4195961654 0.3161371052
0.5898706913 0.4268504679 0.3183339238
0.5948182344 0.4341573715 0.3205363750
0.5999593139 0.4415889680 0.3227145076
0.6050521135 0.4487724900 0.3248608112
0.6105929613 0.4561654627 0.3272195756
0.6158803105 0.4633367658 0.3297421038
0.6214100718 0.4706299603 0.3325744867
0.6265908480 0.4777198732 0.3356062472
0.6314880252 0.4846978486 0.3387401700
0.6369648576 0.4917299449 0.3417657614
0.6423411965 0.4984432161 0.3446730375
0.6470700502 0.5049846768 0.3474242389
0.6516461372 0.5113076568 0.3500050604
0.0992997363 0.1165054739 0.0792314038
0.1008644998 0.1168225035 0.0798895806
0.1024961695 0.1171482578 0.0805862471
0.1047358215 0.1173985302 0.0811545923
0.1071104556 0.1178269163 0.0819318071
0.1101124138 0.1184388101 0.0829018503
0.1139558777 0.1192274317 0.0842126310
0.1182177290 0.1203650013 0.0859069526
0.1236447766 0.1217039004 0.0876773894
0.1314843595 0.1236386672 0.0899352655
0.1406205595 0.1259094775 0.0923307985
0.1510884166 0.1287451982 0.0951982066
0.1645253450 0.1332835108 0.0996499136
0.1834739447 0.1397796124 0.1057750508
0.2033028454 0.1470937729 0.1133488417
0.2244002074 0.1560793668 0.1229435131
0.2483935505 0.1667874902 0.1337523609
0.2715474963 0.1778675616 0.1448292881
0.2942757905 0.1892934144 0.1568771899
0.3186662495 0.2016326487 0.1693505943
0.3428278863 0.2144268453 0.1827477813
0.3644727468 0.2259975821 0.1949341297
0.3848581314 0.2369803637 0.2062224448
0.4038097858 0.2473763674 0.2165052444
0.4225991666 0.2576305270 0.2264414877
0.4402711391 0.2674532831 0.2356540561
0.4567372203 0.2768656611 0.2441759408
0.4708851278 0.2852649987 0.2513468862
0.4832049012 0.2929440439 0.2575413883
0.4937837720 0.3001347184 0.2628072798
0.5041092038 0.3066470921 0.2677102089
0.5135218501 0.3122539222 0.2719860375
0.5213699341 0.3174693882 0.2756558061
0.5273361206 0.3220531940 0.2785812914
0.5324636698 0.3263568878 0.2811720967
0.5357601643 0.3300465643 0.2830979824
0.5396784544 0.3343551159 0.2853364348
0.5421961546 0.3382142782 0.2870947719
0.5437749028 0.3419088423 0.2885685861
0.5457242727 0.3460980654 0.2902694345
0.5477633476 0.3505359590 0.2919916809
0.5501862764 0.3555133641 0.2939422727
0.5528814793 0.3609374464 0.2960249782
0.5555714965 0.3665785789 0.2981103063
0.5587409735 0.3727136850 0.3003934026
0.5619047880 0.3788859844 0.3026107252
0.5652312636 0.3853043914 0.3048968613
0.5688967109 0.3919874430 0.3072266579
0.5727000833 0.3986958861 0.3094555438
0.5768062472 0.4056894183 0.3117688596
0.5811038017 0.4126728773 0.3139818311
0.5853391886 0.4198561907 0.3162197173
0.5900258422 0.4270792305 0.3184030652
0.5949534774 0.4343530238 0.3205949068
0.6000724435 0.4417560697 0.3227635026
0.6051590443 0.4489196837 0.3249048889
0.6106926799 0.4562953115 0.3272604644
0.6159664392 0.4634456635 0.3297783136
0.6214828491 0.4707261622 0.3326115012
0.6266471148 0.4777984023 0.3356419802
0.6315416098 0.4847677350 0.3387712538
0.6370142102 0.4917886257 0.3417912722
0.6423796415 0.4984930456 0.3446941972
0.6471005082 0.5050283670 0.3474421501
0.6516740322 0.5113435984 0.3500197530
0.1055346951 0.1268157512 0.0859829783
0.1067991704 0.1270723194 0.0866186395
0.1081620604 0.1273504198 0.0872806013
0.1098585576 0.1276961863 0.0880712420
0.1121183261 0.1283224523 0.0891214013
0.1148915067 0.1288896054 0.0899953395
0.1181420609 0.1296797097 0.0912781060
0.1222486943 0.1309078336 0.0930596367
0.1266621500 0.1321545392 0.0946318507
0.1327769160 0.1337893009 0.0964284986
0.1413783282 0.1358211786 0.0986583605
0.1514370143 0.1383723170 0.1014778167
0.1623250246 0.1413025409 0.1048785448
0.1795159727 0.1464086622 0.1103753969
0.1987568289 0.1528988630 0.1175396740
0.2193932980 0.1605581343 0.1258915663
0.2422897369 0.1698552072 0.1352574527
0.2663635314 0.1804720759 0.1457948089
0.2896497250 0.1915409565 0.1574325264
0.3139183819 0.2030992657 0.1691994667
0.3388024569 0.2155716717 0.1824868619
0.3608803153 0.2268770337 0.1943992525
0.3818045855 0.2377430052 0.2057660967
0.4007044733 0.2476945519 0.2157744318
0.4200471640 0.2582050860 0.2259816974
0.4377476573 0.2680238187 0.2351871878
0.4544333518 0.2774821818 0.2437753528
0.4691256881 0.2860368192 0.2511305511
0.4817786217 0.2940066159 0.2574796975
0.4927690029 0.3014433682 0.2629326880
0.5032640696 0.3078674078 0.2678470016
0.5130491853 0.3135684133 0.2722650766
0.5211246610 0.3188283741 0.2760036588
0.5274318457 0.3234678507 0.2790361047
0.5325405002 0.3276163042 0.2815794051
0.5359849334 0.3313347697 0.2835453451
0.5400170088 0.3355531096 0.2857857347
0.5425906777 0.3393861651 0.2875441015
0.5443095565 0.3430815339 0.2890556753
0.5462200046 0.3471711278 0.2906952798
0.5482462049 0.3515487611 0.2923924029
0.5506440997 0.3564550579 0.2943101525
0.5532889366 0.3618018329 0.2963498533
0.5559731126 0.3673842847 0.2984114587
0.5591254830 0.3734416068 0.3006665111
0.5622434020 0.3795254529 0.3028485179
0.5655164123 0.3858803511 0.3050997257
0.5691766739 0.3924814165 0.3073890805
0.5729396939 0.3991317451 0.3095947206
0.5770510435 0.4060808122 0.3118958175
0.5813100338 0.4130146801 0.3140879571
0.5855392814 0.4201564789 0.3163151443
0.5902053714 0.4273438454 0.3184830546
0.5951098800 0.4345794022 0.3206626475
0.6002030373 0.4419490099 0.3228202462
0.6052827835 0.4490900934 0.3249559700
0.6108081341 0.4564456046 0.3273078203
0.6160660386 0.4635717571 0.3298202157
0.6215673089 0.4708377421 0.3326544166
0.6267124414 0.4778894782 0.3356834054
0.6316038966 0.4848489463 0.3388073146
0.6370714903 0.4918567836 0.3418208957
0.6424241662 0.4985506833 0.3447186649
0.6471361518 0.5050792098 0.3474630117
0.6517061591 0.5113850832 0.3500366807
0.1143715903 0.1399914026 0.0948168635
0.1155758873 0.1401671916 0.0952995196
0.1166941673 0.1403477490 0.0957881734
0.1179826260 0.1405726373 0.0963544622
0.1197688133 0.1412242949 0.0973264948
0.1218122691 0.1420543194 0.0984807312
