skills/davinci/davinci-film-colorist/assets/HF-Astra-Looks/DCTL/ASTRA_LookMixer_Data/portra.cube
# System: Photo - Color C-41
# Mode: Full Emulation
# Source: DaVinci Wide Gamut Intermediate
# Camera | Disabled
# Negative | Color & Tone Stock: Portra 400, Gamut Compression | Amount: 1.000, Threshold: (0.250, 0.250, 0.074), Distance: (0.045, 0.045, 0.037)
# Lab | Disabled
# Print | System: Photo Color, Style: Custom, Tone Curve: -1.000, Color: -1.000, Neutralize Balance: 0.000, Black Point: 0.736
# Display Colorspace: RCM SDR
LUT_3D_SIZE 5
0.0704721212 0.0812884867 0.0914628655
0.2073823214 0.1207514554 0.1157914624
0.3995619416 0.2123448551 0.2025709599
0.5301692486 0.3509659767 0.2888105512
0.6819819808 0.5102646351 0.3650144935
0.0959159955 0.1678083837 0.1428034306
0.1816910803 0.1944934726 0.1602369994
0.4281849265 0.2568790019 0.2281466573
0.5415574312 0.3652420640 0.2956795990
0.6829578876 0.5111084580 0.3654754162
0.2395171374 0.4020633399 0.3130947948
0.2805087566 0.4160545170 0.3154020011
0.5130385756 0.4510207474 0.3098136485
0.6151908636 0.4515248835 0.3336687088
0.6916053295 0.5188053846 0.3699926734
0.4144506752 0.5076436400 0.3786561489
0.4252819121 0.5106440187 0.3788482249
0.5072709322 0.5320389867 0.3817591369
0.6869137287 0.5609322786 0.3925895989
0.7387335896 0.5589160919 0.3956155479
0.6266530156 0.5590466261 0.3917046487
0.6275334954 0.5592186451 0.3918023109
0.6358379126 0.5609654784 0.3928688169
0.6905658245 0.5717926025 0.4008612037
0.7576936483 0.5854260325 0.4132549167
0.0389582366 0.0758178309 0.1882463694
0.2113005072 0.1133596748 0.1741962582
0.3843923509 0.1948293447 0.1979438663
0.5289216042 0.3493562043 0.2880441248
0.6818701029 0.5101683736 0.3649631143
0.0941966251 0.1772831380 0.1873604953
0.1993536800 0.2051765919 0.2071880251
0.4169450700 0.2383721173 0.2243718058
0.5403460264 0.3637303412 0.2949510515
0.6828560829 0.5110194087 0.3654232621
0.2381507754 0.4006154239 0.3121534288
0.2782847285 0.4137900770 0.3137784302
0.5127642155 0.4504269958 0.3094901443
0.6147529483 0.4510202110 0.3334642947
0.6915140748 0.5187324882 0.3699493408
0.4140086472 0.5075203776 0.3786478639
0.4249091744 0.5105398297 0.3788397908
0.5070812702 0.5319906473 0.3817486167
0.6868959069 0.5609058142 0.3925696909
0.7387082577 0.5588943958 0.3956007361
0.6266189814 0.5590399504 0.3917008936
0.6275008917 0.5592123270 0.3917986155
0.6358114481 0.5609602928 0.3928655088
0.6905546784 0.5717901587 0.4008592963
0.7576935887 0.5854259729 0.4132548869
0.1198257655 0.1843567491 0.3455558121
0.1674072295 0.1874596328 0.3489126265
0.3836759031 0.1958252341 0.3481917083
0.5109155774 0.3442772031 0.3812682331
0.6806842685 0.5091506243 0.3644152880
0.1334877312 0.2010125518 0.3681917787
0.1355334967 0.2034725696 0.3715751767
0.3784109354 0.1879434884 0.3371053636
0.5268793106 0.3665438592 0.3920834661
0.6816897392 0.5100129247 0.3648801744
0.2057847381 0.4371717572 0.4752873182
0.2425868064 0.4509002268 0.4886617959
0.5802999139 0.5836151242 0.5656610727
0.6295114160 0.4872420728 0.4130121171
0.6905460358 0.5179576278 0.3694892228
0.4279497266 0.5220342278 0.4014917016
0.4398204386 0.5249555111 0.4010241032
0.5263212919 0.5415338278 0.3932245970
0.6867071986 0.5606240630 0.3923574090
0.7384359837 0.5586591363 0.3954440951
0.6262575984 0.5589694381 0.3916609287
0.6271443367 0.5591427088 0.3917590976
0.6355213523 0.5608996749 0.3928269148
0.6904362440 0.5717642903 0.4008386433
0.7576934695 0.5854260325 0.4132548869
0.1792392582 0.2035958767 0.3709494770
0.2209445834 0.2070972770 0.3747597039
0.3583061695 0.2207334340 0.3872694671
0.4435403645 0.2697034776 0.4093514085
0.7735031843 0.6737589836 0.6857045293
0.1804317087 0.2036844045 0.3710452616
0.2217014283 0.2071674615 0.3748358190
0.3584399819 0.2207522839 0.3872869611
0.4435403645 0.2697034776 0.4093514085
0.7756366730 0.6760335565 0.6866039038
0.2142154574 0.3923300803 0.5054410100
0.2158441842 0.3979213834 0.5085276365
0.3963595331 0.4458586276 0.5442637205
0.5664823055 0.4315517843 0.5356695056
0.7938787341 0.6978802681 0.6931633353
0.3720737398 0.5987890959 0.6798079610
0.3921607435 0.6088291407 0.6876112223
0.5435535908 0.6874552369 0.7358235121
0.8083232641 0.8035398126 0.7781932354
0.8410487175 0.7529984713 0.6711348295
0.7627365589 0.7572633624 0.6689813137
0.7637166977 0.7572578788 0.6686342359
0.7721673250 0.7564398646 0.6649951935
0.8044253588 0.7269127369 0.6116217971
0.7576927543 0.5854257345 0.4132545292
0.3875758648 0.2316572666 0.3916565478
0.3897141516 0.2328773141 0.3920846879
0.4071286321 0.2437670976 0.3964504302
0.4435397685 0.2697026432 0.4093508422
0.4435403645 0.2697034776 0.4093514085
0.3876260221 0.2316863537 0.3916669190
0.3897609711 0.2329051644 0.3920951188
0.4071611166 0.2437878400 0.3964595497
0.4435397685 0.2697026432 0.4093508124
0.4435403347 0.2697034776 0.4093514085
0.3881540000 0.2319900244 0.3917736411
0.3902526200 0.2331978530 0.3922044337
0.4075089097 0.2440088540 0.3965569437
0.4435397685 0.2697026432 0.4093508422
0.4435403645 0.2697034776 0.4093514085
0.4438936114 0.6163105965 0.6854599714
0.4493757486 0.6190308928 0.6873034239
0.5043312907 0.6471250653 0.7040149570
0.7803364992 0.7680086493 0.7865877151
0.8383234739 0.7619963288 0.7878806591
0.6587051749 0.7872928381 0.8252232671
0.6616204381 0.7888479829 0.8253490329
0.6874522567 0.8011901975 0.8260418177
0.7948550582 0.8303791285 0.8243259788
0.8673070669 0.8481341600 0.8304095268
