skills/davinci/davinci-film-colorist/assets/HF-Astra-Looks/DCTL/ASTRA_LookMixer_Data/portra.cube
# System: Photo - Color C-41
# Mode: Full Emulation
# Source: DaVinci Wide Gamut Intermediate
# Camera | Disabled
# Negative | Color & Tone Stock: Portra 400, Gamut Compression | Amount: 1.000, Threshold: (0.250, 0.250, 0.074), Distance: (0.045, 0.045, 0.037)
# Lab | Disabled
# Print | System: Photo Color, Style: Custom, Tone Curve: -1.000, Color: -1.000, Neutralize Balance: 0.000, Black Point: 0.736
# Display Colorspace: RCM SDR
LUT_3D_SIZE 65
0.0704721212 0.0812884867 0.0914628655
0.0717483386 0.0813376307 0.0913617834
0.0730611384 0.0814710781 0.0913367420
0.0744976699 0.0815976486 0.0913069695
0.0766302273 0.0817862824 0.0912351906
0.0797977969 0.0820817873 0.0912038833
0.0833874941 0.0825458765 0.0912730172
0.0884239748 0.0833709612 0.0913604498
0.0946588889 0.0842680484 0.0914541259
0.1028473079 0.0857562423 0.0919934660
0.1125498861 0.0879475996 0.0931568369
0.1246657223 0.0910003707 0.0951936021
0.1386311948 0.0950356051 0.0974967405
0.1548989117 0.1001629308 0.1007625610
0.1720180959 0.1063933447 0.1049673185
0.1892404407 0.1128540561 0.1096437648
0.2073823214 0.1207514554 0.1157914624
0.2259663343 0.1287096739 0.1222136170
0.2452348471 0.1372015625 0.1294144988
0.2646960914 0.1460108459 0.1373618990
0.2828681767 0.1545203030 0.1453181207
0.2995661497 0.1621354520 0.1527425498
0.3140400350 0.1686836332 0.1594299972
0.3269765079 0.1747288108 0.1656927317
0.3376402259 0.1796824634 0.1709319353
0.3471498787 0.1840215772 0.1756246984
0.3554386795 0.1880094707 0.1796618700
0.3632819653 0.1917785704 0.1835525930
0.3708721101 0.1956369281 0.1872992814
0.3785568476 0.1998247653 0.1911672503
0.3862085640 0.2044270188 0.1953416914
0.3931501508 0.2083773911 0.1990861148
0.3995619416 0.2123448551 0.2025709599
0.4061870575 0.2167667001 0.2063612938
0.4128210545 0.2216416299 0.2102277726
0.4196439683 0.2269527167 0.2143553346
0.4266741276 0.2330297083 0.2189308554
0.4338260591 0.2397764921 0.2237039655
0.4414816797 0.2472202629 0.2288337946
0.4493461847 0.2552909553 0.2342341095
0.4576591551 0.2642949522 0.2399834841
0.4664201140 0.2739593387 0.2459933758
0.4753013849 0.2841534615 0.2520236373
0.4844334424 0.2947893441 0.2583877146
0.4935993552 0.3056692779 0.2646518052
0.5027988553 0.3169074357 0.2709642649
0.5121355057 0.3285030723 0.2771988511
0.5214610696 0.3399789035 0.2832319736
0.5301692486 0.3509659767 0.2888105512
0.5396960974 0.3626890779 0.2946408987
0.5496484637 0.3747354448 0.3005589843
0.5594846010 0.3863443136 0.3062281013
0.5689990520 0.3976778984 0.3115401268
0.5793350339 0.4094048142 0.3170994818
0.5896766186 0.4209851027 0.3223425448
0.5991637111 0.4312288761 0.3270428777
0.6092961431 0.4416873157 0.3317617178
0.6188914776 0.4515536726 0.3361520767
0.6285120845 0.4610979557 0.3404899240
0.6379907727 0.4704356790 0.3446822762
0.6466393471 0.4789174795 0.3487723768
0.6562789679 0.4874529839 0.3529937267
0.6647292972 0.4952134490 0.3569148183
0.6733961105 0.5026925802 0.3608905077
0.6819819808 0.5102646351 0.3650144935
0.0697583854 0.0820447803 0.0917316079
0.0710255355 0.0821752995 0.0917441323
0.0723110512 0.0822495297 0.0916955024
0.0736862570 0.0823905841 0.0916591957
0.0756414086 0.0826072842 0.0916732699
0.0785175115 0.0828333050 0.0916059837
0.0821264088 0.0831578001 0.0915823206
0.0869152620 0.0839189515 0.0916912258
0.0928901732 0.0848341659 0.0918260589
0.1010942087 0.0860703439 0.0922153443
0.1103903428 0.0880706310 0.0931629315
0.1225605160 0.0911765844 0.0952785239
0.1358917803 0.0947661102 0.0973297507
0.1529115587 0.1003474072 0.1008791700
0.1701072007 0.1065553874 0.1051897928
0.1875531971 0.1130604520 0.1098124459
0.2058116347 0.1208809912 0.1158035547
0.2250922620 0.1292338818 0.1225636601
0.2449405640 0.1380523890 0.1300503463
0.2645066679 0.1468646526 0.1379258037
0.2832273245 0.1555981785 0.1461452842
0.3000613153 0.1632112563 0.1535488963
0.3147817850 0.1699868441 0.1603884846
0.3278719187 0.1760719866 0.1667067409
0.3385377824 0.1809190214 0.1718822569
0.3482439518 0.1854453087 0.1767112762
0.3564163744 0.1892867982 0.1806229949
0.3642969728 0.1930839121 0.1845818609
0.3718070388 0.1968524903 0.1882559955
0.3794912696 0.2010492086 0.1921210885
0.3871161342 0.2056185007 0.1962389648
0.3939791322 0.2095043510 0.1999353468
0.4002862275 0.2133923322 0.2033157349
0.4068713784 0.2177561969 0.2070019692
0.4133944511 0.2225141227 0.2107756883
0.4201784730 0.2278063446 0.2148840874
0.4272133112 0.2338964343 0.2194453627
0.4343394935 0.2405989915 0.2241822630
0.4418908358 0.2478990406 0.2291930765
0.4497419894 0.2559530437 0.2345747054
0.4580560625 0.2649282217 0.2403054386
0.4667834640 0.2745445967 0.2462698519
0.4756615758 0.2846918404 0.2522921264
0.4847649932 0.2952843606 0.2586246729
0.4939049184 0.3061190844 0.2648712993
0.5030944347 0.3173320889 0.2711679339
0.5124194622 0.3288843930 0.2773871720
0.5216996074 0.3402994275 0.2833850980
0.5303894877 0.3512502611 0.2889457941
0.5399119258 0.3629543483 0.2947689295
0.5498455763 0.3749737144 0.3006750047
0.5596503019 0.3865375817 0.3063208163
0.5691522956 0.3978500962 0.3116235435
0.5794650912 0.4095524251 0.3171667159
0.5897916555 0.4211086333 0.3223983943
0.5992513299 0.4313226044 0.3270846307
0.6093709469 0.4417663217 0.3317964971
0.6189547181 0.4516156912 0.3361797929
0.6285643578 0.4611529410 0.3405139744
0.6380347013 0.4704796374 0.3447020054
0.6466739178 0.4789523482 0.3487891853
0.6563112140 0.4874819219 0.3530083895
0.6647520661 0.4952351153 0.3569263220
0.6734191775 0.5027119517 0.3609012067
0.6820017099 0.5102816224 0.3650235236
0.0690639466 0.0828619525 0.0920423716
0.0703658760 0.0829377025 0.0920204297
0.0716236085 0.0830792263 0.0920436904
0.0729813203 0.0831696689 0.0920324549
0.0749036744 0.0834058747 0.0920618623
0.0773683712 0.0837265700 0.0921264887
0.0807418972 0.0838906989 0.0919881091
0.0856209472 0.0845458508 0.0920301378
0.0910274163 0.0853618160 0.0921400413
0.0991702452 0.0864078030 0.0924814939
0.1082962528 0.0882856026 0.0933290944
0.1200725958 0.0912335962 0.0951742679
0.1336062402 0.0947540179 0.0973667130
0.1504498869 0.1004472747 0.1009285152
0.1680348516 0.1066005081 0.1052533090
0.1857127249 0.1131957099 0.1099290326
0.2043799609 0.1211291254 0.1159155741
0.2244159728 0.1298837215 0.1230225861
0.2442730516 0.1386279464 0.1303930730
0.2644426823 0.1478032321 0.1385340989
0.2836946249 0.1567635387 0.1469588727
0.3005474210 0.1643324345 0.1543460637
0.3155815303 0.1713153571 0.1613764912
0.3285607696 0.1772100329 0.1675783992
0.3394341469 0.1821530610 0.1728282720
0.3492053151 0.1867579371 0.1776856929
0.3573522568 0.1905126423 0.1815544814
0.3652518988 0.1943446547 0.1855631471
0.3727375865 0.1980817467 0.1892051250
0.3804049790 0.2022935301 0.1930363178
0.3880113363 0.2067841738 0.1971212626
0.3946920335 0.2105660737 0.2006762177
0.4010300934 0.2144307047 0.2040570676
0.4074620306 0.2186794132 0.2075776607
0.4139628112 0.2233788073 0.2113187164
0.4207420945 0.2287203819 0.2154348344
0.4277485311 0.2347515523 0.2199536115
0.4348683953 0.2414155453 0.2246510386
0.4423337877 0.2485831231 0.2295666933
0.4501377642 0.2566021681 0.2349094301
0.4584545493 0.2655517757 0.2406224757
0.4671461880 0.2751253247 0.2465451509
0.4760219157 0.2852309644 0.2525610924
0.4850964248 0.2957791984 0.2588615119
0.4942106009 0.3065690994 0.2650908530
0.5033901930 0.3177569509 0.2713716924
0.5127038360 0.3292661309 0.2775757313
0.5219387412 0.3406206667 0.2835386395
0.5306099057 0.3515347540 0.2890811563
0.5401279330 0.3632198274 0.2948970795
0.5500431657 0.3752124608 0.3007912934
0.5598162413 0.3867312670 0.3064137101
0.5693061948 0.3980231583 0.3117077053
0.5795956254 0.4097005129 0.3172341883
0.5899070501 0.4212325811 0.3224543929
0.5993398428 0.4314172268 0.3271268010
0.6094460487 0.4418458343 0.3318314254
0.6190180182 0.4516777396 0.3362075686
0.6286169291 0.4612082839 0.3405381739
0.6380786896 0.4705237150 0.3447217643
0.6467085481 0.4789872468 0.3488061130
0.6563436389 0.4875110388 0.3530231714
0.6647750139 0.4952569008 0.3569379747
0.6734424233 0.5027315021 0.3609119654
0.6820216775 0.5102988482 0.3650327325
0.0682802573 0.0837121606 0.0923211724
0.0695846006 0.0838081762 0.0923261940
0.0708743632 0.0839068741 0.0923354328
0.0722413436 0.0840493813 0.0924136713
0.0741766319 0.0842565373 0.0924796686
0.0765588880 0.0846010745 0.0925488248
0.0792544484 0.0849275887 0.0926295370
0.0843670815 0.0853167698 0.0925201625
0.0892894268 0.0859353617 0.0925339237
0.0971047580 0.0870459005 0.0929569453
0.1062157899 0.0887073353 0.0937184989
0.1174087450 0.0914281085 0.0951948687
0.1313769072 0.0952289402 0.0977522209
0.1477384120 0.1006226838 0.1010531187
0.1656086147 0.1065864712 0.1051258519
0.1836392879 0.1133954301 0.1100990474
0.2029567212 0.1215276197 0.1161511987
0.2234145850 0.1304372698 0.1233842149
0.2434206456 0.1392012388 0.1306408942
0.2643743753 0.1488156021 0.1392143369
0.2837991416 0.1577786207 0.1476057619
0.3011513352 0.1656704992 0.1552645266
0.3164666593 0.1727593094 0.1624224782
0.3294000626 0.1785458773 0.1685758829
0.3404958844 0.1836209595 0.1739212275
0.3502368331 0.1881489009 0.1787120849
0.3583953977 0.1918609440 0.1825896353
0.3663035333 0.1957503855 0.1866035014
0.3738377392 0.1995421201 0.1902766377
0.3813970089 0.2036293000 0.1940284073
0.3889839649 0.2080538869 0.1980753988
0.3954705298 0.2117424756 0.2014777958
0.4018114805 0.2155997008 0.2048128843
0.4081093073 0.2197002470 0.2082121670
0.4145863056 0.2243274003 0.2119144201
0.4213431180 0.2297153622 0.2160159498
0.4283342957 0.2356545776 0.2204979807
0.4354539812 0.2423141599 0.2251655906
0.4428455532 0.2493957132 0.2300078571
0.4505937397 0.2573144436 0.2352807671
0.4588962495 0.2662331164 0.2409700751
0.4675470293 0.2757671773 0.2468494624
0.4764203131 0.2858268619 0.2528584003
0.4854633808 0.2963270843 0.2591237426
0.4945493639 0.3070677519 0.2653341889
0.5037177801 0.3182276487 0.2715974748
0.5130188465 0.3296892345 0.2777846158
0.5222041607 0.3409771919 0.2837089598
0.5308547020 0.3518505991 0.2892314494
0.5403679609 0.3635147214 0.2950394154
0.5502598286 0.3754729629 0.3009167612
0.5600007772 0.3869465888 0.3065170050
0.5694772601 0.3982157409 0.3118016422
0.5797408223 0.4098651409 0.3173091710
0.5900356770 0.4213720858 0.3225179613
0.5994382501 0.4315223992 0.3271736801
0.6095295548 0.4419340193 0.3318702281
0.6190882921 0.4517465234 0.3362383544
0.6286752224 0.4612696171 0.3405649960
0.6381276846 0.4705728889 0.3447438180
0.6467472315 0.4790261984 0.3488249481
0.6563792825 0.4875431359 0.3530394137
0.6648004055 0.4952811599 0.3569508195
0.6734684110 0.5027533174 0.3609240353
0.6820437312 0.5103178024 0.3650428355
0.0677870587 0.0849723965 0.0927940607
0.0689873248 0.0851328149 0.0929176137
0.0702878311 0.0852259248 0.0929384530
0.0716630295 0.0853227302 0.0929661989
0.0734942853 0.0855507627 0.0931203738
0.0758572891 0.0859114900 0.0933014452
0.0784055367 0.0862771273 0.0934356004
0.0828859136 0.0867531002 0.0935548246
0.0877954140 0.0872152746 0.0934699476
0.0945374668 0.0881261081 0.0936693996
0.1038499996 0.0895854682 0.0944603756
0.1149735302 0.0921559706 0.0958776772
0.1282626987 0.0956457257 0.0980479345
0.1448163688 0.1007762998 0.1012490988
0.1624715179 0.1065971181 0.1050855592
0.1814912856 0.1137991771 0.1104291454
0.2013520449 0.1220788807 0.1165018454
0.2216276228 0.1307669282 0.1234794557
0.2425057143 0.1399132758 0.1310037524
0.2640679181 0.1498118788 0.1399093270
0.2837662995 0.1588723063 0.1482665092
0.3017181754 0.1671459079 0.1562573165
0.3170953989 0.1741437763 0.1633957475
0.3304073811 0.1801313609 0.1697361767
0.3416993916 0.1853263080 0.1751441509
0.3512815833 0.1897282898 0.1798102707
0.3596412539 0.1934836060 0.1838145554
0.3675244749 0.1973708272 0.1877878010
0.3750393391 0.2011349052 0.1914346814
0.3825204670 0.2051187456 0.1951363981
0.3901012242 0.2095337361 0.1991608292
0.3964060247 0.2131567597 0.2024007142
0.4026855230 0.2169067115 0.2056602389
0.4088468850 0.2208635360 0.2089352310
0.4153489172 0.2255172729 0.2126434743
0.4220259786 0.2308418751 0.2166715860
0.4289901853 0.2367011458 0.2211016566
0.4361248314 0.2433430701 0.2257477343
0.4434477091 0.2503643930 0.2305315733
0.4511421323 0.2581499815 0.2357192487
0.4593849480 0.2670171559 0.2413626760
0.4680082798 0.2765063941 0.2471997142
0.4768786430 0.2865151167 0.2532033026
0.4858862460 0.2969582379 0.2594247460
0.4949400425 0.3076426685 0.2656147182
0.5040960312 0.3187710941 0.2718581855
0.5133730173 0.3301658928 0.2780158818
0.5225104690 0.3413886428 0.2839055955
0.5311371684 0.3522160947 0.2894058526
0.5406454802 0.3638557494 0.2952040136
0.5505028963 0.3757655025 0.3010548055
0.5602140427 0.3871954381 0.3066363633
0.5696754456 0.3984387517 0.3119104207
0.5799084902 0.4100554287 0.3173958361
0.5901843905 0.4215337932 0.3225917518
0.5995522738 0.4316442907 0.3272280693
0.6096264720 0.4420365393 0.3319154382
0.6191700697 0.4518266916 0.3362742066
0.6287428737 0.4613407850 0.3405961394
0.6381846070 0.4706298113 0.3447694182
0.6467920542 0.4790713191 0.3488467336
0.6564207077 0.4875804484 0.3530583084
0.6648297906 0.4953092337 0.3569657207
0.6734982729 0.5027784109 0.3609378934
0.6820694208 0.5103399158 0.3650546372
0.0674598813 0.0863848031 0.0935071781
0.0685363710 0.0865398347 0.0936204940
0.0697254837 0.0867023841 0.0937340409
0.0710463598 0.0868158266 0.0937748924
0.0729030371 0.0870461240 0.0939202830
0.0751012191 0.0873605683 0.0941341966
0.0776446462 0.0876849741 0.0942662358
0.0816327184 0.0882638991 0.0944870934
0.0863086730 0.0886954814 0.0945036635
0.0923879370 0.0893494189 0.0944200233
0.1009108946 0.0904744193 0.0949735343
0.1120404974 0.0929437876 0.0965508670
0.1244718134 0.0960310996 0.0981797948
0.1410807073 0.1011374593 0.1015098318
0.1590758562 0.1070050895 0.1056165025
0.1789869517 0.1142535284 0.1107395142
0.1987752616 0.1222994402 0.1166401058
0.2197193056 0.1313173920 0.1236808449
0.2415418178 0.1409348249 0.1316988617
0.2634301484 0.1509078592 0.1405091286
0.2837060094 0.1602050364 0.1490653902
0.3019831777 0.1685253978 0.1571461260
0.3177963793 0.1756762862 0.1644580960
0.3315462172 0.1819391251 0.1711223722
0.3426141739 0.1869735569 0.1762513369
0.3523627818 0.1913734674 0.1809443980
0.3608231843 0.1952213645 0.1850782633
0.3689013422 0.1991980076 0.1891225874
0.3763020933 0.2028402835 0.1926804632
0.3838306665 0.2068528682 0.1963843554
0.3911896348 0.2111522406 0.2002598643
0.3974533677 0.2147184759 0.2034059018
0.4036641121 0.2183736116 0.2066048533
0.4097034931 0.2222125679 0.2097726017
0.4162243605 0.2269027233 0.2134817392
0.4228024185 0.2321159691 0.2174163908
0.4297619760 0.2379247546 0.2217740119
0.4368075132 0.2444449514 0.2263501436
0.4441365600 0.2514570653 0.2311157584
0.4517863095 0.2591505945 0.2362366170
0.4599366486 0.2679182589 0.2418103516
0.4685476124 0.2773572505 0.2476040274
0.4774031937 0.2873077095 0.2536010146
0.4863730669 0.2976844609 0.2597680688
0.4953900278 0.3082959354 0.2659355998
0.5045321584 0.3193978369 0.2721587718
0.5137816072 0.3307158053 0.2782827020
0.5228642821 0.3418639898 0.2841326892
0.5314633846 0.3526401520 0.2896094024
0.5409662127 0.3642499745 0.2953943014
0.5507838726 0.3761036694 0.3012148738
0.5604608655 0.3874834180 0.3067744970
0.5699046254 0.3986966908 0.3120362461
0.5801030993 0.4102762043 0.3174963892
0.5903568268 0.4217212498 0.3226773143
0.5996842980 0.4317854643 0.3272909820
0.6097390056 0.4421554208 0.3319684267
0.6192641854 0.4519189298 0.3363154829
0.6288212538 0.4614232183 0.3406322002
0.6382497549 0.4706936777 0.3447993398
0.6468437910 0.4791233540 0.3488719165
0.6564691067 0.4876239300 0.3530803025
0.6648641825 0.4953418672 0.3569830954
0.6735330820 0.5028076172 0.3609540462
0.6820991039 0.5103655457 0.3650682867
0.0673583820 0.0884598717 0.0947296917
0.0683493465 0.0885281563 0.0947955102
0.0694840923 0.0886892229 0.0949051902
0.0707778707 0.0888846666 0.0950428024
0.0724664852 0.0891642272 0.0952179208
0.0745137855 0.0894560963 0.0953999758
0.0770032033 0.0898176953 0.0956293344
0.0808050036 0.0902756825 0.0957614556
0.0853076205 0.0908808187 0.0960362479
0.0912105218 0.0915998444 0.0962285176
0.0986363813 0.0926307216 0.0964844301
0.1090911999 0.0944815800 0.0975379646
0.1214891821 0.0975505635 0.0993809998
0.1370670646 0.1021982133 0.1022218019
0.1557419449 0.1077209190 0.1062029451
0.1755093634 0.1146098003 0.1108335629
0.1961541623 0.1228395775 0.1169588417
0.2178703845 0.1322102845 0.1242708266
0.2400160730 0.1419042647 0.1322863847
0.2625670135 0.1521199346 0.1411765665
0.2833993137 0.1614926904 0.1498175114
0.3020707965 0.1699922979 0.1580526978
0.3184760213 0.1774455160 0.1656569541
0.3323776722 0.1838151813 0.1722838134
0.3436448574 0.1888623983 0.1775504351
0.3536404967 0.1933166832 0.1822912842
0.3622211218 0.1972640008 0.1865217090
0.3703300655 0.2012047321 0.1905218363
0.3777414858 0.2048166990 0.1940732747
0.3853267729 0.2088579684 0.1978143454
0.3923404217 0.2129488736 0.2014513314
0.3986249864 0.2164235264 0.2045320719
0.4046715796 0.2200027257 0.2075982541
0.4107896090 0.2239407748 0.2108222842
0.4171621203 0.2284560204 0.2143937200
0.4236880541 0.2335689813 0.2182651609
0.4305770695 0.2392946482 0.2225176394
0.4375816286 0.2456996441 0.2270344943
0.4449192882 0.2526969016 0.2317778915
0.4524964094 0.2603485286 0.2368272990
0.4605692029 0.2689514160 0.2423236370
0.4691730738 0.2783369720 0.2480710596
0.4779806435 0.2882145941 0.2540524900
0.4869423509 0.2985264659 0.2601775229
0.4959083200 0.3090483248 0.2663051784
0.5050368905 0.3201200068 0.2725059986
0.5142527223 0.3313445151 0.2785889208
0.5232728720 0.3424130082 0.2843957245
0.5318396688 0.3531293273 0.2898442447
0.5413365364 0.3647050261 0.2956139445
0.5511087775 0.3764946759 0.3013999462
0.5607277751 0.3878165483 0.3069272041
0.5701693296 0.3989946544 0.3121815324
0.5803280473 0.4105314016 0.3176126182
0.5905449390 0.4219257832 0.3227709532
0.5998372436 0.4319490194 0.3273633122
0.6098691821 0.4422932565 0.3320302069
0.6193737388 0.4520262182 0.3363634646
0.6289118528 0.4615185559 0.3406738937
0.6383248568 0.4707658291 0.3448343873
0.6469039917 0.4791840315 0.3489012122
0.6565247774 0.4876738489 0.3531056046
0.6649034619 0.4953793287 0.3570030034
0.6735731959 0.5028413534 0.3609726429
0.6821336746 0.5103952289 0.3650841415
0.0675853789 0.0914920419 0.0965048894
0.0687139407 0.0917249322 0.0967292786
0.0698991790 0.0919516012 0.0969500616
0.0711251795 0.0920212790 0.0970350876
0.0727638975 0.0922203511 0.0971955806
0.0746396184 0.0925566927 0.0974498466
0.0767904297 0.0928473324 0.0976452380
0.0802304819 0.0933382064 0.0979031473
0.0843117461 0.0936809182 0.0979635864
0.0898885727 0.0942603648 0.0981125236
0.0967763364 0.0952297002 0.0984733701
0.1065602005 0.0969790965 0.0992585048
0.1180863678 0.0994013995 0.1004954055
0.1339820921 0.1038175225 0.1035225093
0.1520259231 0.1090711057 0.1070651636
0.1724144816 0.1161638424 0.1119943261
0.1937028617 0.1240735650 0.1176708490
0.2153946310 0.1332435012 0.1247705668
0.2382178009 0.1431443840 0.1329069883
0.2615473270 0.1535247266 0.1419561654
0.2827261984 0.1628904194 0.1505913138
0.3019951582 0.1716970503 0.1590431780
0.3186544776 0.1791167408 0.1666550189
0.3328918815 0.1856279671 0.1733348519
0.3447645903 0.1909284741 0.1789659560
0.3549168408 0.1954707950 0.1838053763
0.3636529148 0.1995031238 0.1880262196
0.3717906177 0.2033547461 0.1919895262
0.3793253303 0.2070131153 0.1955801398
0.3868232667 0.2110098898 0.1992794126
0.3937332928 0.2150624692 0.2028055191
0.4000063837 0.2185281962 0.2058554441
0.4059401453 0.2219921798 0.2088210434
0.4120173752 0.2258907109 0.2119969577
0.4182245135 0.2302156240 0.2154268175
0.4247880578 0.2353343666 0.2192803621
0.4315137267 0.2408527136 0.2233864069
0.4385823905 0.2472705245 0.2279007584
0.4457738698 0.2540456951 0.2324930280
0.4532977939 0.2617169023 0.2374992073
0.4613359272 0.2702222764 0.2429403812
0.4698902071 0.2794601619 0.2486065328
0.4786446393 0.2892565429 0.2545722127
0.4875971973 0.2994967401 0.2606537342
0.4965090156 0.3099051118 0.2667230368
0.5056502819 0.3209527433 0.2729160190
0.5147957206 0.3320633471 0.2789404094
0.5237448812 0.3430476785 0.2847021818
0.5322889090 0.3537090719 0.2901236713
0.5417645574 0.3652309477 0.2958678305
0.5514839292 0.3769462407 0.3016136587
0.5610347390 0.3882020116 0.3071031570
0.5704758763 0.3993395865 0.3123498261
0.5805881023 0.4108258784 0.3177463412
0.5907601714 0.4221597910 0.3228781819
0.6000143290 0.4321383238 0.3274463117
0.6100202203 0.4424527884 0.3321016729
0.6195029616 0.4521529078 0.3364207149
0.6290169954 0.4616291523 0.3407222927
0.6384116411 0.4708493352 0.3448749483
0.6469733715 0.4792538583 0.3489349782
0.6565894485 0.4877319932 0.3531350791
0.6649494171 0.4954231977 0.3570263088
0.6736197472 0.5028804541 0.3609942496
0.6821734309 0.5104296207 0.3651024699
0.0675815791 0.0949015841 0.0980548561
0.0685832426 0.0951914266 0.0983531252
0.0697498620 0.0954690054 0.0986068547
0.0711751953 0.0957610682 0.0988840088
0.0729691535 0.0961013660 0.0991603509
0.0748574808 0.0963561162 0.0993891358
0.0769631788 0.0967179611 0.0997048840
0.0799566805 0.0972191691 0.1000121012
0.0840781778 0.0978743434 0.1004043892
0.0890710950 0.0983856767 0.1005870476
0.0956257582 0.0990736634 0.1009003595
0.1044430956 0.1003743410 0.1015287265
0.1161324307 0.1026746482 0.1029044315
0.1305270940 0.1061867476 0.1051039547
0.1486475915 0.1112335026 0.1085112318
0.1685285270 0.1176619083 0.1127101779
0.1901326776 0.1254115403 0.1184536070
0.2128663510 0.1346410662 0.1255306154
0.2362307161 0.1446318626 0.1336704046
0.2599032819 0.1551483124 0.1426747143
0.2818212211 0.1647011638 0.1515628546
0.3016289771 0.1735555083 0.1601022184
0.3188219666 0.1812110394 0.1678213477
0.3336223066 0.1878849566 0.1747457981
0.3458239734 0.1932804286 0.1804267913
0.3562273383 0.1979754418 0.1854328513
0.3652886152 0.2020141482 0.1897393763
0.3734202385 0.2058479786 0.1936621815
0.3811574578 0.2096375078 0.1973364204
0.3885277808 0.2136558890 0.2009399086
0.3954142928 0.2175250649 0.2043817788
0.4014777839 0.2207868546 0.2072251737
0.4073589742 0.2242152393 0.2101896554
0.4133414328 0.2279293090 0.2132406682
0.4195363820 0.2322930694 0.2166382819
0.4260345995 0.2372289896 0.2204112560
0.4325761199 0.2426224053 0.2243738919
0.4396344423 0.2489656955 0.2287921757
0.4467468858 0.2555827796 0.2333074659
0.4542685151 0.2632118464 0.2382512540
0.4622338116 0.2716982961 0.2436512411
0.4707276523 0.2807750702 0.2492420226
0.4794124961 0.2904489338 0.2551710904
0.4883505106 0.3005925119 0.2611962259
0.4972002804 0.3108906150 0.2672058642
0.5063568950 0.3219123185 0.2733911574
0.5154206157 0.3328942955 0.2793486714
0.5242817402 0.3437754810 0.2850528955
0.5328511596 0.3544077277 0.2904695570
0.5422579050 0.3658354282 0.2961582839
0.5519172549 0.3774676919 0.3018604815
0.5613890886 0.3886469901 0.3073063493
0.5708300471 0.3997384012 0.3125444353
0.5808892846 0.4111659825 0.3179001212
0.5910089612 0.4224303365 0.3230021894
0.6002194881 0.4323575795 0.3275424540
0.6101943254 0.4426369071 0.3321841359
0.6196528077 0.4522998333 0.3364871740
0.6291385889 0.4617570043 0.3407782018
0.6385126114 0.4709462821 0.3449220657
0.6470539570 0.4793349802 0.3489741981
0.6566643119 0.4877993762 0.3531692028
0.6650025249 0.4954737723 0.3570531905
0.6736737490 0.5029257536 0.3610192537
0.6822199225 0.5104696155 0.3651238084
0.0682639182 0.0997232497 0.1004182100
0.0694430396 0.1001814008 0.1008232981
0.0706057623 0.1005910337 0.1011952609
0.0717854723 0.1008092090 0.1014590710
0.0735700950 0.1012742072 0.1018562093
0.0757363290 0.1018860564 0.1023771539
0.0780213550 0.1022139490 0.1026937366
0.0809492841 0.1027391553 0.1031087637
0.0845450684 0.1032039896 0.1034846380
0.0894677490 0.1038197130 0.1037700251
0.0949745402 0.1044752970 0.1041833684
0.1039245948 0.1053950116 0.1045951843
0.1143104061 0.1068874896 0.1056121066
0.1281010509 0.1098795608 0.1075796261
0.1450347900 0.1141947731 0.1102323607
0.1651739627 0.1202092320 0.1144537628
0.1872508228 0.1278341115 0.1200229526
0.2098749876 0.1368489265 0.1268784553
