skills/davinci/davinci-film-colorist/assets/HF-Astra-Looks/DCTL/ASTRA_LookMixer_Data/vision3d.cube
# System: Cinema - Vision3
# Mode: Full Emulation
# Source: DaVinci Wide Gamut Intermediate
# Camera | Disabled
# Negative | Color & Tone Stock: 250D, Gamut Compression | Amount: 1.000, Threshold: (0.190, 0.120, 0.074), Distance: (0.065, 0.120, 0.037)
# Lab | Disabled
# Print | System: Cinema, Style: Custom, Tone Curve: 0.750, Color: 0.750, Neutralize Balance: 0.000, Black Point: 0.885
# Display Colorspace: RCM SDR
LUT_3D_SIZE 5
0.0448534861 0.0576567613 0.0601071678
0.2347715050 0.1107592657 0.0834434852
0.4537353218 0.2451165766 0.2240267247
0.6763385534 0.4943061471 0.4346936643
0.7629706264 0.6496954560 0.5539770126
0.0103472406 0.1468840390 0.0568531826
0.2176744640 0.2148811072 0.1259459704
0.4759566784 0.2884632945 0.2461383045
0.6785222292 0.4988701344 0.4365759194
0.7632611394 0.6503297091 0.5547283292
0.2180440277 0.4389463961 0.2510523796
0.2597214580 0.4548697472 0.2666667700
0.5102095604 0.4966603220 0.3314604163
0.6948463321 0.5387126207 0.4448267817
0.7675387263 0.6581070423 0.5645221472
0.4691238701 0.6689759493 0.4879463613
0.4750175476 0.6698085666 0.4894034863
0.5341507196 0.6728618145 0.5015457273
0.7216622829 0.6695842147 0.5294044018
0.8022374511 0.7278763056 0.6502073407
0.6994229555 0.7916651368 0.6947618723
0.6998431087 0.7916238308 0.6947845817
0.7040981054 0.7912434936 0.6949571371
0.7442879677 0.7904572487 0.6978537440
0.8191480041 0.7873128057 0.6989755630
0.0844602734 0.1218380928 0.1907292753
0.2364846170 0.1581127495 0.2139438540
0.4514943957 0.2400308698 0.2349070609
0.6758024096 0.4931751788 0.4341753423
0.7629036903 0.6495494843 0.5538036823
0.0460184701 0.1817883104 0.1955772489
0.2304335684 0.2304615825 0.2326639444
0.4691727459 0.2777917385 0.2504311502
0.6779687405 0.4978324175 0.4361192882
0.7631946206 0.6501848102 0.5545563102
0.2119305432 0.4343435764 0.2507306039
0.2517679334 0.4502567947 0.2647547126
0.5093874931 0.4950368404 0.3303079009
0.6946359873 0.5379775763 0.4447332621
0.7674313784 0.6579160690 0.5642786026
0.4683633149 0.6687367558 0.4876124561
0.4741702080 0.6695640087 0.4890523553
0.5336299539 0.6727856994 0.5013301373
0.7215962410 0.6694704890 0.5292699933
0.8022122383 0.7278210521 0.6501773000
0.6993688941 0.7916654348 0.6947498918
0.6997896433 0.7916238308 0.6947724819
0.7040460706 0.7912425399 0.6949466467
0.7442584634 0.7904560566 0.6978480816
0.8191471696 0.7873108983 0.6989722252
0.2452157438 0.3200288713 0.4420539737
0.2780376077 0.3358404934 0.4507229924
0.4819826186 0.3615157306 0.4725776017
0.6790998578 0.4868956208 0.4682498872
0.7620507479 0.6479874253 0.5519425869
0.2445400506 0.3191611469 0.4412397742
0.2774564624 0.3349788785 0.4498393834
0.4818262160 0.3607454896 0.4717556238
0.6808186173 0.4911692739 0.4690495729
0.7624040842 0.6486346126 0.5527119637
0.2071462125 0.4143847227 0.4337064028
0.2274721265 0.4264310598 0.4422108233
0.5311461687 0.5325123072 0.5225210190
0.7011343241 0.5379735231 0.4796882570
0.7663973570 0.6559655070 0.5617775917
0.4553055465 0.6685775518 0.4924763143
0.4617510736 0.6696667671 0.4939461350
0.5250245929 0.6744164228 0.5050511360
0.7208920717 0.6682538390 0.5278316736
0.8019415736 0.7272336483 0.6498574018
0.6987938881 0.7916665077 0.6946216226
0.6992189884 0.7916243672 0.6946444511
0.7034925222 0.7912312150 0.6948347092
0.7439386249 0.7904352546 0.6977912784
0.8191356659 0.7872909307 0.6989368200
0.4918193817 0.5673192739 0.6605380774
0.4917556345 0.5672544241 0.6604846716
0.5386105776 0.5808772445 0.6728152633
0.7019520998 0.5714446306 0.6765617132
0.7876812220 0.6831953526 0.6575835943
0.4917200804 0.5672181845 0.6604549289
0.4916562438 0.5671532750 0.6604014635
0.5385431647 0.5807836652 0.6727386117
0.7019322515 0.5713814497 0.6765077710
0.7877206802 0.6833359599 0.6574105620
0.4906625152 0.5661419630 0.6595693827
0.4905981123 0.5660763979 0.6595155001
0.5378144979 0.5798118711 0.6719348431
0.7017194033 0.5707089305 0.6759334207
0.7882159948 0.6849815249 0.6557117105
0.4190174937 0.6537117958 0.6754478812
0.4189708829 0.6536715627 0.6753876805
0.4614440501 0.6778972149 0.6942173839
0.7500612736 0.7389964461 0.7199802399
0.7988851070 0.7131235600 0.6547130942
0.6903050542 0.7967714667 0.7023872137
0.6908122897 0.7967371345 0.7023786306
0.6958560944 0.7964126468 0.7022991776
0.7386749387 0.7927252054 0.7019590735
0.8190171719 0.7870701551 0.6985502243
0.6945390701 0.7567947507 0.8034904003
0.6945376992 0.7567931414 0.8034901619
0.6945235729 0.7567783594 0.8034873605
0.7263876796 0.7432343364 0.8064419031
0.8195497394 0.7418777943 0.7847788930
0.6945369840 0.7567924857 0.8034900427
0.6945357323 0.7567911744 0.8034896851
0.6945216060 0.7567759156 0.8034868240
0.7263885140 0.7432318330 0.8064417839
0.8195490837 0.7418759465 0.7847777009
0.6945149302 0.7567689419 0.8034855723
0.6945136189 0.7567674518 0.8034853935
0.6944994330 0.7567523718 0.8034827113
0.7263976336 0.7432054877 0.8064401746
0.8195436597 0.7418574095 0.7847654223
0.6942793727 0.7565162778 0.8034397364
0.6942780614 0.7565149665 0.8034395576
0.6942636967 0.7564997077 0.8034367561
0.7264970541 0.7429244518 0.8064235449
0.8194859624 0.7416588664 0.7846342325
0.6404372454 0.8353131413 0.7959290743
0.6404333711 0.8353118300 0.7959282398
0.6403918862 0.8352981806 0.7959184051
0.6906177998 0.8404395580 0.7981933355
0.8311375380 0.8169814348 0.7835085392
