skills/davinci/davinci-film-colorist/assets/HF-Astra-Looks/DCTL/ASTRA_LookMixer_Data/vision3t.cube
# System: Cinema - Vision3
# Mode: Full Emulation
# Source: DaVinci Wide Gamut Intermediate
# Camera | Disabled
# Negative | Color & Tone Stock: 500T, Gamut Compression | Amount: 1.000, Threshold: (0.190, 0.120, 0.074), Distance: (0.065, 0.120, 0.037)
# Lab | Disabled
# Print | System: Cinema, Style: Custom, Tone Curve: 0.750, Color: 0.750, Neutralize Balance: 0.000, Black Point: 0.885
# Display Colorspace: RCM SDR
LUT_3D_SIZE 5
0.0645622984 0.0718057230 0.0679876208
0.2433306426 0.1224860772 0.0869643241
0.4567569792 0.2476969957 0.2210783511
0.6622137427 0.4767522216 0.4107273221
0.7448194623 0.6268565059 0.5198210478
0.0197531320 0.1460976899 0.0760493800
0.2148862481 0.2138565034 0.1219839603
0.4684720933 0.2818562388 0.2354457229
0.6638939381 0.4808986783 0.4120434523
0.7451837063 0.6274932027 0.5205408335
0.2663037777 0.4906996489 0.2946791053
0.3075122237 0.5024789572 0.3045550287
0.5004204512 0.4913402200 0.3206628859
0.6738933921 0.5174159408 0.4169023037
0.7493073344 0.6351287365 0.5297992826
0.4972655177 0.6938323975 0.5141698718
0.5020224452 0.6933195591 0.5139498711
0.5499244928 0.6838613749 0.5100050569
0.7080651522 0.6599861383 0.5087886453
0.7838710546 0.7084032893 0.6154891253
0.6966169477 0.7869966626 0.6869379878
0.6970536709 0.7869511247 0.6869428754
0.7016437054 0.7864237428 0.6869078279
0.7411465645 0.7854334116 0.6879463792
0.8090363145 0.7760739326 0.6770507693
0.1069386825 0.1356988102 0.2096495777
0.2445730120 0.1600650996 0.2081009597
0.4551794231 0.2421583384 0.2302399725
0.6617751718 0.4757282436 0.4103620052
0.7447278500 0.6267098188 0.5196550488
0.0666077882 0.1904617548 0.2296808064
0.2314941287 0.2281732857 0.2293139100
0.4668571651 0.2747225165 0.2420861572
0.6635080576 0.4799706340 0.4117129743
0.7451029420 0.6273480058 0.5203760862
0.2576657534 0.4860710204 0.2953772545
0.3004560769 0.4990784228 0.3041503429
0.4995669127 0.4895612895 0.3194786012
0.6737279296 0.5166833401 0.4167931080
0.7492144704 0.6349487901 0.5295755863
0.4966726303 0.6937872767 0.5140565038
0.5013319850 0.6932532787 0.5138221979
0.5494830608 0.6838489175 0.5099061728
0.7079905868 0.6598753929 0.5086517334
0.7838485241 0.7083447576 0.6154617667
0.6965609789 0.7869975567 0.6869290471
0.6969992518 0.7869521379 0.6869345903
0.7015909553 0.7864231467 0.6869001389
0.7411156893 0.7854301333 0.6879422665
0.8090353608 0.7760722637 0.6770474315
0.2675221562 0.3312608898 0.4658315778
0.2939300239 0.3426489532 0.4664344788
0.4769101739 0.3492407799 0.4629686177
0.6621539593 0.4681012630 0.4428306222
0.7437465191 0.6251388192 0.5178763270
0.2668601573 0.3304053843 0.4650982916
0.2933308482 0.3417549133 0.4655681252
0.4767193496 0.3484575748 0.4621317983
0.6639423966 0.4723586738 0.4438163638
0.7441526055 0.6257903576 0.5186135769
0.2670708299 0.4578854442 0.4971942008
0.2784024775 0.4653872252 0.4981510043
0.5318331122 0.5325003862 0.5187041163
0.6800345778 0.5166299343 0.4514081776
0.7481629848 0.6330251098 0.5271892548
0.4862526953 0.6975832582 0.5231537223
0.4914697409 0.6972210407 0.5227799416
0.5427303314 0.6874226928 0.5159938335
0.7072231174 0.6586955786 0.5071958303
0.7835971117 0.7077230215 0.6151717305
0.6959649920 0.7870068550 0.6868338585
0.6964092255 0.7869614959 0.6868405342
0.7009701729 0.7864352465 0.6868153214
0.7407863736 0.7853946686 0.6878986955
0.8090261817 0.7760551572 0.6770128012
0.5125123858 0.5855197310 0.6729794741
0.5124464631 0.5854542255 0.6729257107
0.5546283126 0.5919245481 0.6801051497
0.6986021996 0.5668847561 0.6658678055
0.7765199542 0.6675196886 0.6294845939
0.5124096274 0.5854176879 0.6728959084
0.5123435855 0.5853519440 0.6728420258
0.5545545220 0.5918259621 0.6800241470
0.6985766292 0.5668159723 0.6658062339
0.7765250206 0.6675813794 0.6292223930
0.5113155842 0.5843295455 0.6720050573
0.5112489462 0.5842632651 0.6719506383
0.5537687540 0.5907765627 0.6791619062
0.6983029246 0.5660813451 0.6651405692
0.7767203450 0.6683613658 0.6266227365
0.4500365853 0.6989779472 0.7116883993
0.4499989748 0.6989414096 0.7116433978
0.4866254926 0.7151532173 0.7192630768
0.7481628060 0.7388478518 0.7071750760
0.7832935452 0.6903356910 0.6171831489
0.6877552867 0.7928631902 0.6952243447
0.6882620454 0.7928083539 0.6951728463
0.6932858825 0.7923034430 0.6947318912
0.7356566191 0.7874314189 0.6920652390
0.8089260459 0.7758642435 0.6766302586
0.7035375834 0.7629970312 0.8010156155
0.7035365105 0.7629958987 0.8010154963
0.7035258412 0.7629826069 0.8010143638
0.7333660722 0.7463560700 0.8026141524
0.8107959628 0.7361679673 0.7715991735
0.7035361528 0.7629950643 0.8010154963
0.7035350800 0.7629937530 0.8010152578
0.7035242915 0.7629805803 0.8010143638
0.7333666682 0.7463534474 0.8026136160
0.8107952476 0.7361661792 0.7715982199
0.7035192251 0.7629743218 0.8010137081
0.7035182714 0.7629730701 0.8010136485
0.7035074830 0.7629600167 0.8010128140
0.7333729267 0.7463245988 0.8026059270
0.8107874990 0.7361477017 0.7715880275
0.7033398747 0.7627528310 0.8009972572
0.7033388019 0.7627515197 0.8009971380
0.7033279538 0.7627380490 0.8009961843
0.7334408760 0.7460162044 0.8025233150
0.8107070923 0.7359490991 0.7714785337
0.6410507560 0.8355492949 0.7970668077
0.6410470605 0.8355485201 0.7970661521
0.6410070658 0.8355414867 0.7970588207
0.6915606856 0.8400295377 0.7981288433
0.8302321434 0.8171962500 0.7736829519
