skills/davinci/davinci-film-colorist/assets/HF-Astra-Looks/DCTL/ASTRA_LookMixer_Data/vision3t.cube
# System: Cinema - Vision3
# Mode: Full Emulation
# Source: DaVinci Wide Gamut Intermediate
# Camera | Disabled
# Negative | Color & Tone Stock: 500T, Gamut Compression | Amount: 1.000, Threshold: (0.190, 0.120, 0.074), Distance: (0.065, 0.120, 0.037)
# Lab | Disabled
# Print | System: Cinema, Style: Custom, Tone Curve: 0.750, Color: 0.750, Neutralize Balance: 0.000, Black Point: 0.885
# Display Colorspace: RCM SDR
LUT_3D_SIZE 65
0.0645622984 0.0718057230 0.0679876208
0.0672016442 0.0723753124 0.0682367086
0.0711868182 0.0731881410 0.0684925765
0.0779557377 0.0745998099 0.0691022128
0.0873070881 0.0767015293 0.0700163394
0.1000091136 0.0793176964 0.0708491877
0.1138574705 0.0819581822 0.0706963912
0.1263179183 0.0843789726 0.0705601424
0.1376717687 0.0867321417 0.0702263191
0.1491997689 0.0899544284 0.0701403394
0.1616605222 0.0938934535 0.0705880895
0.1746489108 0.0980305523 0.0714419484
0.1888002455 0.1025317535 0.0730034262
0.2025510073 0.1073883623 0.0755455047
0.2158422619 0.1124548018 0.0787955821
0.2299828529 0.1175216436 0.0829429626
0.2433306426 0.1224860772 0.0869643241
0.2563166022 0.1273446828 0.0909344554
0.2687251568 0.1318720728 0.0950733274
0.2806690037 0.1364166588 0.0997736603
0.2926392257 0.1413511932 0.1049298048
0.3050214052 0.1465993524 0.1108100191
0.3176341355 0.1525197476 0.1173763201
0.3307588100 0.1594921350 0.1252943724
0.3443278968 0.1669728458 0.1340201497
0.3582369089 0.1752864420 0.1436574459
0.3722960949 0.1842443347 0.1541173011
0.3861298859 0.1934215575 0.1648938954
0.4001715183 0.2033569962 0.1761035919
0.4142092764 0.2137388736 0.1876454502
0.4282185137 0.2243960798 0.1987179965
0.4425106347 0.2359153777 0.2099604309
0.4567569792 0.2476969957 0.2210783511
0.4712946415 0.2602680624 0.2321989387
0.4865528047 0.2739162445 0.2434370071
0.5018419623 0.2876717746 0.2545257807
0.5173259377 0.3022540510 0.2657904625
0.5327895284 0.3169699311 0.2769632339
0.5484966636 0.3321810067 0.2884906530
0.5634562969 0.3476617634 0.3004978299
0.5781987906 0.3632757664 0.3126500547
0.5919641256 0.3790058494 0.3251077831
0.6043034196 0.3944894969 0.3377217650
0.6156859994 0.4095516503 0.3501318395
0.6259055138 0.4238394499 0.3624890745
0.6352227330 0.4376668036 0.3746726811
0.6446462870 0.4509508610 0.3867469728
0.6534023285 0.4640073478 0.3988897204
0.6622137427 0.4767522216 0.4107273221
0.6704176068 0.4895950258 0.4228924215
0.6783331633 0.5025866628 0.4350622296
0.6865307093 0.5152165890 0.4468709230
0.6943442225 0.5279135108 0.4581728876
0.7013015747 0.5399501920 0.4684089422
0.7072064281 0.5508369803 0.4762102365
0.7116367221 0.5597120523 0.4804862738
0.7147963047 0.5663025975 0.4810866714
0.7143099904 0.5685073137 0.4741966128
0.7138069272 0.5709015727 0.4683492780
0.7148399353 0.5750146508 0.4665124416
0.7176986337 0.5815351009 0.4697509110
0.7224186659 0.5902801752 0.4775597453
0.7291678190 0.6010470390 0.4892989695
0.7367143035 0.6134899259 0.5036899447
0.7448194623 0.6268565059 0.5198210478
0.0635626689 0.0724134520 0.0678941980
0.0660289750 0.0728676021 0.0680209845
0.0696542263 0.0735075921 0.0681454688
0.0758107454 0.0747316480 0.0686082914
0.0851252750 0.0768574700 0.0696915239
0.0978943631 0.0794104636 0.0706217736
0.1119497791 0.0821777880 0.0709099844
0.1245793328 0.0844166726 0.0704926401
0.1362102777 0.0866786689 0.0702525973
0.1476829946 0.0897587985 0.0701002702
0.1600384712 0.0935963467 0.0704127476
0.1730938554 0.0978131443 0.0713372007
0.1871081144 0.1022702605 0.0729024410
0.2009933293 0.1071418971 0.0753245503
0.2144152224 0.1122994572 0.0786151439
0.2284170538 0.1173136085 0.0826809704
0.2419464588 0.1223518923 0.0867253914
0.2550184429 0.1272735596 0.0906919092
0.2676542103 0.1319412738 0.0948963016
0.2797646224 0.1366167814 0.0996459648
0.2917699814 0.1415868998 0.1047645286
0.3042210639 0.1468560696 0.1106280163
0.3170452118 0.1529515535 0.1173635423
0.3302642405 0.1599156857 0.1252194643
0.3439848125 0.1673993468 0.1340138614
0.3581196070 0.1758763939 0.1438655406
0.3722877502 0.1848741621 0.1543645263
0.3862181902 0.1940753907 0.1652007252
0.4002976716 0.2039820254 0.1764150709
0.4143853784 0.2143377811 0.1879558861
0.4284884632 0.2250849307 0.1990987957
0.4428079426 0.2365572900 0.2103306949
0.4570237994 0.2482836843 0.2214014977
0.4715902507 0.2608878016 0.2325242311
0.4868333340 0.2744667530 0.2437215596
0.5021566153 0.2882602811 0.2548180223
0.5176059008 0.3027530611 0.2660261393
0.5330399871 0.3174217045 0.2771746218
0.5487404466 0.3326120377 0.2886929810
0.5636711717 0.3480422795 0.3006792068
0.5783861876 0.3636159003 0.3128069341
0.5921142697 0.3793022931 0.3252435327
0.6044169664 0.3947395384 0.3378261328
0.6157543063 0.4097539783 0.3502120078
0.6259593964 0.4240113199 0.3625480533
0.6352729797 0.4378066659 0.3747218847
0.6446899772 0.4510705471 0.3867868185
0.6534426212 0.4641098082 0.3989219666
0.6622486711 0.4768377841 0.4107544124
0.6704506278 0.4896707535 0.4229147136
0.6783611774 0.5026504993 0.4350806177
0.6865547299 0.5152691603 0.4468836188
0.6943566203 0.5279515386 0.4581743479
0.7013105750 0.5399788022 0.4684054255
0.7072115541 0.5508567691 0.4762007594
0.7116413116 0.5597268343 0.4804756641
0.7147967815 0.5663115382 0.4810713828
0.7143103480 0.5685154796 0.4741861522
0.7138115168 0.5709133744 0.4683496654
0.7148424983 0.5750249028 0.4665125906
0.7177033424 0.5815474391 0.4697577357
0.7224248052 0.5902936459 0.4775705040
0.7291759253 0.6010611653 0.4893134236
0.7367216349 0.6135032773 0.5037052035
0.7448272109 0.6268690825 0.5198351741
0.0623473413 0.0734211728 0.0675883442
0.0643758774 0.0737655237 0.0677182823
0.0677799508 0.0743773654 0.0678988770
0.0728452057 0.0752839670 0.0681441650
0.0819647610 0.0772583634 0.0692487434
0.0938362330 0.0798401758 0.0703047588
0.1073119342 0.0822951496 0.0708263218
0.1206799448 0.0846583024 0.0705788732
0.1326169372 0.0867170468 0.0704416260
0.1445920765 0.0895178020 0.0701788515
0.1570864320 0.0931777284 0.0703545362
0.1705947369 0.0975320637 0.0712658092
0.1846304238 0.1019180939 0.0727508962
0.1989323199 0.1068061441 0.0750417188
0.2124945074 0.1120365784 0.0783907548
0.2264687121 0.1170344576 0.0822816715
0.2401090115 0.1220779046 0.0863676816
0.2535569966 0.1272048801 0.0904616714
0.2662908435 0.1319740713 0.0946656093
0.2787243426 0.1368132383 0.0994547680
0.2909484506 0.1419181824 0.1046438813
0.3034833968 0.1472476125 0.1105456129
0.3165203929 0.1533956677 0.1173631996
0.3298780620 0.1603908837 0.1252016276
0.3437363505 0.1679443568 0.1340601146
0.3579814732 0.1764196157 0.1440266222
0.3722636104 0.1854622215 0.1545584947
0.3863289952 0.1947375834 0.1655152887
0.4004430175 0.2046373188 0.1767569333
0.4145578444 0.2149240971 0.1882597953
0.4287530482 0.2257676423 0.1994724721
0.4430956841 0.2371831834 0.2106893808
0.4573538601 0.2489831448 0.2217984796
0.4718826711 0.2615076602 0.2328435928
0.4871116877 0.2750096321 0.2440031618
0.5024696589 0.2888458371 0.2551083863
0.5178832412 0.3032477200 0.2662595212
0.5332894921 0.3178717494 0.2773852050
0.5489835143 0.3330427408 0.2888958454
0.5638793111 0.3484133184 0.3008501232
0.5785734653 0.3639557958 0.3129636645
0.5922685266 0.3795995712 0.3253796697
0.6045141220 0.3949863017 0.3379270136
0.6158215404 0.4099545479 0.3502859175
0.6260134578 0.4241835475 0.3626071215
0.6353232861 0.4379469156 0.3747712076
0.6447340250 0.4511907101 0.3868271708
0.6534832120 0.4642126560 0.3989543915
0.6622837782 0.4769235551 0.4107815623
0.6704836488 0.4897466898 0.4229370356
0.6783893108 0.5027145743 0.4350990355
0.6865790486 0.5153221488 0.4468964040
0.6943687797 0.5279896259 0.4581758678
0.7013195753 0.5400074720 0.4684019089
0.7072166800 0.5508767366 0.4761912525
0.7116457820 0.5597417951 0.4804650545
0.7147971392 0.5663205981 0.4810560048
0.7143107653 0.5685237050 0.4741756618
0.7138164043 0.5709252357 0.4683500528
0.7148451805 0.5750351548 0.4665127695
0.7177081108 0.5815597177 0.4697645307
0.7224313021 0.5903072357 0.4775812328
0.7291842103 0.6010750532 0.4893278778
0.7367294431 0.6135168076 0.5037207007
0.7448352575 0.6268818974 0.5198495984
0.0609926991 0.0749470815 0.0671852827
0.0627985150 0.0752534792 0.0674372613
0.0658338815 0.0758526102 0.0677901879
0.0703380331 0.0767258853 0.0681301057
0.0782998055 0.0783213973 0.0689106807
0.0895920619 0.0807814002 0.0700691566
0.1022858620 0.0828789473 0.0707159266
0.1155208871 0.0852734670 0.0708244145
0.1275710315 0.0873266086 0.0706019402
0.1392353773 0.0893403515 0.0703331679
0.1516921818 0.0927128419 0.0704560131
0.1652632207 0.0969664231 0.0713553876
0.1800196320 0.1012457684 0.0724623650
0.1951406300 0.1061694771 0.0745719522
0.2095875293 0.1116318703 0.0780863240
0.2236575037 0.1166203842 0.0816626102
0.2377594560 0.1218193695 0.0859210268
0.2514320314 0.1270774305 0.0902183503
0.2645865679 0.1320285350 0.0943327844
0.2773891985 0.1370825171 0.0992328525
0.2899376452 0.1423549801 0.1045514494
0.3027200401 0.1477864981 0.1105262041
0.3159341812 0.1539057642 0.1172868162
0.3294920027 0.1608671248 0.1251527667
0.3434727788 0.1685404032 0.1340998560
0.3578559458 0.1770854294 0.1442480683
0.3722406328 0.1861101538 0.1547719389
0.3864400685 0.1954868436 0.1658919007
0.4005784988 0.2053324729 0.1770948023
0.4147863984 0.2156218290 0.1886278391
0.4290345311 0.2265073210 0.1998684555
0.4433933496 0.2378480583 0.2110670060
0.4577156603 0.2497405559 0.2222298980
0.4722064137 0.2621923089 0.2331956476
0.4874132276 0.2755898833 0.2443071157
0.5028129816 0.2894889116 0.2554271221
0.5181887150 0.3037928939 0.2665167153
0.5335648060 0.3183617890 0.2776158750
0.5492520332 0.3335182071 0.2891197801
0.5641096830 0.3488237858 0.3010392487
0.5787805915 0.3643319011 0.3131370842
0.5924460292 0.3799304068 0.3255311847
0.6046227217 0.3952593803 0.3380385041
0.6158960462 0.4101768136 0.3503677547
0.6260734200 0.4243744910 0.3626726568
0.6353790760 0.4381023943 0.3748258054
0.6447829604 0.4513241649 0.3868720233
0.6535282135 0.4643267989 0.3989903629
0.6623228192 0.4770188630 0.4108117819
0.6705204248 0.4898310602 0.4229618013
0.6784205437 0.5027856231 0.4351194501
0.6866059899 0.5153807998 0.4469105899
0.6943822503 0.5280320048 0.4581774473
0.7013296485 0.5400394201 0.4683980644
0.7072222829 0.5508989096 0.4761807323
0.7116507888 0.5597583652 0.4804533124
0.7147976756 0.5663306713 0.4810388386
0.7143111229 0.5685327053 0.4741640091
0.7138216496 0.5709384084 0.4683504701
0.7148478031 0.5750465393 0.4665129185
0.7177133560 0.5815734267 0.4697721601
0.7224383950 0.5903223753 0.4775933027
0.7291934490 0.6010906696 0.4893439710
0.7367378473 0.6135317087 0.5037377477
0.7448440194 0.6268959045 0.5198655128
0.0588265397 0.0772173107 0.0667069331
0.0608044900 0.0777222589 0.0669991449
0.0635436177 0.0784424618 0.0675588027
0.0677592307 0.0794086009 0.0681996867
0.0746736303 0.0807584971 0.0689318329
0.0855618864 0.0828147829 0.0700063035
0.0980585665 0.0850769430 0.0708495751
0.1102008224 0.0870878622 0.0711661056
0.1224238649 0.0892267972 0.0708902702
0.1340438277 0.0912453830 0.0710067824
0.1457376480 0.0936255977 0.0708881468
0.1583281159 0.0970087945 0.0713053718
0.1726770699 0.1009135768 0.0724642947
0.1880442202 0.1055322513 0.0743071511
0.2041660994 0.1109518185 0.0771418735
0.2191594094 0.1160877571 0.0809054375
0.2341976762 0.1215224490 0.0852453560
0.2484809309 0.1269917041 0.0897330940
0.2623358667 0.1322412789 0.0940279365
0.2758273482 0.1376026124 0.0990799144
0.2888808846 0.1430210471 0.1045647711
0.3018931448 0.1484949440 0.1104894653
0.3152771294 0.1545826644 0.1173292547
0.3290654421 0.1615756005 0.1251682043
0.3431932330 0.1693246365 0.1342765838
0.3577200472 0.1778339297 0.1445067972
0.3723202348 0.1869706810 0.1551195234
0.3865706921 0.1963447034 0.1663387269
0.4007275403 0.2061233371 0.1774897873
0.4151203334 0.2165470570 0.1891402751
0.4293389916 0.2273381054 0.2002934963
0.4436889589 0.2385989875 0.2114622295
0.4581167400 0.2506000102 0.2227113098
0.4725860357 0.2629836202 0.2336030453
0.4877539277 0.2762610614 0.2446539849
0.5031741858 0.2901928723 0.2557706237
0.5185395479 0.3044189513 0.2668120563
0.5338975191 0.3189558089 0.2778947651
0.5495609045 0.3340637684 0.2893770933
0.5643746257 0.3492962420 0.3012568951
0.5790194273 0.3647652268 0.3133369386
0.5926519632 0.3803101182 0.3257054090
0.6047477722 0.3955744505 0.3381670713
0.6159822345 0.4104334414 0.3504623175
0.6261426210 0.4245951474 0.3627483845
0.6354436874 0.4382821918 0.3748889863
0.6448395848 0.4514785111 0.3869238198
0.6535803080 0.4644588232 0.3990319371
0.6623678803 0.4771291018 0.4108466804
0.6705629826 0.4899286628 0.4229905307
0.6784568429 0.5028681159 0.4351432025
0.6866371036 0.5154488087 0.4469269812
0.6943978071 0.5280810595 0.4581793547
0.7013412714 0.5400763750 0.4683935642
0.7072288990 0.5509245396 0.4761684835
0.7116564512 0.5597774982 0.4804396629
0.7147981524 0.5663422942 0.4810191393
0.7143116593 0.5685433149 0.4741504788
0.7138275504 0.5709537268 0.4683509171
0.7148510814 0.5750598311 0.4665130973
0.7177195549 0.5815892816 0.4697809517
0.7224466205 0.5903398395 0.4776071906
0.7292038798 0.6011087298 0.4893625975
0.7367476821 0.6135490537 0.5037577152
0.7448542714 0.6269124746 0.5198841095
0.0561573096 0.0801464170 0.0665658638
0.0582046732 0.0806214809 0.0668498725
0.0615060255 0.0814161599 0.0673217550
0.0652203113 0.0824571922 0.0678378344
0.0712682679 0.0838485360 0.0687308982
0.0822107419 0.0862049982 0.0700934902
0.0943510905 0.0887812078 0.0712954476
0.1067889556 0.0911126509 0.0719829872
0.1185113862 0.0927401111 0.0716807470
0.1303824335 0.0948444232 0.0717211962
0.1418796182 0.0969373435 0.0719509944
0.1539580524 0.0995628759 0.0722570643
0.1668300480 0.1025233045 0.0729824975
0.1810022891 0.1063870788 0.0744152814
0.1966706216 0.1111699641 0.0768956169
0.2124617100 0.1159775928 0.0801582187
0.2285556793 0.1213577315 0.0844897926
0.2444438934 0.1269974113 0.0891865343
0.2595167458 0.1327235103 0.0939508453
0.2739068270 0.1383627802 0.0989659950
0.2876767516 0.1439655572 0.1045890749
0.3010842800 0.1495356560 0.1106087193
0.3147037327 0.1556267738 0.1175220385
0.3285464048 0.1623721868 0.1251723021
0.3428372145 0.1703287512 0.1345616579
0.3574870527 0.1788168103 0.1448016465
0.3722821772 0.1878755838 0.1554277092
0.3867675364 0.1973769218 0.1669073850
0.4008935392 0.2070138752 0.1779395193
0.4155022800 0.2176332772 0.1897442192
0.4297122657 0.2282956243 0.2008139193
0.4440191388 0.2394407690 0.2119012326
0.4585621357 0.2515732646 0.2232488394
0.4730185568 0.2638987303 0.2340728790
0.4881374240 0.2770607173 0.2450549453
0.5035726428 0.2909751236 0.2561490536
0.5189411640 0.3051356971 0.2671501935
0.5342952013 0.3196558356 0.2782214284
0.5499167442 0.3346839249 0.2896715403
0.5646799207 0.3498375416 0.3015067577
0.5792941451 0.3652607203 0.3135660887
0.5928747654 0.3807481229 0.3259047866
0.6048921943 0.3959378004 0.3383153677
0.6160813570 0.4107295871 0.3505713940
0.6262230277 0.4248508215 0.3628352284
0.6355181932 0.4384898543 0.3749619722
0.6449049115 0.4516567886 0.3869837224
0.6536404490 0.4646114111 0.3990799785
0.6624200344 0.4772565663 0.4108870327
0.6706121564 0.4900417030 0.4230237007
0.6784986854 0.5029633641 0.4351705313
0.6866732836 0.5155275464 0.4469460249
0.6944158673 0.5281379223 0.4581816196
0.7013548017 0.5401191115 0.4683883190
0.7072364688 0.5509542227 0.4761543572
0.7116631866 0.5597997308 0.4804238081
0.7147989273 0.5663558245 0.4809961021
0.7143116593 0.5685553551 0.4741346240
0.7138347030 0.5709714293 0.4683514237
0.7148549557 0.5750751495 0.4665133357
0.7177267075 0.5816076994 0.4697911441
0.7224560976 0.5903601050 0.4776232839
0.7292162776 0.6011297703 0.4893843234
0.7367591858 0.6135692000 0.5037807226
0.7448660135 0.6269314289 0.5199055672
0.0527938381 0.0833719820 0.0668260306
0.0545748137 0.0838415846 0.0668475926
0.0579268187 0.0847738460 0.0672608018
0.0624918230 0.0860390887 0.0678991377
0.0682954714 0.0877996609 0.0686772540
0.0782652125 0.0904344693 0.0701509193
0.0910280570 0.0933801085 0.0716571063
0.1037759557 0.0959207490 0.0726349205
0.1162710264 0.0976499394 0.0728727430
0.1279071718 0.0993081331 0.0729007721
0.1400222331 0.1014867201 0.0728939399
0.1520274431 0.1041986793 0.0734566227
0.1645219475 0.1069059819 0.0742585212
0.1774521023 0.1099402085 0.0757827163
0.1915653795 0.1133910269 0.0777387321
0.2072567493 0.1177141890 0.0805753618
0.2228251696 0.1224984601 0.0842982978
0.2393456399 0.1279161721 0.0888251513
0.2559733391 0.1337202936 0.0938801616
0.2717234194 0.1396636069 0.0991020501
0.2862158418 0.1453314126 0.1046670824
0.3002247512 0.1509424150 0.1108703613
0.3140920699 0.1569552422 0.1177607328
0.3281494379 0.1636654437 0.1255890727
0.3424634933 0.1714296788 0.1348281354
0.3572034240 0.1799468100 0.1450344175
0.3721346557 0.1889877021 0.1557687074
0.3868843913 0.1986196041 0.1673994809
0.4012241662 0.2082674801 0.1786026955
0.4159169495 0.2188344151 0.1903961301
0.4301285446 0.2293504030 0.2013906240
0.4444600642 0.2405312210 0.2124872953
0.4590666592 0.2526744902 0.2238541394
0.4735132158 0.2649403811 0.2346052527
0.4886412919 0.2781113982 0.2455805242
0.5040208101 0.2918767333 0.2565783262
0.5193998814 0.3059552610 0.2675369978
0.5347588658 0.3204570711 0.2785936892
0.5503163338 0.3353842497 0.2899959087
0.5650391579 0.3504548669 0.3017912805
0.5796101689 0.3658293188 0.3138293922
0.5930914283 0.3812565207 0.3261325359
0.6050584912 0.3963564634 0.3384862840
0.6161957979 0.4110710323 0.3506971300
0.6263158917 0.4251460731 0.3629353940
0.6356045008 0.4387297630 0.3750465810
0.6449804902 0.4518629313 0.3870529532
0.6537099481 0.4647878408 0.3991355300
0.6624803543 0.4774040580 0.4109337330
0.6706690192 0.4901722670 0.4230620861
0.6785464883 0.5030719042 0.4352009594
0.6867137551 0.5156160593 0.4469673038
0.6944366693 0.5282037258 0.4581840634
0.7013705969 0.5401688814 0.4683828354
0.7072452903 0.5509886146 0.4761378765
0.7116708755 0.5598254800 0.4804055691
0.7147995830 0.5663715005 0.4809694886
0.7143109441 0.5685693622 0.4741161168
0.7138429284 0.5709919930 0.4683520496
0.7148591876 0.5750929117 0.4665135741
0.7177349329 0.5816290379 0.4698029160
0.7224672437 0.5903835893 0.4776419997
0.7292304039 0.6011539698 0.4894092381
0.7367743254 0.6135927439 0.5038076639
0.7448797822 0.6269536018 0.5199304223
0.0493261814 0.0872515216 0.0672811568
0.0510666221 0.0878662542 0.0674235448
0.0539870523 0.0887770876 0.0674537122
0.0585841984 0.0901576281 0.0679732189
0.0645293891 0.0919847041 0.0686716661
0.0736098289 0.0945744887 0.0698251724
0.0866652355 0.0974470899 0.0715307146
0.1004351526 0.1003521457 0.0729928836
0.1136983037 0.1031901538 0.0742333904
0.1261588931 0.1050743237 0.0744137764
0.1386472732 0.1074483544 0.0746632814
0.1506816894 0.1101457924 0.0747296810
0.1638735235 0.1132364273 0.0759739652
0.1771243513 0.1159471571 0.0775667578
0.1900983006 0.1180797145 0.0794919953
0.2042931169 0.1214266866 0.0820819885
0.2195039392 0.1255213767 0.0852052644
0.2351551950 0.1302033514 0.0893847421
0.2517230213 0.1356209964 0.0940965936
0.2686593533 0.1416570693 0.0995191187
0.2843740880 0.1471836716 0.1050056368
0.2991491258 0.1530019343 0.1113911569
0.3134454787 0.1587971449 0.1183548942
0.3277001083 0.1653434932 0.1261826903
0.3421983123 0.1728983819 0.1352856159
0.3569685519 0.1813165098 0.1454367787
0.3720280826 0.1903574765 0.1563001722
0.3869943023 0.1999637932 0.1678958237
0.4015536010 0.2098579258 0.1793429554
0.4162919521 0.2202770859 0.1910634339
0.4305940866 0.2305391431 0.2020384520
0.4450380802 0.2419189513 0.2132507563
0.4596398473 0.2539392710 0.2245344073
0.4740864933 0.2661027014 0.2352129370
0.4892117679 0.2793138325 0.2461684793
0.5045317411 0.2929202914 0.2570694089
0.5198879242 0.3068606853 0.2679557204
0.5352838635 0.3213679492 0.2790177464
0.5507629514 0.3361723721 0.2903506756
0.5654611588 0.3511630297 0.3021165729
0.5799551606 0.3664872944 0.3141325712
0.5933248997 0.3818244934 0.3263756633
0.6052443981 0.3968322277 0.3386704028
0.6163342595 0.4114654958 0.3508416414
0.6264230609 0.4254866242 0.3630509377
0.6357042193 0.4390069842 0.3751448095
0.6450678110 0.4521007836 0.3871328235
0.6537903547 0.4649918079 0.3991997838
0.6625499725 0.4775743783 0.4109876454
0.6707348228 0.4903233945 0.4231064916
0.6785985231 0.5031897426 0.4352304339
0.6867597103 0.5157167315 0.4469914436
0.6944618225 0.5282805562 0.4581887424
0.7013895512 0.5402269959 0.4683774412
0.7072555423 0.5510283709 0.4761187732
0.7116799951 0.5598552227 0.4803843498
0.7148004770 0.5663895607 0.4809387028
0.7143102288 0.5685855150 0.4740947485
0.7138524652 0.5710158348 0.4683527946
0.7148644328 0.5751135349 0.4665139318
0.7177444696 0.5816538334 0.4698166549
0.7224801779 0.5904110074 0.4776636660
0.7292470336 0.6011822224 0.4894383550
0.7367922068 0.6136202812 0.5038390756
0.7448956966 0.6269789338 0.5199592113
0.0455583259 0.0907444954 0.0670295507
0.0471631028 0.0914958566 0.0671991706
0.0499824770 0.0927057415 0.0675675198
0.0542336255 0.0943202972 0.0681025013
0.0611268952 0.0963937044 0.0690030977
0.0693689883 0.0988913551 0.0699389502
0.0817109346 0.1017106399 0.0711601153
0.0956636444 0.1050325334 0.0728957579
0.1101587340 0.1085299030 0.0748043433
0.1236848012 0.1113098487 0.0760774091
0.1370404661 0.1138484403 0.0767108127
0.1495224535 0.1165001392 0.0769393146
0.1625016183 0.1195716634 0.0775639564
0.1767477244 0.1230007708 0.0795167461
0.1909663528 0.1255254000 0.0821799487
0.2041710317 0.1275364459 0.0844993517
0.2176634222 0.1302045286 0.0867405608
0.2327646315 0.1344089061 0.0905823931
0.2484827340 0.1393603384 0.0950941890
0.2653792500 0.1448996663 0.1003167927
0.2820767462 0.1506133676 0.1060925424
0.2979287803 0.1559783667 0.1123781055
0.3127411008 0.1613803655 0.1191623211
0.3272886276 0.1676181555 0.1270738393
0.3419092000 0.1748658866 0.1360000223
0.3568328619 0.1831311733 0.1461432129
0.3719491661 0.1920818537 0.1569855511
0.3871550858 0.2016549855 0.1685490906
0.4019143581 0.2116535604 0.1802106947
0.4166302681 0.2218751460 0.1917699724
0.4310520589 0.2321601212 0.2027742267
0.4456634223 0.2435428798 0.2140868306
0.4602839053 0.2553948462 0.2252834737
0.4747168422 0.2673862576 0.2358843237
0.4898424149 0.2806423604 0.2468150556
0.5051209331 0.2941074669 0.2576275468
0.5204170942 0.3079259992 0.2684420943
0.5358590484 0.3224245906 0.2795093060
0.5512630939 0.3370783627 0.2907602787
0.5659077168 0.3519864380 0.3024966121
0.5803229213 0.3672519624 0.3144820035
0.5935848355 0.3824680746 0.3266448975
0.6054474711 0.3973666430 0.3388746381
0.6165098548 0.4119235575 0.3510064483
0.6265470982 0.4258795679 0.3631853163
0.6358193755 0.4393266439 0.3752580881
0.6451681852 0.4523759186 0.3872262537
0.6538797617 0.4652261138 0.3992709219
0.6626305580 0.4777712822 0.4110499918
0.6708109379 0.4904980659 0.4231578112
0.6786590815 0.5033261776 0.4352649450
0.6868128777 0.5158330202 0.4470193088
0.6944909692 0.5283696651 0.4581944644
0.7014114261 0.5402940512 0.4683710635
0.7072672844 0.5510742068 0.4760963619
0.7116903663 0.5598897934 0.4803598523
0.7148014307 0.5664106011 0.4809030294
0.7143095136 0.5686042905 0.4740699530
0.7138634324 0.5710432529 0.4683535993
0.7148702145 0.5751373768 0.4665142596
0.7177554965 0.5816825032 0.4698325694
0.7224950790 0.5904425979 0.4776886404
0.7292662263 0.6012148261 0.4894719720
0.7368130088 0.6136519909 0.5038753152
0.7449139953 0.6270085573 0.5199926496
0.0421814211 0.0943630263 0.0669778734
0.0436708070 0.0952355117 0.0670884624
0.0458051041 0.0964581221 0.0672948435
0.0497688726 0.0982188433 0.0678778440
0.0561437681 0.1006827056 0.0688119382
0.0651343539 0.1037733406 0.0700186267
0.0759890303 0.1070673168 0.0710199624
0.0901032314 0.1101827770 0.0724836960
0.1052066684 0.1136247516 0.0746161193
0.1203549504 0.1173297837 0.0771073103
0.1348521411 0.1206123531 0.0787065402
0.1483364701 0.1235857457 0.0796228722
0.1613202393 0.1266760826 0.0804278180
0.1755893230 0.1304296851 0.0823319927
0.1910923570 0.1340226084 0.0851263776
0.2058234513 0.1362177283 0.0876823962
0.2188719213 0.1377928257 0.0897952914
0.2322331816 0.1402435452 0.0927396566
0.2471979707 0.1444297284 0.0969725475
