skills/davinci/davinci-film-colorist/assets/HF-Astra-Looks/DCTL/ASTRA_LookMixer_Data/vision2.cube
# System: Cinema - Expired
# Mode: Full Emulation
# Source: DaVinci Wide Gamut Intermediate
# Camera | Exposure: 0.100, Temperature: -804, Tint: -0.442
# Negative | Color & Tone Stock: Vision2 HD Scan 500T - 5299, Gamut Compression | Amount: 1.000, Threshold: (0.250, 0.250, 0.074), Distance: (0.045, 0.045, 0.037)
# Lab | De-Fog: 1.000, Neutralize: 0.000, Richness: -0.023, Vibrance: 0.008, Density: 0.000, Contrast: 0.008, Push/Pull: 0.000, Split Tone: [Hue: 0.500, Intensity: 0.000, Pivot: 0.000, Dead Zone Width: 0.000, Shadows: 0.000, Highlights: 0.000], Printer Lights: [24.340, 27.820, 23.070, Invert: Enabled], Acutance: Disabled
# Print | System: Cinema, Style: Custom, Tone Curve: -0.101, Color: 0.000, Neutralize Balance: 1.000, Black Point: 0.496
# Display Colorspace: RCM SDR
LUT_3D_SIZE 65
0.0137159871 0.0206832998 0.0040761572
0.0253711957 0.0242213532 0.0069506215
0.0370064676 0.0281063616 0.0099460334
0.0500364713 0.0318025686 0.0126443421
0.0647607222 0.0368608832 0.0155747291
0.0799065903 0.0426911302 0.0185404569
0.0947505757 0.0488229059 0.0204167515
0.1093693972 0.0552637689 0.0211228244
0.1241469681 0.0617063157 0.0223832875
0.1393104643 0.0680312589 0.0264502484
0.1525684893 0.0737154707 0.0303329509
0.1689148843 0.0792222619 0.0352449231
0.1868115664 0.0841353536 0.0408392735
0.2042352855 0.0878929943 0.0465565138
0.2217587978 0.0916164517 0.0527472310
0.2385040969 0.0947420076 0.0590159968
0.2550931871 0.0982145369 0.0657286420
0.2716505527 0.1023003832 0.0729145929
0.2880162597 0.1066361591 0.0804144740
0.3043290973 0.1123516783 0.0884771794
0.3202083111 0.1184371710 0.0966313258
0.3356325626 0.1249765605 0.1048351228
0.3505184054 0.1317098886 0.1129666045
0.3647764027 0.1377374828 0.1207587868
0.3790423572 0.1442815363 0.1286699772
0.3927950859 0.1505908966 0.1362945288
0.4054660201 0.1563600600 0.1432650834
0.4174237251 0.1619299799 0.1498097926
0.4286770821 0.1675129384 0.1563256979
0.4395749569 0.1743248403 0.1648888737
0.4492794871 0.1807152331 0.1726456136
0.4577426016 0.1863668412 0.1793409139
0.4645423293 0.1911775619 0.1844594330
0.4700324535 0.1949478984 0.1886233687
0.4718857408 0.1974763572 0.1904708594
0.4727318883 0.1990708411 0.1913927794
0.4731163681 0.1998913437 0.1918495446
0.4740996361 0.2020014077 0.1930265129
0.4758502841 0.2056228518 0.1950952262
0.4774573147 0.2089283615 0.1969054788
0.4792968035 0.2127043456 0.1989790201
0.4810334146 0.2162321657 0.2008644789
0.4830048978 0.2202471346 0.2029684186
0.4856085181 0.2255005240 0.2057597488
0.4886831343 0.2319948077 0.2090881467
0.4919753373 0.2388905883 0.2122433037
0.4955652952 0.2461912334 0.2156908214
0.4990334809 0.2530696988 0.2189321667
0.5024657249 0.2597365081 0.2220834792
0.5060172081 0.2665875852 0.2253096551
0.5096343756 0.2733735740 0.2284518778
0.5129504204 0.2795230448 0.2313103527
0.5168770552 0.2865040898 0.2345499545
0.5217014551 0.2950873673 0.2384874672
0.5269349813 0.3039234877 0.2426118702
0.5323660374 0.3127408624 0.2467280328
0.5379835367 0.3216257393 0.2508080006
0.5437667370 0.3303104341 0.2548444271
0.5498898625 0.3388667405 0.2587565184
0.5561354756 0.3470415771 0.2624633610
0.5621197224 0.3546774983 0.2658464015
0.5682772994 0.3621788621 0.2690753639
0.5743926764 0.3693320751 0.2720239162
0.5803617239 0.3761502206 0.2747576833
0.5863142610 0.3828641176 0.2771682143
0.0135183316 0.0272950418 0.0069487640
0.0236822497 0.0301817078 0.0095968125
0.0348561555 0.0335765518 0.0127350409
0.0473847054 0.0369058996 0.0155446762
0.0613780655 0.0412349068 0.0186822638
0.0767665878 0.0464660488 0.0217877664
0.0919046402 0.0527905561 0.0239908118
0.1068235785 0.0586003922 0.0249674097
0.1212753728 0.0644227117 0.0249571148
0.1370422095 0.0710069090 0.0265269876
0.1523029357 0.0773678795 0.0309919547
0.1673699468 0.0822630227 0.0354788639
0.1853376329 0.0874188170 0.0410951339
0.2036498189 0.0919079185 0.0471568815
0.2215354443 0.0957380161 0.0534340926
0.2388706505 0.0992624462 0.0599619895
0.2549860775 0.1021863222 0.0663900450
0.2715606987 0.1060950458 0.0735402480
0.2878921330 0.1104981452 0.0810326859
0.3042914569 0.1160342917 0.0890678316
0.3204397261 0.1222039089 0.0973391533
0.3359331191 0.1284962744 0.1055378690
0.3506522477 0.1348316520 0.1135222241
0.3647846878 0.1404946595 0.1211848557
0.3782025278 0.1452529132 0.1284089386
0.3918600380 0.1512012184 0.1359308213
0.4046743512 0.1570216119 0.1429843754
0.4170231521 0.1632162482 0.1498079896
0.4277848601 0.1678415239 0.1560665965
0.4383822680 0.1740431786 0.1641648859
0.4481679499 0.1802107096 0.1718591154
0.4568567574 0.1860708594 0.1787752509
0.4641535878 0.1915524006 0.1844240427
0.4698736966 0.1954277307 0.1886260808
0.4726001322 0.1988003254 0.1912403256
0.4735946059 0.2009149641 0.1924200058
0.4738894403 0.2015492320 0.1927740872
0.4749597609 0.2038020492 0.1940514892
0.4765532315 0.2070639879 0.1958900392
0.4781356752 0.2103315145 0.1976691037
0.4799641073 0.2140498310 0.1997281313
0.4818163514 0.2178356051 0.2016971707
0.4838050902 0.2218427807 0.2038270235
0.4863667488 0.2270595431 0.2065733820
0.4893497229 0.2334125489 0.2097310126
0.4925284982 0.2399908602 0.2127623856
0.4960798323 0.2472414374 0.2161870599
0.4995627105 0.2541087866 0.2194180787
0.5029608607 0.2606893778 0.2225355059
0.5064576268 0.2674102485 0.2256952822
0.5100458860 0.2741358578 0.2288020998
0.5133392811 0.2802326381 0.2316452861
0.5172413588 0.2871529758 0.2348476201
0.5220385194 0.2956772447 0.2387598008
0.5272544622 0.3044429719 0.2428544313
0.5326408744 0.3131987751 0.2469387203
0.5382371545 0.3220134974 0.2509890497
0.5440069437 0.3306542337 0.2550029755
0.5501179099 0.3391758800 0.2588973343
0.5563389063 0.3472986519 0.2625787556
0.5623005629 0.3549090326 0.2659479082
0.5684434772 0.3623752296 0.2691558301
0.5745298862 0.3694992959 0.2720915973
0.5804932714 0.3762988150 0.2748177648
0.5864288807 0.3829861283 0.2772108316
0.0129916454 0.0330739915 0.0089748995
0.0227004737 0.0359437279 0.0115818428
0.0330361202 0.0392367728 0.0146914087
0.0452318415 0.0425358675 0.0179467537
0.0591735393 0.0466874689 0.0218476690
0.0737322941 0.0518523939 0.0256428961
0.0887049213 0.0567956902 0.0276617352
0.1039928719 0.0623066276 0.0292750858
0.1190257445 0.0681980923 0.0295798890
0.1349867433 0.0747560561 0.0290677343
0.1507747322 0.0800656304 0.0312142204
0.1660097241 0.0855649412 0.0358309075
0.1844101846 0.0910500810 0.0415734947
0.2032421827 0.0960350409 0.0478528216
0.2214234322 0.0997841060 0.0541940369
0.2383625060 0.1030093357 0.0605169013
0.2552463710 0.1064999923 0.0672907755
0.2717068791 0.1100852340 0.0743216425
0.2880308032 0.1143962145 0.0817672014
0.3044497371 0.1196976081 0.0897458643
0.3205957115 0.1255519390 0.0979684144
0.3361823857 0.1318884194 0.1062063649
0.3510488868 0.1382413357 0.1142519414
0.3653343022 0.1437779963 0.1219646111
0.3787378073 0.1483773887 0.1291556358
0.3916332424 0.1530060023 0.1360906214
0.4043018520 0.1581876427 0.1429782212
0.4165841937 0.1643178314 0.1497638822
0.4274957478 0.1693499535 0.1567254514
0.4382214248 0.1755809933 0.1648179889
0.4481085539 0.1816506088 0.1724516153
0.4567026496 0.1872473508 0.1791319251
0.4641115069 0.1927557737 0.1848835200
0.4700724483 0.1969440430 0.1891896576
0.4733044207 0.2003433555 0.1920862794
0.4744493961 0.2027478814 0.1934458613
0.4748024642 0.2034801096 0.1938653886
0.4758442044 0.2056104094 0.1950882673
0.4772484899 0.2084969729 0.1966706216
0.4788845479 0.2118730098 0.1985161901
0.4807108343 0.2155727148 0.2005223185
0.4825925231 0.2194180787 0.2025248855
0.4846051335 0.2234375775 0.2046831250
0.4870995283 0.2285989225 0.2073718756
0.4900167882 0.2348313183 0.2103742957
0.4931913316 0.2413043678 0.2133839130
0.4965910017 0.2482793480 0.2166794091
0.5000936985 0.2551527023 0.2199076712
0.5034561157 0.2616503835 0.2229858339
0.5068989396 0.2682344615 0.2260815948
0.5104590654 0.2748975456 0.2291525304
0.5137306452 0.2809455395 0.2319820672
0.5176069736 0.2878041565 0.2351463586
0.5223770142 0.2962695360 0.2390340716
0.5275753140 0.3049646020 0.2430980057
0.5329138041 0.3136542737 0.2471483201
0.5384912491 0.3224000335 0.2511692345
0.5442445278 0.3309942484 0.2551595271
0.5503462553 0.3394855559 0.2590383887
0.5565438271 0.3475574553 0.2626949549
0.5624827743 0.3551422656 0.2660501897
0.5686100125 0.3625719547 0.2692364752
0.5746742487 0.3696674109 0.2721588910
0.5806246400 0.3764471412 0.2748777270
0.5865461230 0.3831108212 0.2772544026
0.0125729665 0.0401703008 0.0110489121
0.0214642007 0.0422764607 0.0133901294
0.0315422378 0.0452137813 0.0163133778
0.0421338119 0.0484915003 0.0198347904
0.0576174073 0.0529854223 0.0246333070
0.0714283064 0.0573293082 0.0289992075
0.0856351107 0.0612862669 0.0315530971
0.1014941186 0.0670926049 0.0339876339
0.1163816452 0.0730962455 0.0349595360
0.1321486682 0.0784924477 0.0343677923
0.1484314501 0.0833897144 0.0323130153
0.1638787240 0.0888172835 0.0359935388
0.1818933785 0.0943693668 0.0416097455
0.2011697441 0.0992349759 0.0479189791
0.2203941792 0.1037975177 0.0546820238
0.2380167097 0.1072643325 0.0612270720
0.2549394369 0.1106974557 0.0679716170
0.2718536556 0.1143916845 0.0751605630
0.2885673940 0.1190420240 0.0828132853
0.3048418462 0.1238786206 0.0906566903
0.3209022582 0.1294627488 0.0987718254
0.3365825415 0.1358460933 0.1070543304
0.3515273631 0.1419913322 0.1150985882
0.3656091094 0.1472024024 0.1226549745
0.3792002797 0.1518562734 0.1299222261
0.3918725550 0.1561849713 0.1366919875
0.4044983387 0.1612035930 0.1435294747
0.4161993265 0.1660229266 0.1499210298
0.4272412062 0.1710936874 0.1575307995
0.4380760193 0.1772720963 0.1655900627
0.4479282498 0.1832034886 0.1730692983
0.4565820992 0.1886328161 0.1796010286
0.4641646147 0.1942561269 0.1854596287
0.4704146981 0.1990425289 0.1900809407
0.4740769267 0.2020589858 0.1930278689
0.4753994346 0.2047017664 0.1945715696
0.4758873284 0.2056983262 0.1951373518
0.4768414795 0.2076580226 0.1962136328
0.4780118763 0.2100753933 0.1975297183
0.4797130823 0.2135437429 0.1994463503
0.4815415740 0.2172728181 0.2014048994
0.4834539592 0.2211500257 0.2034514248
0.4854851663 0.2252469063 0.2056273967
0.4878879488 0.2303064317 0.2082517594
0.4907553792 0.2364023477 0.2110866606
0.4939248264 0.2428128421 0.2140947878
0.4971579015 0.2493994534 0.2172130495
0.5006826520 0.2563093901 0.2204510272
0.5040059686 0.2627172172 0.2234857380
0.5073828697 0.2691383958 0.2265052944
0.5109162927 0.2757421434 0.2295427769
0.5141648650 0.2817381024 0.2323567569
0.5180103779 0.2885227799 0.2354760170
0.5227527618 0.2969283760 0.2393403351
0.5279320478 0.3055445850 0.2433688343
0.5332233906 0.3141553700 0.2473774105
0.5387732387 0.3228291273 0.2513692677
0.5445097685 0.3313740194 0.2553335130
0.5506010056 0.3398307860 0.2591956854
0.5567717552 0.3478455544 0.2628242671
0.5626848936 0.3554010093 0.2661636472
0.5687946081 0.3627901971 0.2693258822
0.5748357177 0.3698539436 0.2722333372
0.5807673931 0.3766083121 0.2749371231
0.5866732597 0.3832461536 0.2773016989
0.0136555638 0.0498878099 0.0149437962
0.0218131803 0.0517549030 0.0169590116
0.0318482667 0.0540902950 0.0200436618
0.0417615846 0.0565852746 0.0234904382
0.0553446077 0.0600971170 0.0279417951
0.0696705282 0.0640415102 0.0326698534
0.0839218348 0.0680561587 0.0365826264
0.0992373005 0.0735511184 0.0395385921
0.1137583181 0.0784356594 0.0409311242
0.1285275370 0.0830224827 0.0406591147
0.1445105374 0.0878496915 0.0388651602
0.1610950828 0.0927961320 0.0368730389
0.1788647473 0.0981667489 0.0416573435
0.1988204271 0.1033828035 0.0481260717
0.2186688781 0.1082216948 0.0550442189
0.2372971326 0.1119092107 0.0619123690
0.2548007965 0.1156456172 0.0688865855
0.2722680569 0.1196269095 0.0763279051
0.2889993191 0.1240980402 0.0839465111
0.3057094216 0.1293679625 0.0920189843
0.3219322264 0.1349104792 0.1001856700
0.3375792801 0.1409965754 0.1084115729
0.3525295854 0.1471522599 0.1164450124
0.3663495481 0.1516601741 0.1237373799
0.3794450164 0.1552822590 0.1305810362
0.3923477232 0.1597042680 0.1374785304
0.4050994515 0.1649119556 0.1448861063
0.4162720144 0.1690379828 0.1517258734
0.4275917113 0.1746019274 0.1595085859
0.4380334914 0.1798170358 0.1668251604
0.4479800165 0.1857124269 0.1741803586
0.4569743276 0.1914379895 0.1807969064
0.4643317759 0.1961757839 0.1861634105
0.4708836973 0.2015886009 0.1911917478
0.4750058949 0.2045302689 0.1942842752
0.4765114188 0.2069777399 0.1958430856
0.4771606624 0.2083159834 0.1965720356
0.4779757261 0.2100006789 0.1974890530
0.4791573286 0.2124231756 0.1988224536
0.4807504714 0.2156534642 0.2005641162
0.4824795127 0.2191909105 0.2024033368
0.4844479263 0.2231143862 0.2045144439
0.4864944220 0.2273219973 0.2067103684
0.4888095856 0.2322637439 0.2092101127
0.4916353226 0.2382065803 0.2119226903
0.4947715104 0.2445565313 0.2149185389
0.4978469610 0.2507430017 0.2178476602
0.5013618469 0.2576195300 0.2210740894
0.5046415329 0.2639501989 0.2240635306
0.5079391599 0.2701786160 0.2269912660
0.5114437938 0.2767223120 0.2300008237
0.5146729350 0.2826384306 0.2327849269
0.5184785128 0.2893615961 0.2358601689
0.5231884718 0.2976931334 0.2396977097
0.5283455253 0.3062071800 0.2436789423
0.5335870981 0.3147374988 0.2476422936
0.5390996933 0.3233260214 0.2516009212
0.5448178649 0.3318148851 0.2555355132
0.5508925319 0.3402247131 0.2593758106
0.5570355654 0.3481788933 0.2629739046
0.5629190803 0.3557007909 0.2662951052
0.5690100193 0.3630446792 0.2694301903
0.5750243068 0.3700717092 0.2723203301
0.5809320807 0.3767943084 0.2750037014
0.5868219733 0.3834043145 0.2773569524
0.0148052322 0.0590107441 0.0192239843
0.0218891148 0.0604975112 0.0209288448
0.0311781205 0.0624213591 0.0234302171
0.0413288176 0.0646921545 0.0266690515
0.0545166060 0.0683149695 0.0313832462
0.0683296472 0.0725592598 0.0366317034
0.0828295574 0.0761192068 0.0412029326
0.0971844345 0.0802025050 0.0450480320
0.1109736562 0.0841465220 0.0468879826
0.1256843954 0.0887603313 0.0474505723
0.1412631422 0.0933183208 0.0462675020
0.1584047973 0.0981535017 0.0442511253
0.1752969474 0.1024971008 0.0425939187
0.1958836317 0.1080409810 0.0483194143
0.2171145976 0.1133812070 0.0557017960
0.2364900112 0.1173665375 0.0627985895
0.2551145852 0.1216853335 0.0702442601
0.2726571560 0.1255658567 0.0776527673
0.2898237705 0.1300469339 0.0854191184
0.3068590760 0.1353531778 0.0936396271
0.3229951560 0.1406685710 0.1017251462
0.3387126029 0.1468567401 0.1099643260
0.3537877500 0.1525697559 0.1179875433
0.3674403131 0.1567642540 0.1255150288
0.3806239367 0.1608193368 0.1331401169
0.3933251202 0.1645757258 0.1403771341
0.4054120779 0.1687251031 0.1473949552
0.4168849289 0.1730648577 0.1544238776
0.4281219244 0.1783872396 0.1618764549
0.4383359551 0.1832882017 0.1687677205
0.4481139481 0.1888777763 0.1756928116
0.4571653008 0.1943992227 0.1819886863
0.4646954238 0.1989405602 0.1872648895
0.4712738097 0.2042332441 0.1922958940
0.4762457311 0.2078689784 0.1959158331
0.4778054059 0.2096483409 0.1972973049
0.4786173105 0.2113236934 0.1982135028
0.4792898595 0.2126903981 0.1989712268
0.4806061089 0.2153594047 0.2004118562
0.4819795191 0.2181696445 0.2018706501
0.4835626781 0.2213655859 0.2035678625
0.4855833352 0.2254487872 0.2057327479
0.4875822663 0.2296412140 0.2079085559
0.4899270833 0.2346405536 0.2102877945
0.4926654100 0.2402616143 0.2128905803
0.4957479239 0.2465660870 0.2158679068
0.4988151491 0.2526414394 0.2187325507
0.5021353364 0.2591029108 0.2217814028
0.5053749681 0.2653757334 0.2247346342
0.5085830092 0.2713920474 0.2275460064
0.5120538473 0.2778564095 0.2305310965
0.5152698755 0.2836766541 0.2332617939
0.5190277100 0.2903463542 0.2363110036
0.5236914158 0.2985591590 0.2401045263
0.5288239717 0.3069723547 0.2440399230
0.5340077877 0.3154108524 0.2479487509
0.5394772887 0.3239006102 0.2518687546
0.5451724529 0.3323224783 0.2557680905
0.5512316823 0.3406827450 0.2595852315
0.5573385954 0.3485644460 0.2631459534
0.5631905198 0.3560481369 0.2664474547
0.5692605972 0.3633407056 0.2695515156
0.5752422214 0.3703233302 0.2724207938
0.5811235309 0.3770104945 0.2750811577
0.5869956613 0.3835891783 0.2774215639
0.0170963909 0.0711997449 0.0247401148
0.0233991221 0.0720214620 0.0260011721
0.0316623487 0.0733891800 0.0279811509
0.0413838401 0.0752861872 0.0308780596
0.0532272570 0.0775611252 0.0344065689
0.0668829456 0.0807652697 0.0393899903
0.0816508085 0.0845687911 0.0449711569
0.0958964452 0.0884299651 0.0498308837
0.1097276434 0.0924705267 0.0530700386
0.1235445663 0.0961285606 0.0545101054
0.1386540085 0.1001618430 0.0545925796
0.1550358385 0.1043867171 0.0530477613
0.1716350317 0.1084345728 0.0513240062
0.1915408969 0.1129231527 0.0497295074
0.2134987116 0.1186692044 0.0558057465
0.2342478037 0.1231714562 0.0633209720
0.2541626394 0.1277062297 0.0711833313
0.2729075253 0.1322276890 0.0791309103
0.2910252213 0.1370482594 0.0873241574
0.3080947697 0.1422417164 0.0954991132
0.3243715465 0.1474639773 0.1036231741
0.3404929042 0.1537965387 0.1130876765
0.3550393879 0.1592760384 0.1228460148
0.3688100576 0.1634767354 0.1311027110
0.3818170130 0.1669171453 0.1380638778
0.3943139017 0.1705699116 0.1447943747
0.4062945545 0.1743852943 0.1514219940
0.4176035821 0.1783017814 0.1578994095
0.4283097982 0.1826094389 0.1643628180
0.4386844933 0.1873062402 0.1710491478
0.4484874606 0.1928099096 0.1776385605
0.4575558603 0.1980343014 0.1836113185
0.4651685953 0.2024446428 0.1887298077
0.4717364609 0.2072295547 0.1935436428
0.4771976173 0.2114618868 0.1974917352
0.4793270230 0.2128374130 0.1990327090
0.4803286791 0.2147943527 0.2001193017
0.4810503721 0.2162669450 0.2008825243
0.4823707938 0.2189710438 0.2022868097
0.4834864140 0.2212152630 0.2034863234
0.4849377871 0.2241214216 0.2050400376
0.4868651032 0.2280938029 0.2071116865
0.4888303280 0.2323078215 0.2092300802
0.4912210703 0.2373733968 0.2115321457
0.4938507080 0.2426602542 0.2140227109
0.4968639910 0.2488244772 0.2169408053
0.4999335110 0.2548377812 0.2197599709
0.5030181408 0.2608006001 0.2225876004
0.5062374473 0.2669989467 0.2255024761
0.5093268752 0.2727941573 0.2281869501
0.5127512217 0.2791527212 0.2311372161
0.5159584880 0.2848749459 0.2338084877
0.5196627378 0.2914752364 0.2368291020
0.5242781043 0.2995308936 0.2405596823
0.5293734670 0.3078550100 0.2444571853
0.5344944596 0.3161898255 0.2483033389
0.5399158597 0.3245679736 0.2521798611
0.5455849767 0.3329129219 0.2560386062
0.5516237020 0.3412122428 0.2598273456
0.5576880574 0.3490126133 0.2633445859
0.5635076165 0.3564515412 0.2666240036
0.5695479512 0.3636803031 0.2696906626
0.5754931569 0.3706131876 0.2725365162
0.5813444853 0.3772599697 0.2751705050
0.5871960521 0.3838025331 0.2774964571
0.0187713634 0.0829696581 0.0297596939
0.0251444019 0.0838576481 0.0309053268
0.0330048501 0.0849451125 0.0323604271
0.0419486575 0.0862550735 0.0345857292
0.0538697876 0.0891470611 0.0384982862
0.0668629184 0.0918159112 0.0428080298
0.0819272771 0.0951637328 0.0480483845
0.0957485363 0.0986579508 0.0533874035
0.1093133241 0.1016238630 0.0577381067
0.1221643984 0.1046681553 0.0603040680
0.1364299953 0.1079493463 0.0616147816
0.1516797543 0.1111113355 0.0613453873
0.1686603129 0.1149345115 0.0599433780
0.1876886040 0.1195631027 0.0590658188
0.2089765966 0.1242652610 0.0599555559
0.2310156673 0.1295042485 0.0643091872
0.2521707118 0.1345830411 0.0720086619
0.2724008560 0.1395484060 0.0805094391
0.2914857268 0.1443643123 0.0890395790
0.3093845248 0.1498566270 0.0988985747
0.3262364268 0.1559607238 0.1099825948
0.3419582844 0.1618728191 0.1204651669
0.3566607535 0.1669798791 0.1297573149
0.3701953292 0.1708522290 0.1371211261
0.3832101524 0.1741228253 0.1439142823
0.3954514861 0.1771007478 0.1497574300
0.4074425399 0.1808323264 0.1562528908
0.4186391830 0.1846355200 0.1622658372
0.4291257858 0.1885252595 0.1679635942
0.4395577312 0.1933081150 0.1741786599
0.4489432871 0.1978147030 0.1800007522
0.4576432109 0.2022608221 0.1853596568
0.4659493566 0.2070988417 0.1907187253
0.4724569917 0.2109516561 0.1950781792
0.4782023728 0.2157146484 0.1992849261
0.4814251065 0.2174715996 0.2013880014
0.4824461341 0.2191237509 0.2023674250
0.4832762778 0.2207927704 0.2032603174
0.4843742549 0.2229629755 0.2044353932
0.4854958355 0.2252688557 0.2056388557
0.4866117537 0.2275633365 0.2068362832
0.4882403910 0.2310608029 0.2086400986
0.4903427958 0.2355247438 0.2106887400
0.4927710891 0.2404705435 0.2129894942
0.4953076243 0.2456606030 0.2154401243
0.4981811643 0.2513983846 0.2181531340
0.5012226701 0.2573525906 0.2209468335
0.5041525364 0.2630015910 0.2236190140
0.5072355270 0.2688632309 0.2263763100
0.5102578402 0.2745265663 0.2289818376
0.5135666728 0.2806469500 0.2318410128
0.5167309046 0.2862443626 0.2344313562
0.5203967094 0.2927800417 0.2374279499
0.5249565244 0.3006544411 0.2410859615
0.5300050378 0.3088861108 0.2449364215
0.5350630879 0.3170959651 0.2487190664
0.5404225588 0.3253391683 0.2525393665
0.5460615754 0.3335949779 0.2563510835
0.5520773530 0.3418250084 0.2601075172
0.5580929518 0.3495317996 0.2635746896
0.5638892651 0.3569160998 0.2668246627
0.5698809028 0.3640736938 0.2698518932
0.5757867098 0.3709521592 0.2726718783
0.5815996528 0.3775480986 0.2752736807
0.5874295831 0.3840501308 0.2775847316
0.0207213685 0.0959569439 0.0356117897
0.0267631132 0.0965970308 0.0363910310
0.0338921808 0.0972383246 0.0373091735
0.0425084680 0.0986244157 0.0389926806
0.0540486388 0.1006522328 0.0419248007
0.0668079257 0.1028227732 0.0455065034
0.0812225714 0.1058070511 0.0501078963
0.0949937701 0.1085979193 0.0549518354
0.1086806804 0.1116597652 0.0603939369
0.1220191196 0.1144226640 0.0648044124
0.1353175044 0.1171933115 0.0675822720
0.1500416100 0.1202675253 0.0691324547
0.1659723520 0.1230008528 0.0685433000
0.1838172823 0.1269491017 0.0689610317
0.2049665004 0.1318875551 0.0700639710
0.2274827361 0.1375962943 0.0750756487
0.2498976141 0.1431464553 0.0818188488
0.2711468041 0.1481548548 0.0893678889
0.2917914391 0.1539300084 0.0988787636
0.3104659021 0.1594158858 0.1088529602
0.3276341856 0.1651004851 0.1188694313
0.3436791301 0.1709724963 0.1287406087
0.3584125638 0.1757152528 0.1370044202
0.3719960749 0.1793057621 0.1439146847
0.3848152161 0.1820861846 0.1499537379
0.3970859349 0.1853390187 0.1557554305
0.4089176357 0.1886986494 0.1613992602
0.4196996391 0.1917299181 0.1666590422
0.4302482605 0.1954055578 0.1721078306
0.4401473701 0.1992510259 0.1773841381
0.4496286809 0.2035726160 0.1828317344
0.4585247636 0.2081174701 0.1882066727
0.4665957093 0.2124265879 0.1930160224
0.4734250903 0.2160969526 0.1971479654
0.4793529212 0.2205997258 0.2013213187
0.4836015999 0.2230838835 0.2040757835
0.4849276543 0.2241006196 0.2050291598
0.4858109653 0.2259168029 0.2059770077
0.4866384864 0.2276182026 0.2068649381
0.4876896143 0.2298743725 0.2080287188
0.4884561300 0.2315191627 0.2088642418
0.4898967445 0.2345760465 0.2102585584
0.4921267629 0.2391951382 0.2123860568
0.4945479929 0.2440962493 0.2147011012
0.4969930947 0.2490780354 0.2170611620
0.4997551143 0.2544869781 0.2195954621
0.5026815534 0.2601504624 0.2222808450
0.5054999590 0.2656164765 0.2248500884
0.5083711147 0.2709926367 0.2273634225
0.5113392472 0.2765280008 0.2299099714
0.5145191550 0.2823706567 0.2326584756
0.5176224113 0.2878317535 0.2351590246
0.5212457180 0.2942896485 0.2381207645
0.5257411003 0.3019537628 0.2416945845
0.5307362080 0.3100798726 0.2454912961
0.5357445478 0.3181548417 0.2492066324
0.5410112739 0.3262344897 0.2529577315
0.5466148853 0.3343869448 0.2567139268
0.5526024103 0.3425350189 0.2604342103
0.5585610867 0.3501320481 0.2638407350
0.5643358827 0.3574570119 0.2670576870
0.5702679753 0.3645310104 0.2700393200
0.5761244297 0.3713422120 0.2728276253
0.5818971992 0.3778840303 0.2753939927
0.5877038836 0.3843316436 0.2776854038
0.0213414971 0.1088656932 0.0409176908
0.0277003311 0.1095410809 0.0413902700
0.0352020822 0.1103893816 0.0421385914
0.0433824547 0.1113603786 0.0431381129
0.0543554351 0.1131321192 0.0451237895
0.0671845749 0.1152584776 0.0481058024
0.0814723745 0.1175442711 0.0518205985
0.0948669985 0.1199967042 0.0561298802
0.1088229194 0.1228881702 0.0615014173
