skills/davinci/davinci-film-colorist/assets/HF-Astra-Looks/DCTL/ASTRA_LookMixer_Data/vision3d.cube
# System: Cinema - Vision3
# Mode: Full Emulation
# Source: DaVinci Wide Gamut Intermediate
# Camera | Disabled
# Negative | Color & Tone Stock: 250D, Gamut Compression | Amount: 1.000, Threshold: (0.190, 0.120, 0.074), Distance: (0.065, 0.120, 0.037)
# Lab | Disabled
# Print | System: Cinema, Style: Custom, Tone Curve: 0.750, Color: 0.750, Neutralize Balance: 0.000, Black Point: 0.885
# Display Colorspace: RCM SDR
LUT_3D_SIZE 65
0.0448534861 0.0576567613 0.0601071678
0.0484192483 0.0585338958 0.0606752038
0.0536784604 0.0595274903 0.0611737445
0.0618561767 0.0610119700 0.0618768185
0.0727377087 0.0629722998 0.0629335716
0.0876626149 0.0652865544 0.0640839785
0.1028055772 0.0679583326 0.0649776459
0.1155721769 0.0705331564 0.0653965995
0.1266119629 0.0732299536 0.0657635331
0.1380040795 0.0763214380 0.0660633892
0.1503145546 0.0804579258 0.0669870973
0.1638677716 0.0851022676 0.0685781389
0.1781946570 0.0899659395 0.0705157146
0.1928296983 0.0954516754 0.0733244941
0.2069087923 0.1005506590 0.0763912722
0.2211669534 0.1056311280 0.0798018277
0.2347715050 0.1107592657 0.0834434852
0.2477711886 0.1158017144 0.0875209570
0.2600800991 0.1202005222 0.0917075276
0.2720955312 0.1247631460 0.0963073224
0.2841937542 0.1298316419 0.1013894901
0.2966399491 0.1355331242 0.1073300391
0.3094527423 0.1419151127 0.1139323488
0.3227185607 0.1493470371 0.1215262264
0.3363485336 0.1576311588 0.1302573830
0.3503036499 0.1664644480 0.1398653984
0.3647210598 0.1761908680 0.1510900855
0.3789468408 0.1860915571 0.1626917720
0.3934361935 0.1968149990 0.1749233902
0.4081599414 0.2079260051 0.1872023046
0.4229116738 0.2194384634 0.1991938800
0.4382065237 0.2319959402 0.2115695179
0.4537353218 0.2451165766 0.2240267247
0.4698883891 0.2593535483 0.2364698499
0.4869420528 0.2748364508 0.2494369447
0.5042150021 0.2905834019 0.2623202801
0.5219427347 0.3072040677 0.2755193114
0.5397222042 0.3241135776 0.2888003290
0.5576377511 0.3414063752 0.3023120761
0.5742766857 0.3584981263 0.3160657585
0.5902262330 0.3755665123 0.3298507035
0.6048055291 0.3924478292 0.3436466157
0.6173468232 0.4086292088 0.3571518064
0.6291969419 0.4242872596 0.3702966571
0.6395732760 0.4390020967 0.3832219541
0.6495319009 0.4533305168 0.3960778713
0.6587585807 0.4670243859 0.4088075459
0.6678729653 0.4807574451 0.4218408167
0.6763385534 0.4943061471 0.4346936643
0.6852725148 0.5080577731 0.4478449225
0.6937370300 0.5218540430 0.4610120058
0.7015427351 0.5352149010 0.4737726152
0.7090417147 0.5485219359 0.4858901799
0.7160043120 0.5612161756 0.4969277382
0.7225170732 0.5724464059 0.5050804019
0.7276704907 0.5817589164 0.5098486543
0.7312284112 0.5885193944 0.5106862783
0.7313774824 0.5905189514 0.5035061836
0.7309384942 0.5922824144 0.4972102642
0.7321375608 0.5961196423 0.4953913093
0.7351655960 0.6026057601 0.4989218116
0.7402475476 0.6116018295 0.5075057745
0.7471442223 0.6228623986 0.5205065012
0.7549235225 0.6358831525 0.5363000631
0.7629706264 0.6496954560 0.5539770126
0.0437018573 0.0584608726 0.0599096231
0.0467552096 0.0590558648 0.0602236129
0.0516098440 0.0599636734 0.0606665649
0.0595272481 0.0612947345 0.0613591112
0.0699151456 0.0632048100 0.0624981262
0.0853643939 0.0655160099 0.0636928007
0.1008258685 0.0681473911 0.0647073537
0.1141108423 0.0707351789 0.0652811825
0.1252696216 0.0733870342 0.0656984821
0.1367050558 0.0764340684 0.0660398528
0.1488628685 0.0803758055 0.0668015778
0.1623766273 0.0850498229 0.0684472471
0.1766732335 0.0899146348 0.0703798383
0.1912224591 0.0953613967 0.0730558932
0.2055970132 0.1006066054 0.0762334913
0.2198094130 0.1056432053 0.0796466693
0.2336361557 0.1108690575 0.0832896531
0.2467633486 0.1160049811 0.0874128640
0.2592403591 0.1204726771 0.0915883034
0.2714996934 0.1252536625 0.0962989032
0.2836876214 0.1303847283 0.1013749614
0.2962169051 0.1360940933 0.1072343960
0.3092680573 0.1426796168 0.1140034348
0.3226307631 0.1501177996 0.1216629520
0.3363236189 0.1583134979 0.1303565800
0.3505577147 0.1673667431 0.1403137296
0.3649990261 0.1770181209 0.1515025944
0.3793365657 0.1870494187 0.1632600427
0.3938181400 0.1976775080 0.1754216254
0.4085482657 0.2087447047 0.1876915246
0.4233608246 0.2202779800 0.1997135580
0.4386485815 0.2328036726 0.2120719254
0.4541376829 0.2458438724 0.2244407535
0.4703265429 0.2600773275 0.2368968576
0.4873335958 0.2754878700 0.2498016059
0.5045984983 0.2912200093 0.2626616061
0.5223022699 0.3077777624 0.2758215368
0.5400465131 0.3246151209 0.2890645862
0.5579308867 0.3418700695 0.3025512993
0.5745105743 0.3589086831 0.3162774742
0.5904325247 0.3759340048 0.3300419450
0.6049623489 0.3927643895 0.3438085914
0.6174661517 0.4088945389 0.3572815657
0.6292970777 0.4245129526 0.3704026341
0.6396495700 0.4391885400 0.3833072484
0.6495926380 0.4534843564 0.3961468339
0.6588175297 0.4671572149 0.4088680148
0.6679247022 0.4808695912 0.4218871891
0.6763824224 0.4944007695 0.4347338378
0.6853190660 0.5081427693 0.4478789568
0.6937699318 0.5219229460 0.4610382020
0.7015680075 0.5352689028 0.4737892747
0.7090614438 0.5485649109 0.4858981669
0.7160207629 0.5612468719 0.4969258308
0.7225281000 0.5724681616 0.5050728917
0.7276778817 0.5817759037 0.5098389983
0.7312325835 0.5885291696 0.5106711388
0.7313799858 0.5905273557 0.5034958124
0.7309430242 0.5922939181 0.4972112775
0.7321413159 0.5961297750 0.4953921139
0.7351709604 0.6026173830 0.4989293814
0.7402554154 0.6116152406 0.5075178146
0.7471516132 0.6228760481 0.5205219984
0.7549319267 0.6358968616 0.5363169909
0.7629762888 0.6497079730 0.5539917350
0.0421449319 0.0597862713 0.0594054312
0.0446829051 0.0602330267 0.0596969873
0.0491073020 0.0609270260 0.0601207130
0.0559866093 0.0620251521 0.0607227869
0.0663763359 0.0638723224 0.0618993230
0.0813379809 0.0663458034 0.0633252412
0.0966642052 0.0688798428 0.0643825307
0.1104149222 0.0713891387 0.0650246590
0.1222577617 0.0738909543 0.0655777082
0.1337388903 0.0765880197 0.0659340173
0.1463454366 0.0804340690 0.0666535199
0.1598670334 0.0848469734 0.0681200176
0.1744823754 0.0898415074 0.0701933056
0.1890797317 0.0952127427 0.0727139115
0.2036920339 0.1005851477 0.0759542957
0.2181532383 0.1056699082 0.0794173479
0.2320995778 0.1109116599 0.0830766857
0.2456784695 0.1162992865 0.0873200297
0.2582823634 0.1209021658 0.0915153399
0.2708438337 0.1258104146 0.0963213518
0.2832649350 0.1310699880 0.1014268175
0.2959384024 0.1368436366 0.1072879732
0.3091550767 0.1435097307 0.1142015606
0.3226158619 0.1509094983 0.1218233183
0.3364669979 0.1591790617 0.1305899769
0.3507927060 0.1682340503 0.1407433301
0.3652665317 0.1778282970 0.1519005746
0.3797487915 0.1880280226 0.1638476849
0.3942142427 0.1985382587 0.1759297252
0.4089285135 0.2095461041 0.1881704628
0.4238023162 0.2211029530 0.2002239674
0.4390840828 0.2335993797 0.2125668079
0.4546245039 0.2467091084 0.2249464542
0.4707549810 0.2608218193 0.2373221517
0.4877219796 0.2761306763 0.2501635849
0.5049794912 0.2918525934 0.2630008161
0.5226601958 0.3083486557 0.2761223316
0.5403695703 0.3251146376 0.2893277407
0.5582117438 0.3423397541 0.3027943671
0.5747441053 0.3593161106 0.3164876699
0.5906386971 0.3763012290 0.3302330375
0.6051089764 0.3930743337 0.3439629674
0.6175855398 0.4091600776 0.3574113846
0.6293964386 0.4247394204 0.3705091178
0.6397261620 0.4393754303 0.3833927512
0.6496533751 0.4536385238 0.3962159157
0.6588765979 0.4672902822 0.4089286029
0.6679769754 0.4809822440 0.4219338894
0.6764265895 0.4944958091 0.4347741604
0.6853659153 0.5082280040 0.4479130507
0.6938028336 0.5219920874 0.4610645175
0.7015933990 0.5353231430 0.4738060236
0.7090813518 0.5486080050 0.4859060943
0.7160373330 0.5612777472 0.4969238639
0.7225391865 0.5724899173 0.5050653219
0.7276854515 0.5817929506 0.5098292828
0.7312366366 0.5885390043 0.5106559396
0.7313825488 0.5905354619 0.5034852624
0.7309477925 0.5923056006 0.4972123504
0.7321448922 0.5961398482 0.4953929186
0.7351762056 0.6026290059 0.4989369214
0.7402631640 0.6116285920 0.5075298548
0.7471588850 0.6228896976 0.5205374956
0.7549403906 0.6359109282 0.5363339782
0.7629821301 0.6497207284 0.5540068746
0.0405707285 0.0616085306 0.0586067252
0.0429073013 0.0620472804 0.0591302142
0.0468044952 0.0627809241 0.0598410144
0.0527538396 0.0637756661 0.0605428144
0.0625873432 0.0654123574 0.0615762621
0.0762487054 0.0677943751 0.0628815889
0.0915164128 0.0702765584 0.0640021563
0.1055404171 0.0727799386 0.0649065673
0.1177772507 0.0750449076 0.0653300881
0.1291252822 0.0775476769 0.0658995882
0.1414143592 0.0809641257 0.0666748062
0.1549840271 0.0847240388 0.0677081794
0.1700422019 0.0895713270 0.0697074905
0.1857295334 0.0951017216 0.0723572299
0.2008047402 0.1005290747 0.0756082237
0.2157168239 0.1057325900 0.0791002065
0.2301946878 0.1112581864 0.0829887316
0.2440514416 0.1166725457 0.0872420222
0.2571507096 0.1215092763 0.0914936736
0.2700386345 0.1265834123 0.0963926241
0.2827606201 0.1319577992 0.1015708521
0.2956911027 0.1377534717 0.1074421778
0.3090641499 0.1444981992 0.1144016832
0.3226397336 0.1517855823 0.1220032126
0.3366466463 0.1601327062 0.1308569610
0.3510985970 0.1692566425 0.1412576437
0.3655646145 0.1787205189 0.1523378491
0.3801623881 0.1890347302 0.1644218564
0.3946252465 0.1994535625 0.1764399260
0.4093994498 0.2104950398 0.1887425333
0.4242889583 0.2220511138 0.2007926553
0.4395591021 0.2344671786 0.2131066173
0.4551548362 0.2476362884 0.2254962474
0.4712233543 0.2616457045 0.2377890795
0.4881494343 0.2768228948 0.2505618036
0.5053985715 0.2925499976 0.2633744478
0.5230543017 0.3089775741 0.2764536440
0.5407260656 0.3256657720 0.2896180749
0.5585223436 0.3428593576 0.3030638397
0.5750023723 0.3597666919 0.3167200983
0.5908668041 0.3767075539 0.3304444849
0.6052700877 0.3934169114 0.3441328704
0.6177274585 0.4094563425 0.3575552404
0.6295066476 0.4249903560 0.3706271648
0.6398110390 0.4395826161 0.3834875524
0.6497207880 0.4538095295 0.3962924778
0.6589422226 0.4674381018 0.4089958370
0.6680348516 0.4811076522 0.4219856262
0.6764755845 0.4946013093 0.4348189533
0.6854178309 0.5083226562 0.4479508996
0.6938393116 0.5220687985 0.4610936046
0.7016217113 0.5353834629 0.4738246202
0.7091034651 0.5486559868 0.4859149456
0.7160558105 0.5613120198 0.4969217479
0.7225515246 0.5725142360 0.5050568581
0.7276938558 0.5818119049 0.5098184943
0.7312410474 0.5885499120 0.5106388927
0.7313852310 0.5905447006 0.5034736395
0.7309527397 0.5923184752 0.4972135425
0.7321490645 0.5961510539 0.4953937531
0.7351821661 0.6026418805 0.4989452958
0.7402717471 0.6116436124 0.5075433254
0.7471669912 0.6229048967 0.5205547214
0.7549496889 0.6359261870 0.5363529325
0.7629886270 0.6497347355 0.5540234447
0.0385087542 0.0643821061 0.0573219880
0.0407451726 0.0648798272 0.0580246113
0.0442735925 0.0657197013 0.0590662099
0.0498589091 0.0669026598 0.0603217855
0.0589516424 0.0685348734 0.0615905635
0.0710595474 0.0705709830 0.0626949742
0.0864938051 0.0731985420 0.0638950840
0.1009177193 0.0757747144 0.0649062321
0.1135514453 0.0780687481 0.0656503811
0.1247385591 0.0802800059 0.0661071017
0.1362974346 0.0826165378 0.0666698292
0.1491106749 0.0858713090 0.0676952302
0.1634938270 0.0901005939 0.0694470331
0.1792486459 0.0954594165 0.0720239952
0.1957652867 0.1008402482 0.0750707984
0.2117006630 0.1060269400 0.0787387341
0.2273262441 0.1119123474 0.0829413980
0.2419417500 0.1173590720 0.0872479305
0.2557035685 0.1224800199 0.0916608572
0.2691152692 0.1276783794 0.0965977088
0.2822429240 0.1330512762 0.1018292159
0.2955002189 0.1389844418 0.1077817678
0.3089772165 0.1457058787 0.1147058383
0.3227604628 0.1530212015 0.1223339513
0.3369177282 0.1613540202 0.1314269304
0.3514387310 0.1703908145 0.1418319046
0.3660730422 0.1799665838 0.1530541927
0.3806176484 0.1901240796 0.1650353074
0.3951055110 0.2005375922 0.1770711094
0.4100216925 0.2116875350 0.1894832551
0.4248358309 0.2231486440 0.2014251053
0.4400560856 0.2354189456 0.2136654258
0.4557495713 0.2486860603 0.2261120081
0.4717661142 0.2625920177 0.2383268028
0.4886238575 0.2776376009 0.2510097921
0.5058788061 0.2933528125 0.2638040781
0.5235044956 0.3097035289 0.2768355608
0.5411364436 0.3263553083 0.2899801135
0.5588792562 0.3434531987 0.3033725321
0.5752996206 0.3602851629 0.3169875443
0.5911296010 0.3771757185 0.3306880891
0.6054562330 0.3938124478 0.3443290889
0.6179012656 0.4098005295 0.3577217758
0.6296157241 0.4252715707 0.3707575798
0.6399090886 0.4398219585 0.3835970759
0.6497986317 0.4540072381 0.3963810503
0.6590180993 0.4676090181 0.4090736210
0.6681025624 0.4812543094 0.4220454097
0.6765322685 0.4947232902 0.4348707795
0.6854780912 0.5084322691 0.4479947984
0.6938818097 0.5221577883 0.4611274898
0.7016543150 0.5354532003 0.4738461375
0.7091290951 0.5487114787 0.4859251380
0.7160771489 0.5613516569 0.4969192743
0.7225656509 0.5725422502 0.5050470233
0.7277033925 0.5818338394 0.5098060369
0.7312464118 0.5885626078 0.5106194019
0.7313885093 0.5905553699 0.5034601092
0.7309585810 0.5923334956 0.4972148538
0.7321538925 0.5961640477 0.4953947961
0.7351890802 0.6026569009 0.4989550114
0.7402818799 0.6116608977 0.5075589418
0.7471764684 0.6229225397 0.5205746293
0.7549604774 0.6359442472 0.5363749862
0.7629961967 0.6497510672 0.5540428758
0.0363129266 0.0681257322 0.0562507249
0.0381677225 0.0687054843 0.0568815209
0.0418100357 0.0697692484 0.0579579286
0.0467664227 0.0711237118 0.0593794174
0.0548182800 0.0728881136 0.0608396716
0.0672092885 0.0756250024 0.0627130345
0.0825399011 0.0783398002 0.0641263649
0.0973377898 0.0808166489 0.0652017593
0.1105239317 0.0831662267 0.0661937445
0.1223713532 0.0854008943 0.0669737682
0.1337937564 0.0874685794 0.0676285028
0.1458649188 0.0902090371 0.0686082616
0.1590535194 0.0938208997 0.0701798201
0.1735056192 0.0979226083 0.0722255409
0.1893725991 0.1024679989 0.0749025866
0.2058464140 0.1076415479 0.0786049739
0.2228034884 0.1132610217 0.0830763280
0.2389785200 0.1186133251 0.0874366909
0.2540066838 0.1239889190 0.0920855477
0.2681059837 0.1292405277 0.0969782025
0.2818688750 0.1347223818 0.1024459898
0.2955003679 0.1407737881 0.1085299179
0.3091503978 0.1473415643 0.1152231470
0.3228834569 0.1544418633 0.1227153465
0.3371833861 0.1627910584 0.1320486218
0.3517616689 0.1717503071 0.1423967034
0.3665634692 0.1813672334 0.1537584066
0.3811669648 0.1913878471 0.1657391638
0.3956443965 0.2017647624 0.1778001189
0.4107205570 0.2130309641 0.1903183162
0.4254801273 0.2244094610 0.2021789551
0.4406244755 0.2364754528 0.2142950892
0.4564163983 0.2498764396 0.2268023640
0.4723874927 0.2636854351 0.2389463335
0.4891594052 0.2785693705 0.2515201271
0.5064315796 0.2943165600 0.2643099427
0.5240070224 0.3105650544 0.2772852778
0.5416175723 0.3271696270 0.2904070914
0.5592892766 0.3441309333 0.3037258983
0.5756413341 0.3608813286 0.3172950745
0.5914320946 0.3777144849 0.3309684694
0.6056706309 0.3942680359 0.3445550501
0.6181017160 0.4101973772 0.3579139113
0.6297349334 0.4255928993 0.3709059656
0.6400223374 0.4400982261 0.3837234676
0.6498886347 0.4542355239 0.3964833021
0.6591007710 0.4677996039 0.4091563225
0.6681807637 0.4814238846 0.4221145809
0.6765976548 0.4948644340 0.4349306524
0.6855474114 0.5085591078 0.4480455220
0.6939308047 0.5222606063 0.4611665010
0.7016922832 0.5355340242 0.4738711119
0.7091585994 0.5487757921 0.4859370887
0.7161018848 0.5613976121 0.4969164133
0.7225820422 0.5725746751 0.5050357580
0.7277144790 0.5818592906 0.5097916126
0.7312524319 0.5885773301 0.5105966330
0.7313922644 0.5905676484 0.5034444928
0.7309653163 0.5923507810 0.4972164035
0.7321591973 0.5961791277 0.4953959286
0.7351970673 0.6026741266 0.4989662766
0.7402935624 0.6116809249 0.5075769424
0.7471874356 0.6229429841 0.5205979943
0.7549731731 0.6359649897 0.5364004970
0.7630047798 0.6497699618 0.5540652275
0.0322633572 0.0720694363 0.0547168255
0.0344749130 0.0728291050 0.0552521907
0.0378555506 0.0740838647 0.0562547222
0.0431145839 0.0759801716 0.0579501241
0.0510584861 0.0782327875 0.0599640720
0.0633344352 0.0808080658 0.0620667189
0.0784788132 0.0837562904 0.0640333816
0.0942371786 0.0866102204 0.0657330528
0.1082950085 0.0892121866 0.0670366362
0.1208352000 0.0915946662 0.0679584518
0.1328607649 0.0941830575 0.0688099042
0.1452001631 0.0970356464 0.0699500963
0.1578157544 0.0997660533 0.0713487938
0.1714272201 0.1029516906 0.0734864697
0.1862000525 0.1068621725 0.0761900917
0.2021355480 0.1116138548 0.0796394795
0.2184709162 0.1164390370 0.0837853402
0.2356358767 0.1215439215 0.0883435607
0.2521008849 0.1267177612 0.0931484327
0.2671961784 0.1317707598 0.0980223715
0.2816418707 0.1371829510 0.1034732237
0.2955818176 0.1431171894 0.1095414013
0.3095046282 0.1494054049 0.1161095574
0.3233557343 0.1565585136 0.1237673387
0.3375333250 0.1644706577 0.1327080727
0.3522199690 0.1734408438 0.1431183070
0.3671032190 0.1830555946 0.1545633227
0.3817681372 0.1929551810 0.1665187776
0.3964448273 0.2034169883 0.1787750572
0.4114676416 0.2144664228 0.1911833882
0.4262086451 0.2257861197 0.2030117959
0.4413678050 0.2378256321 0.2151167393
0.4571682513 0.2512192726 0.2275832593
0.4730773866 0.2648952901 0.2396302521
0.4898571372 0.2797855139 0.2521873116
0.5070714355 0.2954264581 0.2648922503
0.5245824456 0.3115390539 0.2777979672
0.5421658754 0.3280811012 0.2908851802
0.5597596169 0.3449082971 0.3041315675
0.5760337710 0.3615658879 0.3176481724
0.5917800665 0.3783341348 0.3312909603
0.6059183478 0.3947927058 0.3448153734
0.6183326840 0.4106547236 0.3581352532
0.6298725009 0.4259633720 0.3710769713
0.6401528716 0.4404171407 0.3838693798
0.6499925852 0.4544992447 0.3966014683
0.6591941118 0.4680167139 0.4092485309
0.6682712436 0.4816198945 0.4221945405
0.6766735315 0.4950277805 0.4350000322
0.6856279373 0.5087057352 0.4481041729
0.6939865947 0.5223777294 0.4612102807
0.7017360330 0.5356274843 0.4738998413
0.7091929317 0.5488502383 0.4859507382
0.7161304951 0.5614507794 0.4969130456
0.7226013541 0.5726124048 0.5050225854
0.7277274728 0.5818887353 0.5097748637
0.7312596440 0.5885943174 0.5105702877
0.7313964367 0.5905820131 0.5034263134
0.7309733033 0.5923708081 0.4972182214
0.7321655750 0.5961965919 0.4953972995
0.7352061868 0.6026942730 0.4989793599
0.7403070331 0.6117041111 0.5075978637
0.7471998930 0.6229665875 0.5206247568
0.7549875975 0.6359888911 0.5364298224
0.7630148530 0.6497920156 0.5540912151
0.0279201269 0.0762507841 0.0532998815
0.0299039390 0.0770284310 0.0537982881
0.0335865207 0.0783869252 0.0547286645
0.0386034697 0.0801853389 0.0560733452
0.0461810604 0.0827317610 0.0582926497
0.0588453896 0.0859263614 0.0609912947
0.0737640634 0.0894530937 0.0636782497
0.0905923173 0.0927999392 0.0660120621
0.1058710814 0.0957447290 0.0679136664
0.1194829121 0.0982690603 0.0693136230
0.1321730614 0.1007930413 0.0702448264
0.1448088139 0.1037034541 0.0712023154
0.1585623920 0.1074418500 0.0730413273
0.1723963916 0.1107872576 0.0754755735
0.1865866184 0.1138668209 0.0786071047
0.2014586180 0.1174937934 0.0819529220
0.2172089815 0.1216901094 0.0857226327
0.2334753871 0.1264642775 0.0904597118
0.2501330376 0.1312220842 0.0949919745
0.2661337554 0.1357804835 0.0996356234
0.2814298570 0.1407337189 0.1050334796
0.2957824171 0.1462903023 0.1109764054
0.3099768460 0.1523295045 0.1176114529
0.3240171969 0.1591875702 0.1251448989
0.3381914794 0.1667244881 0.1337422132
0.3529764414 0.1756778657 0.1443940401
0.3678358495 0.1851245165 0.1556687206
0.3825601935 0.1949572563 0.1676390916
0.3974096477 0.2055030465 0.1799394935
0.4123384356 0.2163198441 0.1922316998
0.4270211756 0.2272722572 0.2038982809
0.4423044622 0.2395507544 0.2161581367
0.4579947293 0.2526864707 0.2284503877
0.4738685489 0.2662552893 0.2404009849
0.4906930923 0.2812143862 0.2529650033
0.5078369975 0.2966836691 0.2655662894
0.5252475142 0.3126466870 0.2783802450
0.5427761674 0.3290928602 0.2914082408
0.5602990985 0.3457984924 0.3045959175
0.5764794350 0.3623506427 0.3180531859
0.5921794772 0.3790457249 0.3316612542
0.6062037349 0.3953957856 0.3451145291
0.6185986400 0.4111810923 0.3583900034
0.6300320029 0.4263909161 0.3712734878
0.6403044462 0.4407856762 0.3840373158
0.6501125097 0.4548035264 0.3967377543
0.6593018770 0.4682672322 0.4093549550
0.6683759689 0.4818464220 0.4222869277
0.6767590642 0.4952158928 0.4350784421
0.6857209802 0.5088753700 0.4481720328
0.6940467954 0.5225046873 0.4612542689
0.7017867565 0.5357356668 0.4739332795
0.7092325091 0.5489362478 0.4859665930
0.7161637545 0.5615124702 0.4969093204
0.7226232886 0.5726559162 0.5050073862
0.7277424335 0.5819228292 0.5097555518
0.7312677503 0.5886141062 0.5105398297
0.7314016223 0.5905985236 0.5034053326
0.7309822440 0.5923941731 0.4972203076
0.7321729660 0.5962167382 0.4953988492
0.7352168560 0.6027176976 0.4989944696
0.7403225303 0.6117312312 0.5076221824
0.7472147346 0.6229941249 0.5206559300
0.7550045252 0.6360169053 0.5364641547
0.7630264759 0.6498172283 0.5541211963
0.0241837483 0.0799073353 0.0523452573
0.0257761199 0.0807835385 0.0527418517
0.0288357120 0.0822784081 0.0535770878
0.0337643065 0.0843454748 0.0548358336
0.0412548669 0.0873792544 0.0568566099
0.0528783090 0.0910971314 0.0596550927
0.0684088245 0.0949286297 0.0626962557
0.0857367143 0.0983866155 0.0654455498
0.1024631038 0.1018922180 0.0682703033
0.1174941137 0.1050603315 0.0704762936
0.1312086582 0.1080419198 0.0719414055
0.1443839371 0.1110403240 0.0732875988
0.1580746621 0.1144927517 0.0749174058
0.1732246280 0.1185523421 0.0775530860
0.1888536066 0.1224155873 0.0814057514
0.2033256441 0.1255175769 0.0849844292
0.2180600315 0.1289565563 0.0886255205
0.2335331589 0.1330600828 0.0930671915
0.2493630201 0.1374077648 0.0975748971
0.2656068504 0.1420266926 0.1026099697
0.2813284993 0.1463190019 0.1076603010
0.2963641584 0.1507892907 0.1132214814
0.3106469214 0.1562311798 0.1195094883
0.3248427510 0.1624584198 0.1268042773
0.3392038047 0.1698637307 0.1355292946
0.3538756073 0.1782346517 0.1456717253
0.3687206507 0.1875314862 0.1569459736
0.3836855888 0.1975607425 0.1691688001
0.3984738886 0.2077961415 0.1812242270
0.4133413434 0.2185645550 0.1934517622
0.4280315936 0.2293144017 0.2050105035
0.4433758259 0.2415909767 0.2173493356
0.4589794874 0.2544122934 0.2294668257
0.4747770131 0.2677686214 0.2412732095
0.4916404486 0.2828327119 0.2538464069
0.5087138414 0.2981079519 0.2663367093
0.5260160565 0.3139082491 0.2790415287
0.5434721708 0.3302469254 0.2920049429
0.5609126091 0.3468137383 0.3051256239
0.5770014524 0.3632440865 0.3185131848
0.5926294327 0.3798491955 0.3320722580
0.6065316796 0.3960886300 0.3454582393
0.6188638210 0.4117729068 0.3586702347
0.6302166581 0.4268836677 0.3714993894
0.6404818892 0.4412126839 0.3842297792
0.6502505541 0.4551532865 0.3968938589
0.6594262719 0.4685568213 0.4094778895
0.6684966087 0.4821079373 0.4223935902
0.6768564582 0.4954330623 0.4351677597
0.6858279705 0.5090714097 0.4482503831
0.6941165924 0.5226516724 0.4613052309
0.7018454075 0.5358607769 0.4739719033
0.7092782855 0.5490357876 0.4859849215
0.7162020802 0.5615838170 0.4969048202
0.7226488590 0.5727063417 0.5049898028
0.7277596593 0.5819623470 0.5097330809
0.7312772274 0.5886369348 0.5105044246
0.7314072847 0.5906177759 0.5033810735
0.7309927940 0.5924209356 0.4972227216
0.7321816087 0.5962402225 0.4954006672
0.7352293730 0.6027447581 0.4990121126
0.7403405905 0.6117623448 0.5076502562
0.7472316027 0.6230259538 0.5206919909
0.7550231814 0.6360491514 0.5365037322
0.7630398273 0.6498467326 0.5541560650
0.0206801351 0.0843434855 0.0514645204
0.0222817343 0.0854117945 0.0519830808
0.0245282315 0.0868606791 0.0526031367
0.0283080637 0.0888679400 0.0535448827
0.0357894152 0.0921567902 0.0554386303
0.0464135855 0.0959423184 0.0580892041
0.0621696003 0.0999587774 0.0611527190
0.0797778368 0.1043266878 0.0647352561
0.0978778005 0.1083331108 0.0680872425
0.1143376455 0.1119528711 0.0713417977
0.1292441040 0.1151986346 0.0734090656
0.1436295509 0.1186514646 0.0753669664
0.1573759913 0.1222950965 0.0774032325
0.1723836809 0.1264412552 0.0803461000
0.1893131137 0.1309757084 0.0842575580
0.2060712725 0.1351221204 0.0884704888
0.2208254933 0.1380904913 0.0924138352
0.2356213033 0.1414755136 0.0966664553
0.2505726218 0.1452939063 0.1011008471
