skills/davinci/davinci-film-colorist/assets/HF-Astra-Looks/DCTL/ASTRA_LookMixer_Data/vision2.cube
# System: Cinema - Expired
# Mode: Full Emulation
# Source: DaVinci Wide Gamut Intermediate
# Camera | Exposure: 0.100, Temperature: -804, Tint: -0.442
# Negative | Color & Tone Stock: Vision2 HD Scan 500T - 5299, Gamut Compression | Amount: 1.000, Threshold: (0.250, 0.250, 0.074), Distance: (0.045, 0.045, 0.037)
# Lab | De-Fog: 1.000, Neutralize: 0.000, Richness: -0.023, Vibrance: 0.008, Density: 0.000, Contrast: 0.008, Push/Pull: 0.000, Split Tone: [Hue: 0.500, Intensity: 0.000, Pivot: 0.000, Dead Zone Width: 0.000, Shadows: 0.000, Highlights: 0.000], Printer Lights: [24.340, 27.820, 23.070, Invert: Enabled], Acutance: Disabled
# Print | System: Cinema, Style: Custom, Tone Curve: -0.101, Color: 0.000, Neutralize Balance: 1.000, Black Point: 0.496
# Display Colorspace: RCM SDR
LUT_3D_SIZE 5
0.0137159871 0.0206832998 0.0040761572
0.2550931871 0.0982145369 0.0657286420
0.4645423293 0.1911775619 0.1844594330
0.5024657249 0.2597365081 0.2220834792
0.5863142610 0.3828641176 0.2771682143
0.0697547346 0.2323336899 0.0991406441
0.2359686494 0.2519462407 0.1241912246
0.4834798276 0.2865370214 0.2258334309
0.5284035206 0.3062996268 0.2437222302
0.5921689272 0.3889559805 0.2793280482
0.3086818755 0.5355055928 0.2833151519
0.3547336161 0.5453573465 0.2894737124
0.5354747772 0.5156607628 0.2907627225
0.6647698283 0.4652924538 0.2934084833
0.6388540864 0.4374855757 0.2884344459
0.4958796203 0.6225212812 0.3301510513
0.5038281083 0.6237876415 0.3305541575
0.5600824356 0.6280063391 0.3330881000
0.7046868205 0.6006929278 0.3312246501
0.7046766877 0.5600328445 0.3224952519
0.6264578700 0.6381269097 0.3426247537
0.6270416379 0.6381397247 0.3426273465
0.6331045628 0.6382737160 0.3426779509
0.6805390716 0.6390934587 0.3427028358
0.7096201777 0.6392615438 0.3413378596
0.0457805283 0.0413941517 0.1271245927
0.2783418000 0.1304069608 0.1893956065
0.4691392183 0.1922446489 0.1873919815
0.4997356534 0.2544488311 0.2195775658
0.5857082009 0.3821817338 0.2769262493
0.0789907873 0.2464626878 0.2629723251
0.2436402142 0.2531606257 0.2588654160
0.4819266498 0.2737181783 0.2208218127
0.5255208015 0.3015890121 0.2415237129
0.5915573239 0.3882929981 0.2791004777
0.3291281462 0.5486507416 0.3277038634
0.3695474267 0.5499303937 0.3172516525
0.5352209210 0.5149446130 0.2904945016
0.6641066074 0.4646627605 0.2931553423
0.6385213137 0.4371160269 0.2884187996
0.4955699146 0.6224489808 0.3301316798
0.5035412908 0.6237313747 0.3305339217
0.5599481463 0.6280009151 0.3330813050
0.7046799660 0.6006588340 0.3312173486
0.7046737075 0.5599874854 0.3224846423
0.6264358759 0.6381263137 0.3426242173
0.6270197630 0.6381392479 0.3426268697
0.6330844164 0.6382731795 0.3426772356
0.6805278063 0.6390932798 0.3427022398
0.7096201181 0.6392613649 0.3413370550
0.1714742482 0.1366206855 0.2785429657
0.2754395604 0.1857709289 0.3425291479
0.4099234641 0.1820471436 0.3242475986
0.4679354429 0.1923857778 0.1997712553
0.5791481733 0.3747815490 0.2742064893
0.1793347001 0.2351698279 0.3751312792
0.2618859112 0.2391411066 0.3973388374
0.4050672352 0.1864093095 0.3315480947
0.4836590290 0.2205296606 0.2129208595
0.5847958326 0.3811486959 0.2765594125
0.2592430413 0.4883613586 0.4863107204
0.3344156146 0.5228013992 0.5210932493
0.5877813697 0.5781824589 0.5757544637
0.6525317430 0.4577589929 0.2973755598
0.6349845529 0.4331480563 0.2882708907
0.5028513074 0.6038725376 0.4565158188
0.5142781138 0.6045647264 0.4540818632
0.5876708627 0.6040990949 0.4052091241
0.7046073079 0.6002945304 0.3311397433
0.7046419382 0.5595039725 0.3223713040
0.6262029409 0.6381204128 0.3426185250
0.6267896891 0.6381332874 0.3426214159
0.6328698397 0.6382680535 0.3426700234
0.6804083586 0.6390913129 0.3426961303
0.7096189857 0.6392596960 0.3413285017
0.3517308235 0.2716800869 0.4676439464
0.3741835654 0.2791861296 0.4793722034
0.4191015065 0.2693841159 0.4590756893
0.4305981398 0.2282446772 0.3920190036
0.5001262426 0.2445524186 0.2900435627
0.3524546623 0.2719662488 0.4680905640
0.3745840788 0.2792853415 0.4795254171
0.4191373587 0.2693226635 0.4589694440
0.4305869341 0.2282184362 0.3919796944
0.5051749945 0.2523446381 0.2941552103
0.2888163626 0.4265414178 0.5171074867
0.3245849311 0.4396378398 0.5263437629
0.5125008225 0.4740271568 0.5649743080
0.4441266358 0.2386273444 0.4061331749
0.5569764972 0.3474055529 0.3443878889
0.3730888367 0.5650880933 0.5852398872
0.3969048858 0.5768854022 0.5962638855
0.5513845086 0.6495177746 0.6499336958
0.7447698116 0.7101841569 0.6968193650
0.7053021193 0.5602511764 0.3539497256
0.6936554313 0.6875339150 0.6329390407
0.6941743493 0.6876435280 0.6328919530
0.6998351812 0.6889390945 0.6322906613
0.7309878469 0.6820395589 0.5979540944
0.7096065283 0.6392417550 0.3412373662
0.4473174810 0.3078792989 0.5303621888
0.4479382038 0.3072978556 0.5290504098
0.4544954002 0.3019719124 0.5171269774
0.4643006623 0.2876425385 0.4879769683
0.4595851302 0.2805183530 0.4752369821
0.4473301470 0.3078634739 0.5303268433
0.4479539692 0.3072843552 0.5290197730
0.4545069635 0.3019594848 0.5170997977
0.4642992020 0.2876403630 0.4879730642
0.4595838189 0.2805162668 0.4752333760
0.4474635720 0.3076961637 0.5299537778
0.4481189847 0.3071424365 0.5286973715
0.4546290636 0.3018273413 0.5168108940
0.4642838836 0.2876180410 0.4879322350
0.4595698714 0.2804951072 0.4751964509
0.5444523692 0.6160465479 0.6533331871
0.5484915376 0.6173629165 0.6543637514
0.5841964483 0.6282407641 0.6637331247
0.6933103800 0.6466534138 0.6906084418
0.5164666176 0.3256432414 0.5290043950
0.6584408283 0.7160180211 0.7125046849
0.6598422527 0.7161542177 0.7125464082
0.6730532646 0.7181421518 0.7130744457
0.7294217348 0.7273730636 0.7168294787
0.7740575671 0.7401975989 0.7248324752
