skills/davinci/davinci-film-colorist/assets/tonality/FilmInspired_v1_soft_static.cube
# DWG/DaVinci Intermediate -> same. Independent channels. Input domain ONLY 0..1.
# Outside input domain requires DCTL; host may clamp/extrapolate. No display transform.
TITLE "FilmInspired_v1_soft_static"
LUT_1D_SIZE 65536
DOMAIN_MIN 0.0 0.0 0.0
DOMAIN_MAX 1.0 1.0 1.0
0.0000000000 0.0000000000 0.0000000000
0.0000180520 0.0000180520 0.0000180520
0.0000361041 0.0000361041 0.0000361041
0.0000541561 0.0000541561 0.0000541561
0.0000722081 0.0000722081 0.0000722081
0.0000902601 0.0000902601 0.0000902601
0.0001083122 0.0001083122 0.0001083122
0.0001263642 0.0001263642 0.0001263642
0.0001444162 0.0001444162 0.0001444162
0.0001624683 0.0001624683 0.0001624683
0.0001805203 0.0001805203 0.0001805203
0.0001985723 0.0001985723 0.0001985723
0.0002166243 0.0002166243 0.0002166243
0.0002346764 0.0002346764 0.0002346764
0.0002527284 0.0002527284 0.0002527284
0.0002707804 0.0002707804 0.0002707804
0.0002888325 0.0002888325 0.0002888325
0.0003068845 0.0003068845 0.0003068845
0.0003249365 0.0003249365 0.0003249365
0.0003429885 0.0003429885 0.0003429885
0.0003610406 0.0003610406 0.0003610406
0.0003790926 0.0003790926 0.0003790926
0.0003971446 0.0003971446 0.0003971446
0.0004151967 0.0004151967 0.0004151967
0.0004332487 0.0004332487 0.0004332487
0.0004513007 0.0004513007 0.0004513007
0.0004693527 0.0004693527 0.0004693527
0.0004874048 0.0004874048 0.0004874048
0.0005054568 0.0005054568 0.0005054568
0.0005235088 0.0005235088 0.0005235088
0.0005415609 0.0005415609 0.0005415609
0.0005596129 0.0005596129 0.0005596129
0.0005776649 0.0005776649 0.0005776649
0.0005957169 0.0005957169 0.0005957169
0.0006137690 0.0006137690 0.0006137690
0.0006318210 0.0006318210 0.0006318210
0.0006498730 0.0006498730 0.0006498730
0.0006679251 0.0006679251 0.0006679251
0.0006859771 0.0006859771 0.0006859771
0.0007040291 0.0007040291 0.0007040291
0.0007220811 0.0007220811 0.0007220811
0.0007401332 0.0007401332 0.0007401332
0.0007581852 0.0007581852 0.0007581852
0.0007762372 0.0007762372 0.0007762372
0.0007942893 0.0007942893 0.0007942893
0.0008123413 0.0008123413 0.0008123413
0.0008303933 0.0008303933 0.0008303933
0.0008484453 0.0008484453 0.0008484453
0.0008664974 0.0008664974 0.0008664974
0.0008845494 0.0008845494 0.0008845494
0.0009026014 0.0009026014 0.0009026014
0.0009206535 0.0009206535 0.0009206535
0.0009387055 0.0009387055 0.0009387055
0.0009567575 0.0009567575 0.0009567575
0.0009748095 0.0009748095 0.0009748095
0.0009928616 0.0009928616 0.0009928616
0.0010109136 0.0010109136 0.0010109136
0.0010289656 0.0010289656 0.0010289656
0.0010470176 0.0010470176 0.0010470176
0.0010650697 0.0010650697 0.0010650697
0.0010831217 0.0010831217 0.0010831217
0.0011011737 0.0011011737 0.0011011737
0.0011192258 0.0011192258 0.0011192258
0.0011372778 0.0011372778 0.0011372778
0.0011553298 0.0011553298 0.0011553298
0.0011733818 0.0011733818 0.0011733818
0.0011914339 0.0011914339 0.0011914339
0.0012094859 0.0012094859 0.0012094859
0.0012275379 0.0012275379 0.0012275379
0.0012455900 0.0012455900 0.0012455900
0.0012636420 0.0012636420 0.0012636420
0.0012816940 0.0012816940 0.0012816940
0.0012997460 0.0012997460 0.0012997460
0.0013177981 0.0013177981 0.0013177981
0.0013358501 0.0013358501 0.0013358501
0.0013539021 0.0013539021 0.0013539021
0.0013719542 0.0013719542 0.0013719542
0.0013900062 0.0013900062 0.0013900062
0.0014080582 0.0014080582 0.0014080582
0.0014261102 0.0014261102 0.0014261102
0.0014441623 0.0014441623 0.0014441623
0.0014622143 0.0014622143 0.0014622143
0.0014802663 0.0014802663 0.0014802663
0.0014983184 0.0014983184 0.0014983184
0.0015163704 0.0015163704 0.0015163704
0.0015344224 0.0015344224 0.0015344224
0.0015524744 0.0015524744 0.0015524744
0.0015705265 0.0015705265 0.0015705265
0.0015885785 0.0015885785 0.0015885785
0.0016066305 0.0016066305 0.0016066305
0.0016246826 0.0016246826 0.0016246826
0.0016427346 0.0016427346 0.0016427346
0.0016607866 0.0016607866 0.0016607866
0.0016788386 0.0016788386 0.0016788386
0.0016968907 0.0016968907 0.0016968907
0.0017149427 0.0017149427 0.0017149427
0.0017329947 0.0017329947 0.0017329947
0.0017510468 0.0017510468 0.0017510468
0.0017690988 0.0017690988 0.0017690988
0.0017871508 0.0017871508 0.0017871508
0.0018052028 0.0018052028 0.0018052028
0.0018232549 0.0018232549 0.0018232549
0.0018413069 0.0018413069 0.0018413069
0.0018593589 0.0018593589 0.0018593589
0.0018774110 0.0018774110 0.0018774110
0.0018954630 0.0018954630 0.0018954630
0.0019135150 0.0019135150 0.0019135150
0.0019315670 0.0019315670 0.0019315670
0.0019496191 0.0019496191 0.0019496191
0.0019676711 0.0019676711 0.0019676711
0.0019857231 0.0019857231 0.0019857231
0.0020037752 0.0020037752 0.0020037752
0.0020218272 0.0020218272 0.0020218272
0.0020398792 0.0020398792 0.0020398792
0.0020579312 0.0020579312 0.0020579312
0.0020759833 0.0020759833 0.0020759833
0.0020940353 0.0020940353 0.0020940353
0.0021120873 0.0021120873 0.0021120873
0.0021301394 0.0021301394 0.0021301394
0.0021481914 0.0021481914 0.0021481914
0.0021662434 0.0021662434 0.0021662434
0.0021842954 0.0021842954 0.0021842954
0.0022023475 0.0022023475 0.0022023475
0.0022203995 0.0022203995 0.0022203995
0.0022384515 0.0022384515 0.0022384515
0.0022565036 0.0022565036 0.0022565036
0.0022745556 0.0022745556 0.0022745556
0.0022926076 0.0022926076 0.0022926076
0.0023106596 0.0023106596 0.0023106596
0.0023287117 0.0023287117 0.0023287117
0.0023467637 0.0023467637 0.0023467637
0.0023648157 0.0023648157 0.0023648157
0.0023828678 0.0023828678 0.0023828678
0.0024009198 0.0024009198 0.0024009198
0.0024189718 0.0024189718 0.0024189718
0.0024370238 0.0024370238 0.0024370238
0.0024550759 0.0024550759 0.0024550759
0.0024731279 0.0024731279 0.0024731279
0.0024911799 0.0024911799 0.0024911799
0.0025092320 0.0025092320 0.0025092320
0.0025272840 0.0025272840 0.0025272840
0.0025453360 0.0025453360 0.0025453360
0.0025633880 0.0025633880 0.0025633880
0.0025814401 0.0025814401 0.0025814401
0.0025994921 0.0025994921 0.0025994921
0.0026175441 0.0026175441 0.0026175441
0.0026355962 0.0026355962 0.0026355962
0.0026536482 0.0026536482 0.0026536482
0.0026717002 0.0026717002 0.0026717002
0.0026897522 0.0026897522 0.0026897522
0.0027078043 0.0027078043 0.0027078043
0.0027258563 0.0027258563 0.0027258563
0.0027439083 0.0027439083 0.0027439083
0.0027619604 0.0027619604 0.0027619604
0.0027800124 0.0027800124 0.0027800124
0.0027980644 0.0027980644 0.0027980644
0.0028161164 0.0028161164 0.0028161164
0.0028341685 0.0028341685 0.0028341685
0.0028522205 0.0028522205 0.0028522205
0.0028702725 0.0028702725 0.0028702725
0.0028883245 0.0028883245 0.0028883245
0.0029063766 0.0029063766 0.0029063766
0.0029244286 0.0029244286 0.0029244286
0.0029424806 0.0029424806 0.0029424806
0.0029605327 0.0029605327 0.0029605327
0.0029785847 0.0029785847 0.0029785847
0.0029966367 0.0029966367 0.0029966367
0.0030146887 0.0030146887 0.0030146887
0.0030327408 0.0030327408 0.0030327408
0.0030507928 0.0030507928 0.0030507928
0.0030688448 0.0030688448 0.0030688448
0.0030868969 0.0030868969 0.0030868969
0.0031049489 0.0031049489 0.0031049489
0.0031230009 0.0031230009 0.0031230009
0.0031410529 0.0031410529 0.0031410529
0.0031591050 0.0031591050 0.0031591050
0.0031771570 0.0031771570 0.0031771570
0.0031952090 0.0031952090 0.0031952090
0.0032132611 0.0032132611 0.0032132611
0.0032313131 0.0032313131 0.0032313131
0.0032493651 0.0032493651 0.0032493651
0.0032674171 0.0032674171 0.0032674171
0.0032854692 0.0032854692 0.0032854692
0.0033035212 0.0033035212 0.0033035212
0.0033215732 0.0033215732 0.0033215732
0.0033396253 0.0033396253 0.0033396253
0.0033576773 0.0033576773 0.0033576773
0.0033757293 0.0033757293 0.0033757293
0.0033937813 0.0033937813 0.0033937813
0.0034118334 0.0034118334 0.0034118334
0.0034298854 0.0034298854 0.0034298854
0.0034479374 0.0034479374 0.0034479374
0.0034659895 0.0034659895 0.0034659895
0.0034840415 0.0034840415 0.0034840415
0.0035020935 0.0035020935 0.0035020935
0.0035201455 0.0035201455 0.0035201455
0.0035381976 0.0035381976 0.0035381976
0.0035562496 0.0035562496 0.0035562496
0.0035743016 0.0035743016 0.0035743016
0.0035923537 0.0035923537 0.0035923537
0.0036104057 0.0036104057 0.0036104057
0.0036284577 0.0036284577 0.0036284577
0.0036465097 0.0036465097 0.0036465097
0.0036645618 0.0036645618 0.0036645618
0.0036826138 0.0036826138 0.0036826138
0.0037006658 0.0037006658 0.0037006658
0.0037187179 0.0037187179 0.0037187179
0.0037367699 0.0037367699 0.0037367699
0.0037548219 0.0037548219 0.0037548219
0.0037728739 0.0037728739 0.0037728739
0.0037909260 0.0037909260 0.0037909260
0.0038089780 0.0038089780 0.0038089780
0.0038270300 0.0038270300 0.0038270300
0.0038450821 0.0038450821 0.0038450821
0.0038631341 0.0038631341 0.0038631341
0.0038811861 0.0038811861 0.0038811861
0.0038992381 0.0038992381 0.0038992381
0.0039172902 0.0039172902 0.0039172902
0.0039353422 0.0039353422 0.0039353422
0.0039533942 0.0039533942 0.0039533942
0.0039714463 0.0039714463 0.0039714463
0.0039894983 0.0039894983 0.0039894983
0.0040075503 0.0040075503 0.0040075503
0.0040256023 0.0040256023 0.0040256023
0.0040436544 0.0040436544 0.0040436544
0.0040617064 0.0040617064 0.0040617064
0.0040797584 0.0040797584 0.0040797584
0.0040978105 0.0040978105 0.0040978105
0.0041158625 0.0041158625 0.0041158625
0.0041339145 0.0041339145 0.0041339145
0.0041519665 0.0041519665 0.0041519665
0.0041700186 0.0041700186 0.0041700186
0.0041880706 0.0041880706 0.0041880706
0.0042061226 0.0042061226 0.0042061226
0.0042241747 0.0042241747 0.0042241747
0.0042422267 0.0042422267 0.0042422267
0.0042602787 0.0042602787 0.0042602787
0.0042783307 0.0042783307 0.0042783307
0.0042963828 0.0042963828 0.0042963828
0.0043144348 0.0043144348 0.0043144348
0.0043324868 0.0043324868 0.0043324868
0.0043505389 0.0043505389 0.0043505389
0.0043685909 0.0043685909 0.0043685909
0.0043866429 0.0043866429 0.0043866429
0.0044046949 0.0044046949 0.0044046949
0.0044227470 0.0044227470 0.0044227470
0.0044407990 0.0044407990 0.0044407990
0.0044588510 0.0044588510 0.0044588510
0.0044769031 0.0044769031 0.0044769031
0.0044949551 0.0044949551 0.0044949551
0.0045130071 0.0045130071 0.0045130071
0.0045310591 0.0045310591 0.0045310591
0.0045491112 0.0045491112 0.0045491112
0.0045671632 0.0045671632 0.0045671632
0.0045852152 0.0045852152 0.0045852152
0.0046032673 0.0046032673 0.0046032673
0.0046213193 0.0046213193 0.0046213193
0.0046393713 0.0046393713 0.0046393713
0.0046574233 0.0046574233 0.0046574233
0.0046754754 0.0046754754 0.0046754754
0.0046935274 0.0046935274 0.0046935274
0.0047115794 0.0047115794 0.0047115794
0.0047296314 0.0047296314 0.0047296314
0.0047476835 0.0047476835 0.0047476835
0.0047657355 0.0047657355 0.0047657355
0.0047837875 0.0047837875 0.0047837875
0.0048018396 0.0048018396 0.0048018396
0.0048198916 0.0048198916 0.0048198916
0.0048379436 0.0048379436 0.0048379436
0.0048559956 0.0048559956 0.0048559956
0.0048740477 0.0048740477 0.0048740477
0.0048920997 0.0048920997 0.0048920997
0.0049101517 0.0049101517 0.0049101517
0.0049282038 0.0049282038 0.0049282038
0.0049462558 0.0049462558 0.0049462558
0.0049643078 0.0049643078 0.0049643078
0.0049823598 0.0049823598 0.0049823598
0.0050004119 0.0050004119 0.0050004119
0.0050184639 0.0050184639 0.0050184639
0.0050365159 0.0050365159 0.0050365159
0.0050545680 0.0050545680 0.0050545680
0.0050726200 0.0050726200 0.0050726200
0.0050906720 0.0050906720 0.0050906720
0.0051087240 0.0051087240 0.0051087240
0.0051267761 0.0051267761 0.0051267761
0.0051448281 0.0051448281 0.0051448281
0.0051628801 0.0051628801 0.0051628801
0.0051809322 0.0051809322 0.0051809322
0.0051989842 0.0051989842 0.0051989842
0.0052170362 0.0052170362 0.0052170362
0.0052350882 0.0052350882 0.0052350882
0.0052531403 0.0052531403 0.0052531403
0.0052711923 0.0052711923 0.0052711923
0.0052892443 0.0052892443 0.0052892443
0.0053072964 0.0053072964 0.0053072964
0.0053253484 0.0053253484 0.0053253484
0.0053434004 0.0053434004 0.0053434004
0.0053614524 0.0053614524 0.0053614524
0.0053795045 0.0053795045 0.0053795045
0.0053975565 0.0053975565 0.0053975565
0.0054156085 0.0054156085 0.0054156085
0.0054336606 0.0054336606 0.0054336606
0.0054517126 0.0054517126 0.0054517126
0.0054697646 0.0054697646 0.0054697646
0.0054878166 0.0054878166 0.0054878166
0.0055058687 0.0055058687 0.0055058687
0.0055239207 0.0055239207 0.0055239207
0.0055419727 0.0055419727 0.0055419727
0.0055600248 0.0055600248 0.0055600248
0.0055780768 0.0055780768 0.0055780768
0.0055961288 0.0055961288 0.0055961288
0.0056141808 0.0056141808 0.0056141808
0.0056322329 0.0056322329 0.0056322329
0.0056502849 0.0056502849 0.0056502849
0.0056683369 0.0056683369 0.0056683369
0.0056863890 0.0056863890 0.0056863890
0.0057044410 0.0057044410 0.0057044410
0.0057224930 0.0057224930 0.0057224930
0.0057405450 0.0057405450 0.0057405450
0.0057585971 0.0057585971 0.0057585971
0.0057766491 0.0057766491 0.0057766491
0.0057947011 0.0057947011 0.0057947011
0.0058127532 0.0058127532 0.0058127532
0.0058308052 0.0058308052 0.0058308052
0.0058488572 0.0058488572 0.0058488572
0.0058669092 0.0058669092 0.0058669092
0.0058849613 0.0058849613 0.0058849613
0.0059030133 0.0059030133 0.0059030133
0.0059210653 0.0059210653 0.0059210653
0.0059391174 0.0059391174 0.0059391174
0.0059571694 0.0059571694 0.0059571694
0.0059752214 0.0059752214 0.0059752214
0.0059932734 0.0059932734 0.0059932734
0.0060113255 0.0060113255 0.0060113255
0.0060293775 0.0060293775 0.0060293775
0.0060474295 0.0060474295 0.0060474295
0.0060654816 0.0060654816 0.0060654816
0.0060835336 0.0060835336 0.0060835336
0.0061015856 0.0061015856 0.0061015856
0.0061196376 0.0061196376 0.0061196376
0.0061376897 0.0061376897 0.0061376897
0.0061557417 0.0061557417 0.0061557417
0.0061737937 0.0061737937 0.0061737937
0.0061918458 0.0061918458 0.0061918458
0.0062098978 0.0062098978 0.0062098978
0.0062279498 0.0062279498 0.0062279498
0.0062460018 0.0062460018 0.0062460018
0.0062640539 0.0062640539 0.0062640539
0.0062821059 0.0062821059 0.0062821059
0.0063001579 0.0063001579 0.0063001579
0.0063182100 0.0063182100 0.0063182100
0.0063362620 0.0063362620 0.0063362620
0.0063543140 0.0063543140 0.0063543140
0.0063723660 0.0063723660 0.0063723660
0.0063904181 0.0063904181 0.0063904181
0.0064084701 0.0064084701 0.0064084701
0.0064265221 0.0064265221 0.0064265221
0.0064445742 0.0064445742 0.0064445742
0.0064626262 0.0064626262 0.0064626262
0.0064806782 0.0064806782 0.0064806782
0.0064987302 0.0064987302 0.0064987302
0.0065167823 0.0065167823 0.0065167823
0.0065348343 0.0065348343 0.0065348343
0.0065528863 0.0065528863 0.0065528863
0.0065709383 0.0065709383 0.0065709383
0.0065889904 0.0065889904 0.0065889904
0.0066070424 0.0066070424 0.0066070424
0.0066250944 0.0066250944 0.0066250944
0.0066431465 0.0066431465 0.0066431465
0.0066611985 0.0066611985 0.0066611985
0.0066792505 0.0066792505 0.0066792505
0.0066973025 0.0066973025 0.0066973025
0.0067153546 0.0067153546 0.0067153546
0.0067334066 0.0067334066 0.0067334066
0.0067514586 0.0067514586 0.0067514586
0.0067695107 0.0067695107 0.0067695107
0.0067875627 0.0067875627 0.0067875627
0.0068056147 0.0068056147 0.0068056147
0.0068236667 0.0068236667 0.0068236667
0.0068417188 0.0068417188 0.0068417188
0.0068597708 0.0068597708 0.0068597708
0.0068778228 0.0068778228 0.0068778228
0.0068958749 0.0068958749 0.0068958749
0.0069139269 0.0069139269 0.0069139269
0.0069319789 0.0069319789 0.0069319789
0.0069500309 0.0069500309 0.0069500309
0.0069680830 0.0069680830 0.0069680830
0.0069861350 0.0069861350 0.0069861350
0.0070041870 0.0070041870 0.0070041870
0.0070222391 0.0070222391 0.0070222391
0.0070402911 0.0070402911 0.0070402911
0.0070583431 0.0070583431 0.0070583431
0.0070763951 0.0070763951 0.0070763951
0.0070944472 0.0070944472 0.0070944472
0.0071124992 0.0071124992 0.0071124992
0.0071305512 0.0071305512 0.0071305512
0.0071486033 0.0071486033 0.0071486033
0.0071666553 0.0071666553 0.0071666553
0.0071847073 0.0071847073 0.0071847073
0.0072027593 0.0072027593 0.0072027593
0.0072208114 0.0072208114 0.0072208114
0.0072388634 0.0072388634 0.0072388634
0.0072569154 0.0072569154 0.0072569154
0.0072749675 0.0072749675 0.0072749675
0.0072930195 0.0072930195 0.0072930195
0.0073110715 0.0073110715 0.0073110715
0.0073291235 0.0073291235 0.0073291235
0.0073471756 0.0073471756 0.0073471756
0.0073652276 0.0073652276 0.0073652276
0.0073832796 0.0073832796 0.0073832796
0.0074013317 0.0074013317 0.0074013317
0.0074193837 0.0074193837 0.0074193837
0.0074374357 0.0074374357 0.0074374357
0.0074554877 0.0074554877 0.0074554877
0.0074735398 0.0074735398 0.0074735398
0.0074915918 0.0074915918 0.0074915918
0.0075096438 0.0075096438 0.0075096438
0.0075276959 0.0075276959 0.0075276959
0.0075457479 0.0075457479 0.0075457479
0.0075637999 0.0075637999 0.0075637999
0.0075818519 0.0075818519 0.0075818519
0.0075999040 0.0075999040 0.0075999040
0.0076179560 0.0076179560 0.0076179560
0.0076360080 0.0076360080 0.0076360080
0.0076540601 0.0076540601 0.0076540601
0.0076721121 0.0076721121 0.0076721121
0.0076901641 0.0076901641 0.0076901641
0.0077082161 0.0077082161 0.0077082161
0.0077262682 0.0077262682 0.0077262682
0.0077443202 0.0077443202 0.0077443202
0.0077623722 0.0077623722 0.0077623722
0.0077804243 0.0077804243 0.0077804243
0.0077984763 0.0077984763 0.0077984763
0.0078165283 0.0078165283 0.0078165283
0.0078345803 0.0078345803 0.0078345803
0.0078526324 0.0078526324 0.0078526324
0.0078706844 0.0078706844 0.0078706844
0.0078887364 0.0078887364 0.0078887364
0.0079067885 0.0079067885 0.0079067885
0.0079248405 0.0079248405 0.0079248405
0.0079428925 0.0079428925 0.0079428925
0.0079609445 0.0079609445 0.0079609445
0.0079789966 0.0079789966 0.0079789966
0.0079970486 0.0079970486 0.0079970486
0.0080151006 0.0080151006 0.0080151006
0.0080331527 0.0080331527 0.0080331527
0.0080512047 0.0080512047 0.0080512047
0.0080692567 0.0080692567 0.0080692567
0.0080873087 0.0080873087 0.0080873087
0.0081053608 0.0081053608 0.0081053608
0.0081234128 0.0081234128 0.0081234128
0.0081414648 0.0081414648 0.0081414648
0.0081595169 0.0081595169 0.0081595169
0.0081775689 0.0081775689 0.0081775689
0.0081956209 0.0081956209 0.0081956209
0.0082136729 0.0082136729 0.0082136729
0.0082317250 0.0082317250 0.0082317250
0.0082497770 0.0082497770 0.0082497770
0.0082678290 0.0082678290 0.0082678290
0.0082858811 0.0082858811 0.0082858811
0.0083039331 0.0083039331 0.0083039331
0.0083219851 0.0083219851 0.0083219851
0.0083400371 0.0083400371 0.0083400371
0.0083580892 0.0083580892 0.0083580892
0.0083761412 0.0083761412 0.0083761412
0.0083941932 0.0083941932 0.0083941932
0.0084122452 0.0084122452 0.0084122452
0.0084302973 0.0084302973 0.0084302973
0.0084483493 0.0084483493 0.0084483493
0.0084664013 0.0084664013 0.0084664013
0.0084844534 0.0084844534 0.0084844534
0.0085025054 0.0085025054 0.0085025054
0.0085205574 0.0085205574 0.0085205574
0.0085386094 0.0085386094 0.0085386094
0.0085566615 0.0085566615 0.0085566615
0.0085747135 0.0085747135 0.0085747135
0.0085927655 0.0085927655 0.0085927655
0.0086108176 0.0086108176 0.0086108176
0.0086288696 0.0086288696 0.0086288696
0.0086469216 0.0086469216 0.0086469216
0.0086649736 0.0086649736 0.0086649736
0.0086830257 0.0086830257 0.0086830257
0.0087010777 0.0087010777 0.0087010777
0.0087191297 0.0087191297 0.0087191297
0.0087371818 0.0087371818 0.0087371818
0.0087552338 0.0087552338 0.0087552338
0.0087732858 0.0087732858 0.0087732858
0.0087913378 0.0087913378 0.0087913378
0.0088093899 0.0088093899 0.0088093899
0.0088274419 0.0088274419 0.0088274419
0.0088454939 0.0088454939 0.0088454939
0.0088635460 0.0088635460 0.0088635460
0.0088815980 0.0088815980 0.0088815980
0.0088996500 0.0088996500 0.0088996500
0.0089177020 0.0089177020 0.0089177020
0.0089357541 0.0089357541 0.0089357541
0.0089538061 0.0089538061 0.0089538061
0.0089718581 0.0089718581 0.0089718581
0.0089899102 0.0089899102 0.0089899102
0.0090079622 0.0090079622 0.0090079622
0.0090260142 0.0090260142 0.0090260142
0.0090440662 0.0090440662 0.0090440662
0.0090621183 0.0090621183 0.0090621183
0.0090801703 0.0090801703 0.0090801703
0.0090982223 0.0090982223 0.0090982223
0.0091162744 0.0091162744 0.0091162744
0.0091343264 0.0091343264 0.0091343264
0.0091523784 0.0091523784 0.0091523784
0.0091704304 0.0091704304 0.0091704304
0.0091884825 0.0091884825 0.0091884825
0.0092065345 0.0092065345 0.0092065345
0.0092245865 0.0092245865 0.0092245865
0.0092426386 0.0092426386 0.0092426386
0.0092606906 0.0092606906 0.0092606906
0.0092787426 0.0092787426 0.0092787426
0.0092967946 0.0092967946 0.0092967946
0.0093148467 0.0093148467 0.0093148467
0.0093328987 0.0093328987 0.0093328987
0.0093509507 0.0093509507 0.0093509507
0.0093690028 0.0093690028 0.0093690028
0.0093870548 0.0093870548 0.0093870548
0.0094051068 0.0094051068 0.0094051068
0.0094231588 0.0094231588 0.0094231588
0.0094412109 0.0094412109 0.0094412109
0.0094592629 0.0094592629 0.0094592629
0.0094773149 0.0094773149 0.0094773149
0.0094953670 0.0094953670 0.0094953670
0.0095134190 0.0095134190 0.0095134190
0.0095314710 0.0095314710 0.0095314710
0.0095495230 0.0095495230 0.0095495230
0.0095675751 0.0095675751 0.0095675751
0.0095856271 0.0095856271 0.0095856271
0.0096036791 0.0096036791 0.0096036791
0.0096217312 0.0096217312 0.0096217312
0.0096397832 0.0096397832 0.0096397832
0.0096578352 0.0096578352 0.0096578352
0.0096758872 0.0096758872 0.0096758872
0.0096939393 0.0096939393 0.0096939393
0.0097119913 0.0097119913 0.0097119913
0.0097300433 0.0097300433 0.0097300433
0.0097480954 0.0097480954 0.0097480954
0.0097661474 0.0097661474 0.0097661474
0.0097841994 0.0097841994 0.0097841994
0.0098022514 0.0098022514 0.0098022514
0.0098203035 0.0098203035 0.0098203035
0.0098383555 0.0098383555 0.0098383555
0.0098564075 0.0098564075 0.0098564075
0.0098744596 0.0098744596 0.0098744596
0.0098925116 0.0098925116 0.0098925116
0.0099105636 0.0099105636 0.0099105636
0.0099286156 0.0099286156 0.0099286156
0.0099466677 0.0099466677 0.0099466677
0.0099647197 0.0099647197 0.0099647197
0.0099827717 0.0099827717 0.0099827717
0.0100008238 0.0100008238 0.0100008238
0.0100188758 0.0100188758 0.0100188758
0.0100369278 0.0100369278 0.0100369278
0.0100549798 0.0100549798 0.0100549798
0.0100730319 0.0100730319 0.0100730319
0.0100910839 0.0100910839 0.0100910839
0.0101091359 0.0101091359 0.0101091359
0.0101271880 0.0101271880 0.0101271880
0.0101452400 0.0101452400 0.0101452400
0.0101632920 0.0101632920 0.0101632920
0.0101813440 0.0101813440 0.0101813440
0.0101993961 0.0101993961 0.0101993961
0.0102174481 0.0102174481 0.0102174481
0.0102355001 0.0102355001 0.0102355001
0.0102535521 0.0102535521 0.0102535521
0.0102716042 0.0102716042 0.0102716042
0.0102896562 0.0102896562 0.0102896562
0.0103077082 0.0103077082 0.0103077082
0.0103257603 0.0103257603 0.0103257603
0.0103438123 0.0103438123 0.0103438123
0.0103618643 0.0103618643 0.0103618643
0.0103799163 0.0103799163 0.0103799163
0.0103979684 0.0103979684 0.0103979684
0.0104160204 0.0104160204 0.0104160204
0.0104340724 0.0104340724 0.0104340724
0.0104521245 0.0104521245 0.0104521245
0.0104701765 0.0104701765 0.0104701765
0.0104882285 0.0104882285 0.0104882285
0.0105062805 0.0105062805 0.0105062805
0.0105243326 0.0105243326 0.0105243326
0.0105423846 0.0105423846 0.0105423846
0.0105604366 0.0105604366 0.0105604366
0.0105784887 0.0105784887 0.0105784887
0.0105965407 0.0105965407 0.0105965407
0.0106145927 0.0106145927 0.0106145927
0.0106326447 0.0106326447 0.0106326447
0.0106506968 0.0106506968 0.0106506968
0.0106687488 0.0106687488 0.0106687488
0.0106868008 0.0106868008 0.0106868008
0.0107048529 0.0107048529 0.0107048529
0.0107229049 0.0107229049 0.0107229049
0.0107409569 0.0107409569 0.0107409569
0.0107590089 0.0107590089 0.0107590089
0.0107770610 0.0107770610 0.0107770610
0.0107951130 0.0107951130 0.0107951130
0.0108131650 0.0108131650 0.0108131650
0.0108312171 0.0108312171 0.0108312171
0.0108492691 0.0108492691 0.0108492691
0.0108673211 0.0108673211 0.0108673211
0.0108853731 0.0108853731 0.0108853731
0.0109034252 0.0109034252 0.0109034252
0.0109214772 0.0109214772 0.0109214772
0.0109395292 0.0109395292 0.0109395292
0.0109575813 0.0109575813 0.0109575813
