skills/davinci/davinci-film-colorist/assets/tonality/FilmInspired_v1_dense_static.cube
# DWG/DaVinci Intermediate -> same. Independent channels. Input domain ONLY 0..1.
# Outside input domain requires DCTL; host may clamp/extrapolate. No display transform.
TITLE "FilmInspired_v1_dense_static"
LUT_1D_SIZE 65536
DOMAIN_MIN 0.0 0.0 0.0
DOMAIN_MAX 1.0 1.0 1.0
0.0000000000 0.0000000000 0.0000000000
0.0000108793 0.0000108793 0.0000108793
0.0000217585 0.0000217585 0.0000217585
0.0000326378 0.0000326378 0.0000326378
0.0000435171 0.0000435171 0.0000435171
0.0000543963 0.0000543963 0.0000543963
0.0000652756 0.0000652756 0.0000652756
0.0000761549 0.0000761549 0.0000761549
0.0000870341 0.0000870341 0.0000870341
0.0000979134 0.0000979134 0.0000979134
0.0001087927 0.0001087927 0.0001087927
0.0001196720 0.0001196720 0.0001196720
0.0001305512 0.0001305512 0.0001305512
0.0001414305 0.0001414305 0.0001414305
0.0001523098 0.0001523098 0.0001523098
0.0001631890 0.0001631890 0.0001631890
0.0001740683 0.0001740683 0.0001740683
0.0001849476 0.0001849476 0.0001849476
0.0001958268 0.0001958268 0.0001958268
0.0002067061 0.0002067061 0.0002067061
0.0002175854 0.0002175854 0.0002175854
0.0002284646 0.0002284646 0.0002284646
0.0002393439 0.0002393439 0.0002393439
0.0002502232 0.0002502232 0.0002502232
0.0002611024 0.0002611024 0.0002611024
0.0002719817 0.0002719817 0.0002719817
0.0002828610 0.0002828610 0.0002828610
0.0002937403 0.0002937403 0.0002937403
0.0003046195 0.0003046195 0.0003046195
0.0003154988 0.0003154988 0.0003154988
0.0003263781 0.0003263781 0.0003263781
0.0003372573 0.0003372573 0.0003372573
0.0003481366 0.0003481366 0.0003481366
0.0003590159 0.0003590159 0.0003590159
0.0003698951 0.0003698951 0.0003698951
0.0003807744 0.0003807744 0.0003807744
0.0003916537 0.0003916537 0.0003916537
0.0004025329 0.0004025329 0.0004025329
0.0004134122 0.0004134122 0.0004134122
0.0004242915 0.0004242915 0.0004242915
0.0004351707 0.0004351707 0.0004351707
0.0004460500 0.0004460500 0.0004460500
0.0004569293 0.0004569293 0.0004569293
0.0004678086 0.0004678086 0.0004678086
0.0004786878 0.0004786878 0.0004786878
0.0004895671 0.0004895671 0.0004895671
0.0005004464 0.0005004464 0.0005004464
0.0005113256 0.0005113256 0.0005113256
0.0005222049 0.0005222049 0.0005222049
0.0005330842 0.0005330842 0.0005330842
0.0005439634 0.0005439634 0.0005439634
0.0005548427 0.0005548427 0.0005548427
0.0005657220 0.0005657220 0.0005657220
0.0005766012 0.0005766012 0.0005766012
0.0005874805 0.0005874805 0.0005874805
0.0005983598 0.0005983598 0.0005983598
0.0006092390 0.0006092390 0.0006092390
0.0006201183 0.0006201183 0.0006201183
0.0006309976 0.0006309976 0.0006309976
0.0006418769 0.0006418769 0.0006418769
0.0006527561 0.0006527561 0.0006527561
0.0006636354 0.0006636354 0.0006636354
0.0006745147 0.0006745147 0.0006745147
0.0006853939 0.0006853939 0.0006853939
0.0006962732 0.0006962732 0.0006962732
0.0007071525 0.0007071525 0.0007071525
0.0007180317 0.0007180317 0.0007180317
0.0007289110 0.0007289110 0.0007289110
0.0007397903 0.0007397903 0.0007397903
0.0007506695 0.0007506695 0.0007506695
0.0007615488 0.0007615488 0.0007615488
0.0007724281 0.0007724281 0.0007724281
0.0007833073 0.0007833073 0.0007833073
0.0007941866 0.0007941866 0.0007941866
0.0008050659 0.0008050659 0.0008050659
0.0008159452 0.0008159452 0.0008159452
0.0008268244 0.0008268244 0.0008268244
0.0008377037 0.0008377037 0.0008377037
0.0008485830 0.0008485830 0.0008485830
0.0008594622 0.0008594622 0.0008594622
0.0008703415 0.0008703415 0.0008703415
0.0008812208 0.0008812208 0.0008812208
0.0008921000 0.0008921000 0.0008921000
0.0009029793 0.0009029793 0.0009029793
0.0009138586 0.0009138586 0.0009138586
0.0009247378 0.0009247378 0.0009247378
0.0009356171 0.0009356171 0.0009356171
0.0009464964 0.0009464964 0.0009464964
0.0009573756 0.0009573756 0.0009573756
0.0009682549 0.0009682549 0.0009682549
0.0009791342 0.0009791342 0.0009791342
0.0009900135 0.0009900135 0.0009900135
0.0010008927 0.0010008927 0.0010008927
0.0010117720 0.0010117720 0.0010117720
0.0010226513 0.0010226513 0.0010226513
0.0010335305 0.0010335305 0.0010335305
0.0010444098 0.0010444098 0.0010444098
0.0010552891 0.0010552891 0.0010552891
0.0010661683 0.0010661683 0.0010661683
0.0010770476 0.0010770476 0.0010770476
0.0010879269 0.0010879269 0.0010879269
0.0010988061 0.0010988061 0.0010988061
0.0011096854 0.0011096854 0.0011096854
0.0011205647 0.0011205647 0.0011205647
0.0011314439 0.0011314439 0.0011314439
0.0011423232 0.0011423232 0.0011423232
0.0011532025 0.0011532025 0.0011532025
0.0011640817 0.0011640817 0.0011640817
0.0011749610 0.0011749610 0.0011749610
0.0011858403 0.0011858403 0.0011858403
0.0011967196 0.0011967196 0.0011967196
0.0012075988 0.0012075988 0.0012075988
0.0012184781 0.0012184781 0.0012184781
0.0012293574 0.0012293574 0.0012293574
0.0012402366 0.0012402366 0.0012402366
0.0012511159 0.0012511159 0.0012511159
0.0012619952 0.0012619952 0.0012619952
0.0012728744 0.0012728744 0.0012728744
0.0012837537 0.0012837537 0.0012837537
0.0012946330 0.0012946330 0.0012946330
0.0013055122 0.0013055122 0.0013055122
0.0013163915 0.0013163915 0.0013163915
0.0013272708 0.0013272708 0.0013272708
0.0013381500 0.0013381500 0.0013381500
0.0013490293 0.0013490293 0.0013490293
0.0013599086 0.0013599086 0.0013599086
0.0013707879 0.0013707879 0.0013707879
0.0013816671 0.0013816671 0.0013816671
0.0013925464 0.0013925464 0.0013925464
0.0014034257 0.0014034257 0.0014034257
0.0014143049 0.0014143049 0.0014143049
0.0014251842 0.0014251842 0.0014251842
0.0014360635 0.0014360635 0.0014360635
0.0014469427 0.0014469427 0.0014469427
0.0014578220 0.0014578220 0.0014578220
0.0014687013 0.0014687013 0.0014687013
0.0014795805 0.0014795805 0.0014795805
0.0014904598 0.0014904598 0.0014904598
0.0015013391 0.0015013391 0.0015013391
0.0015122183 0.0015122183 0.0015122183
0.0015230976 0.0015230976 0.0015230976
0.0015339769 0.0015339769 0.0015339769
0.0015448562 0.0015448562 0.0015448562
0.0015557354 0.0015557354 0.0015557354
0.0015666147 0.0015666147 0.0015666147
0.0015774940 0.0015774940 0.0015774940
0.0015883732 0.0015883732 0.0015883732
0.0015992525 0.0015992525 0.0015992525
0.0016101318 0.0016101318 0.0016101318
0.0016210110 0.0016210110 0.0016210110
0.0016318903 0.0016318903 0.0016318903
0.0016427696 0.0016427696 0.0016427696
0.0016536488 0.0016536488 0.0016536488
0.0016645281 0.0016645281 0.0016645281
0.0016754074 0.0016754074 0.0016754074
0.0016862866 0.0016862866 0.0016862866
0.0016971659 0.0016971659 0.0016971659
0.0017080452 0.0017080452 0.0017080452
0.0017189245 0.0017189245 0.0017189245
0.0017298037 0.0017298037 0.0017298037
0.0017406830 0.0017406830 0.0017406830
0.0017515623 0.0017515623 0.0017515623
0.0017624415 0.0017624415 0.0017624415
0.0017733208 0.0017733208 0.0017733208
0.0017842001 0.0017842001 0.0017842001
0.0017950793 0.0017950793 0.0017950793
0.0018059586 0.0018059586 0.0018059586
0.0018168379 0.0018168379 0.0018168379
0.0018277171 0.0018277171 0.0018277171
0.0018385964 0.0018385964 0.0018385964
0.0018494757 0.0018494757 0.0018494757
0.0018603549 0.0018603549 0.0018603549
0.0018712342 0.0018712342 0.0018712342
0.0018821135 0.0018821135 0.0018821135
0.0018929928 0.0018929928 0.0018929928
0.0019038720 0.0019038720 0.0019038720
0.0019147513 0.0019147513 0.0019147513
0.0019256306 0.0019256306 0.0019256306
0.0019365098 0.0019365098 0.0019365098
0.0019473891 0.0019473891 0.0019473891
0.0019582684 0.0019582684 0.0019582684
0.0019691476 0.0019691476 0.0019691476
0.0019800269 0.0019800269 0.0019800269
0.0019909062 0.0019909062 0.0019909062
0.0020017854 0.0020017854 0.0020017854
0.0020126647 0.0020126647 0.0020126647
0.0020235440 0.0020235440 0.0020235440
0.0020344232 0.0020344232 0.0020344232
0.0020453025 0.0020453025 0.0020453025
0.0020561818 0.0020561818 0.0020561818
0.0020670611 0.0020670611 0.0020670611
0.0020779403 0.0020779403 0.0020779403
0.0020888196 0.0020888196 0.0020888196
0.0020996989 0.0020996989 0.0020996989
0.0021105781 0.0021105781 0.0021105781
0.0021214574 0.0021214574 0.0021214574
0.0021323367 0.0021323367 0.0021323367
0.0021432159 0.0021432159 0.0021432159
0.0021540952 0.0021540952 0.0021540952
0.0021649745 0.0021649745 0.0021649745
0.0021758537 0.0021758537 0.0021758537
0.0021867330 0.0021867330 0.0021867330
0.0021976123 0.0021976123 0.0021976123
0.0022084915 0.0022084915 0.0022084915
0.0022193708 0.0022193708 0.0022193708
0.0022302501 0.0022302501 0.0022302501
0.0022411294 0.0022411294 0.0022411294
0.0022520086 0.0022520086 0.0022520086
0.0022628879 0.0022628879 0.0022628879
0.0022737672 0.0022737672 0.0022737672
0.0022846464 0.0022846464 0.0022846464
0.0022955257 0.0022955257 0.0022955257
0.0023064050 0.0023064050 0.0023064050
0.0023172842 0.0023172842 0.0023172842
0.0023281635 0.0023281635 0.0023281635
0.0023390428 0.0023390428 0.0023390428
0.0023499220 0.0023499220 0.0023499220
0.0023608013 0.0023608013 0.0023608013
0.0023716806 0.0023716806 0.0023716806
0.0023825598 0.0023825598 0.0023825598
0.0023934391 0.0023934391 0.0023934391
0.0024043184 0.0024043184 0.0024043184
0.0024151976 0.0024151976 0.0024151976
0.0024260769 0.0024260769 0.0024260769
0.0024369562 0.0024369562 0.0024369562
0.0024478355 0.0024478355 0.0024478355
0.0024587147 0.0024587147 0.0024587147
0.0024695940 0.0024695940 0.0024695940
0.0024804733 0.0024804733 0.0024804733
0.0024913525 0.0024913525 0.0024913525
0.0025022318 0.0025022318 0.0025022318
0.0025131111 0.0025131111 0.0025131111
0.0025239903 0.0025239903 0.0025239903
0.0025348696 0.0025348696 0.0025348696
0.0025457489 0.0025457489 0.0025457489
0.0025566281 0.0025566281 0.0025566281
0.0025675074 0.0025675074 0.0025675074
0.0025783867 0.0025783867 0.0025783867
0.0025892659 0.0025892659 0.0025892659
0.0026001452 0.0026001452 0.0026001452
0.0026110245 0.0026110245 0.0026110245
0.0026219038 0.0026219038 0.0026219038
0.0026327830 0.0026327830 0.0026327830
0.0026436623 0.0026436623 0.0026436623
0.0026545416 0.0026545416 0.0026545416
0.0026654208 0.0026654208 0.0026654208
0.0026763001 0.0026763001 0.0026763001
0.0026871794 0.0026871794 0.0026871794
0.0026980586 0.0026980586 0.0026980586
0.0027089379 0.0027089379 0.0027089379
0.0027198172 0.0027198172 0.0027198172
0.0027306964 0.0027306964 0.0027306964
0.0027415757 0.0027415757 0.0027415757
0.0027524550 0.0027524550 0.0027524550
0.0027633342 0.0027633342 0.0027633342
0.0027742135 0.0027742135 0.0027742135
0.0027850928 0.0027850928 0.0027850928
0.0027959721 0.0027959721 0.0027959721
0.0028068513 0.0028068513 0.0028068513
0.0028177306 0.0028177306 0.0028177306
0.0028286099 0.0028286099 0.0028286099
0.0028394891 0.0028394891 0.0028394891
0.0028503684 0.0028503684 0.0028503684
0.0028612477 0.0028612477 0.0028612477
0.0028721269 0.0028721269 0.0028721269
0.0028830062 0.0028830062 0.0028830062
0.0028938855 0.0028938855 0.0028938855
0.0029047647 0.0029047647 0.0029047647
0.0029156440 0.0029156440 0.0029156440
0.0029265233 0.0029265233 0.0029265233
0.0029374025 0.0029374025 0.0029374025
0.0029482818 0.0029482818 0.0029482818
0.0029591611 0.0029591611 0.0029591611
0.0029700404 0.0029700404 0.0029700404
0.0029809196 0.0029809196 0.0029809196
0.0029917989 0.0029917989 0.0029917989
0.0030026782 0.0030026782 0.0030026782
0.0030135574 0.0030135574 0.0030135574
0.0030244367 0.0030244367 0.0030244367
0.0030353160 0.0030353160 0.0030353160
0.0030461952 0.0030461952 0.0030461952
0.0030570745 0.0030570745 0.0030570745
0.0030679538 0.0030679538 0.0030679538
0.0030788330 0.0030788330 0.0030788330
0.0030897123 0.0030897123 0.0030897123
0.0031005916 0.0031005916 0.0031005916
0.0031114708 0.0031114708 0.0031114708
0.0031223501 0.0031223501 0.0031223501
0.0031332294 0.0031332294 0.0031332294
0.0031441087 0.0031441087 0.0031441087
0.0031549879 0.0031549879 0.0031549879
0.0031658672 0.0031658672 0.0031658672
0.0031767465 0.0031767465 0.0031767465
0.0031876257 0.0031876257 0.0031876257
0.0031985050 0.0031985050 0.0031985050
0.0032093843 0.0032093843 0.0032093843
0.0032202635 0.0032202635 0.0032202635
0.0032311428 0.0032311428 0.0032311428
0.0032420221 0.0032420221 0.0032420221
0.0032529013 0.0032529013 0.0032529013
0.0032637806 0.0032637806 0.0032637806
0.0032746599 0.0032746599 0.0032746599
0.0032855391 0.0032855391 0.0032855391
0.0032964184 0.0032964184 0.0032964184
0.0033072977 0.0033072977 0.0033072977
0.0033181770 0.0033181770 0.0033181770
0.0033290562 0.0033290562 0.0033290562
0.0033399355 0.0033399355 0.0033399355
0.0033508148 0.0033508148 0.0033508148
0.0033616940 0.0033616940 0.0033616940
0.0033725733 0.0033725733 0.0033725733
0.0033834526 0.0033834526 0.0033834526
0.0033943318 0.0033943318 0.0033943318
0.0034052111 0.0034052111 0.0034052111
0.0034160904 0.0034160904 0.0034160904
0.0034269696 0.0034269696 0.0034269696
0.0034378489 0.0034378489 0.0034378489
0.0034487282 0.0034487282 0.0034487282
0.0034596074 0.0034596074 0.0034596074
0.0034704867 0.0034704867 0.0034704867
0.0034813660 0.0034813660 0.0034813660
0.0034922452 0.0034922452 0.0034922452
0.0035031245 0.0035031245 0.0035031245
0.0035140038 0.0035140038 0.0035140038
0.0035248831 0.0035248831 0.0035248831
0.0035357623 0.0035357623 0.0035357623
0.0035466416 0.0035466416 0.0035466416
0.0035575209 0.0035575209 0.0035575209
0.0035684001 0.0035684001 0.0035684001
0.0035792794 0.0035792794 0.0035792794
0.0035901587 0.0035901587 0.0035901587
0.0036010379 0.0036010379 0.0036010379
0.0036119172 0.0036119172 0.0036119172
0.0036227965 0.0036227965 0.0036227965
0.0036336757 0.0036336757 0.0036336757
0.0036445550 0.0036445550 0.0036445550
0.0036554343 0.0036554343 0.0036554343
0.0036663135 0.0036663135 0.0036663135
0.0036771928 0.0036771928 0.0036771928
0.0036880721 0.0036880721 0.0036880721
0.0036989514 0.0036989514 0.0036989514
0.0037098306 0.0037098306 0.0037098306
0.0037207099 0.0037207099 0.0037207099
0.0037315892 0.0037315892 0.0037315892
0.0037424684 0.0037424684 0.0037424684
0.0037533477 0.0037533477 0.0037533477
0.0037642270 0.0037642270 0.0037642270
0.0037751062 0.0037751062 0.0037751062
0.0037859855 0.0037859855 0.0037859855
0.0037968648 0.0037968648 0.0037968648
0.0038077440 0.0038077440 0.0038077440
0.0038186233 0.0038186233 0.0038186233
0.0038295026 0.0038295026 0.0038295026
0.0038403818 0.0038403818 0.0038403818
0.0038512611 0.0038512611 0.0038512611
0.0038621404 0.0038621404 0.0038621404
0.0038730197 0.0038730197 0.0038730197
0.0038838989 0.0038838989 0.0038838989
0.0038947782 0.0038947782 0.0038947782
0.0039056575 0.0039056575 0.0039056575
0.0039165367 0.0039165367 0.0039165367
0.0039274160 0.0039274160 0.0039274160
0.0039382953 0.0039382953 0.0039382953
0.0039491745 0.0039491745 0.0039491745
0.0039600538 0.0039600538 0.0039600538
0.0039709331 0.0039709331 0.0039709331
0.0039818123 0.0039818123 0.0039818123
0.0039926916 0.0039926916 0.0039926916
0.0040035709 0.0040035709 0.0040035709
0.0040144501 0.0040144501 0.0040144501
0.0040253294 0.0040253294 0.0040253294
0.0040362087 0.0040362087 0.0040362087
0.0040470880 0.0040470880 0.0040470880
0.0040579672 0.0040579672 0.0040579672
0.0040688465 0.0040688465 0.0040688465
0.0040797258 0.0040797258 0.0040797258
0.0040906050 0.0040906050 0.0040906050
0.0041014843 0.0041014843 0.0041014843
0.0041123636 0.0041123636 0.0041123636
0.0041232428 0.0041232428 0.0041232428
0.0041341221 0.0041341221 0.0041341221
0.0041450014 0.0041450014 0.0041450014
0.0041558806 0.0041558806 0.0041558806
0.0041667599 0.0041667599 0.0041667599
0.0041776392 0.0041776392 0.0041776392
0.0041885184 0.0041885184 0.0041885184
0.0041993977 0.0041993977 0.0041993977
0.0042102770 0.0042102770 0.0042102770
0.0042211563 0.0042211563 0.0042211563
0.0042320355 0.0042320355 0.0042320355
0.0042429148 0.0042429148 0.0042429148
0.0042537941 0.0042537941 0.0042537941
0.0042646733 0.0042646733 0.0042646733
0.0042755526 0.0042755526 0.0042755526
0.0042864319 0.0042864319 0.0042864319
0.0042973111 0.0042973111 0.0042973111
0.0043081904 0.0043081904 0.0043081904
0.0043190697 0.0043190697 0.0043190697
0.0043299489 0.0043299489 0.0043299489
0.0043408282 0.0043408282 0.0043408282
0.0043517075 0.0043517075 0.0043517075
0.0043625867 0.0043625867 0.0043625867
0.0043734660 0.0043734660 0.0043734660
0.0043843453 0.0043843453 0.0043843453
0.0043952246 0.0043952246 0.0043952246
0.0044061038 0.0044061038 0.0044061038
0.0044169831 0.0044169831 0.0044169831
0.0044278624 0.0044278624 0.0044278624
0.0044387416 0.0044387416 0.0044387416
0.0044496209 0.0044496209 0.0044496209
0.0044605002 0.0044605002 0.0044605002
0.0044713794 0.0044713794 0.0044713794
0.0044822587 0.0044822587 0.0044822587
0.0044931380 0.0044931380 0.0044931380
0.0045040172 0.0045040172 0.0045040172
0.0045148965 0.0045148965 0.0045148965
0.0045257758 0.0045257758 0.0045257758
0.0045366550 0.0045366550 0.0045366550
0.0045475343 0.0045475343 0.0045475343
0.0045584136 0.0045584136 0.0045584136
0.0045692929 0.0045692929 0.0045692929
0.0045801721 0.0045801721 0.0045801721
0.0045910514 0.0045910514 0.0045910514
0.0046019307 0.0046019307 0.0046019307
0.0046128099 0.0046128099 0.0046128099
0.0046236892 0.0046236892 0.0046236892
0.0046345685 0.0046345685 0.0046345685
0.0046454477 0.0046454477 0.0046454477
0.0046563270 0.0046563270 0.0046563270
0.0046672063 0.0046672063 0.0046672063
0.0046780855 0.0046780855 0.0046780855
0.0046889648 0.0046889648 0.0046889648
0.0046998441 0.0046998441 0.0046998441
0.0047107233 0.0047107233 0.0047107233
0.0047216026 0.0047216026 0.0047216026
0.0047324819 0.0047324819 0.0047324819
0.0047433611 0.0047433611 0.0047433611
0.0047542404 0.0047542404 0.0047542404
0.0047651197 0.0047651197 0.0047651197
0.0047759990 0.0047759990 0.0047759990
0.0047868782 0.0047868782 0.0047868782
0.0047977575 0.0047977575 0.0047977575
0.0048086368 0.0048086368 0.0048086368
0.0048195160 0.0048195160 0.0048195160
0.0048303953 0.0048303953 0.0048303953
0.0048412746 0.0048412746 0.0048412746
0.0048521538 0.0048521538 0.0048521538
0.0048630331 0.0048630331 0.0048630331
0.0048739124 0.0048739124 0.0048739124
0.0048847916 0.0048847916 0.0048847916
0.0048956709 0.0048956709 0.0048956709
0.0049065502 0.0049065502 0.0049065502
0.0049174294 0.0049174294 0.0049174294
0.0049283087 0.0049283087 0.0049283087
0.0049391880 0.0049391880 0.0049391880
0.0049500673 0.0049500673 0.0049500673
0.0049609465 0.0049609465 0.0049609465
0.0049718258 0.0049718258 0.0049718258
0.0049827051 0.0049827051 0.0049827051
0.0049935843 0.0049935843 0.0049935843
0.0050044636 0.0050044636 0.0050044636
0.0050153429 0.0050153429 0.0050153429
0.0050262221 0.0050262221 0.0050262221
0.0050371014 0.0050371014 0.0050371014
0.0050479807 0.0050479807 0.0050479807
0.0050588599 0.0050588599 0.0050588599
0.0050697392 0.0050697392 0.0050697392
0.0050806185 0.0050806185 0.0050806185
0.0050914977 0.0050914977 0.0050914977
0.0051023770 0.0051023770 0.0051023770
0.0051132563 0.0051132563 0.0051132563
0.0051241356 0.0051241356 0.0051241356
0.0051350148 0.0051350148 0.0051350148
0.0051458941 0.0051458941 0.0051458941
0.0051567734 0.0051567734 0.0051567734
0.0051676526 0.0051676526 0.0051676526
0.0051785319 0.0051785319 0.0051785319
0.0051894112 0.0051894112 0.0051894112
0.0052002904 0.0052002904 0.0052002904
0.0052111697 0.0052111697 0.0052111697
0.0052220490 0.0052220490 0.0052220490
0.0052329282 0.0052329282 0.0052329282
0.0052438075 0.0052438075 0.0052438075
0.0052546868 0.0052546868 0.0052546868
0.0052655660 0.0052655660 0.0052655660
0.0052764453 0.0052764453 0.0052764453
0.0052873246 0.0052873246 0.0052873246
0.0052982039 0.0052982039 0.0052982039
0.0053090831 0.0053090831 0.0053090831
0.0053199624 0.0053199624 0.0053199624
0.0053308417 0.0053308417 0.0053308417
0.0053417209 0.0053417209 0.0053417209
0.0053526002 0.0053526002 0.0053526002
0.0053634795 0.0053634795 0.0053634795
0.0053743587 0.0053743587 0.0053743587
0.0053852380 0.0053852380 0.0053852380
0.0053961173 0.0053961173 0.0053961173
0.0054069965 0.0054069965 0.0054069965
0.0054178758 0.0054178758 0.0054178758
0.0054287551 0.0054287551 0.0054287551
0.0054396343 0.0054396343 0.0054396343
0.0054505136 0.0054505136 0.0054505136
0.0054613929 0.0054613929 0.0054613929
0.0054722722 0.0054722722 0.0054722722
0.0054831514 0.0054831514 0.0054831514
0.0054940307 0.0054940307 0.0054940307
0.0055049100 0.0055049100 0.0055049100
0.0055157892 0.0055157892 0.0055157892
0.0055266685 0.0055266685 0.0055266685
0.0055375478 0.0055375478 0.0055375478
0.0055484270 0.0055484270 0.0055484270
0.0055593063 0.0055593063 0.0055593063
0.0055701856 0.0055701856 0.0055701856
0.0055810648 0.0055810648 0.0055810648
0.0055919441 0.0055919441 0.0055919441
0.0056028234 0.0056028234 0.0056028234
0.0056137026 0.0056137026 0.0056137026
0.0056245819 0.0056245819 0.0056245819
0.0056354612 0.0056354612 0.0056354612
0.0056463405 0.0056463405 0.0056463405
0.0056572197 0.0056572197 0.0056572197
0.0056680990 0.0056680990 0.0056680990
0.0056789783 0.0056789783 0.0056789783
0.0056898575 0.0056898575 0.0056898575
0.0057007368 0.0057007368 0.0057007368
0.0057116161 0.0057116161 0.0057116161
0.0057224953 0.0057224953 0.0057224953
0.0057333746 0.0057333746 0.0057333746
0.0057442539 0.0057442539 0.0057442539
0.0057551331 0.0057551331 0.0057551331
0.0057660124 0.0057660124 0.0057660124
0.0057768917 0.0057768917 0.0057768917
0.0057877709 0.0057877709 0.0057877709
0.0057986502 0.0057986502 0.0057986502
0.0058095295 0.0058095295 0.0058095295
0.0058204087 0.0058204087 0.0058204087
0.0058312880 0.0058312880 0.0058312880
0.0058421673 0.0058421673 0.0058421673
0.0058530466 0.0058530466 0.0058530466
0.0058639258 0.0058639258 0.0058639258
0.0058748051 0.0058748051 0.0058748051
0.0058856844 0.0058856844 0.0058856844
0.0058965636 0.0058965636 0.0058965636
0.0059074429 0.0059074429 0.0059074429
0.0059183222 0.0059183222 0.0059183222
0.0059292014 0.0059292014 0.0059292014
0.0059400807 0.0059400807 0.0059400807
0.0059509600 0.0059509600 0.0059509600
0.0059618392 0.0059618392 0.0059618392
0.0059727185 0.0059727185 0.0059727185
0.0059835978 0.0059835978 0.0059835978
0.0059944770 0.0059944770 0.0059944770
0.0060053563 0.0060053563 0.0060053563
0.0060162356 0.0060162356 0.0060162356
0.0060271149 0.0060271149 0.0060271149
0.0060379941 0.0060379941 0.0060379941
0.0060488734 0.0060488734 0.0060488734
0.0060597527 0.0060597527 0.0060597527
0.0060706319 0.0060706319 0.0060706319
0.0060815112 0.0060815112 0.0060815112
0.0060923905 0.0060923905 0.0060923905
0.0061032697 0.0061032697 0.0061032697
0.0061141490 0.0061141490 0.0061141490
0.0061250283 0.0061250283 0.0061250283
0.0061359075 0.0061359075 0.0061359075
0.0061467868 0.0061467868 0.0061467868
0.0061576661 0.0061576661 0.0061576661
0.0061685453 0.0061685453 0.0061685453
0.0061794246 0.0061794246 0.0061794246
0.0061903039 0.0061903039 0.0061903039
0.0062011832 0.0062011832 0.0062011832
0.0062120624 0.0062120624 0.0062120624
0.0062229417 0.0062229417 0.0062229417
0.0062338210 0.0062338210 0.0062338210
0.0062447002 0.0062447002 0.0062447002
0.0062555795 0.0062555795 0.0062555795
0.0062664588 0.0062664588 0.0062664588
0.0062773380 0.0062773380 0.0062773380
0.0062882173 0.0062882173 0.0062882173
0.0062990966 0.0062990966 0.0062990966
0.0063099758 0.0063099758 0.0063099758
0.0063208551 0.0063208551 0.0063208551
0.0063317344 0.0063317344 0.0063317344
0.0063426136 0.0063426136 0.0063426136
0.0063534929 0.0063534929 0.0063534929
0.0063643722 0.0063643722 0.0063643722
0.0063752515 0.0063752515 0.0063752515
0.0063861307 0.0063861307 0.0063861307
0.0063970100 0.0063970100 0.0063970100
0.0064078893 0.0064078893 0.0064078893
0.0064187685 0.0064187685 0.0064187685
0.0064296478 0.0064296478 0.0064296478
0.0064405271 0.0064405271 0.0064405271
0.0064514063 0.0064514063 0.0064514063
0.0064622856 0.0064622856 0.0064622856
0.0064731649 0.0064731649 0.0064731649
0.0064840441 0.0064840441 0.0064840441
0.0064949234 0.0064949234 0.0064949234
0.0065058027 0.0065058027 0.0065058027
0.0065166819 0.0065166819 0.0065166819
0.0065275612 0.0065275612 0.0065275612
0.0065384405 0.0065384405 0.0065384405
0.0065493198 0.0065493198 0.0065493198
0.0065601990 0.0065601990 0.0065601990
0.0065710783 0.0065710783 0.0065710783
0.0065819576 0.0065819576 0.0065819576
0.0065928368 0.0065928368 0.0065928368
0.0066037161 0.0066037161 0.0066037161
