skills/davinci/davinci-film-colorist/assets/tonality/FilmInspired_v1_bold_static.cube
# DWG/DaVinci Intermediate -> same. Independent channels. Input domain ONLY 0..1.
# Outside input domain requires DCTL; host may clamp/extrapolate. No display transform.
TITLE "FilmInspired_v1_bold_static"
LUT_1D_SIZE 65536
DOMAIN_MIN 0.0 0.0 0.0
DOMAIN_MAX 1.0 1.0 1.0
0.0000000000 0.0000000000 0.0000000000
0.0000103868 0.0000103868 0.0000103868
0.0000207737 0.0000207737 0.0000207737
0.0000311605 0.0000311605 0.0000311605
0.0000415474 0.0000415474 0.0000415474
0.0000519342 0.0000519342 0.0000519342
0.0000623211 0.0000623211 0.0000623211
0.0000727079 0.0000727079 0.0000727079
0.0000830947 0.0000830947 0.0000830947
0.0000934816 0.0000934816 0.0000934816
0.0001038684 0.0001038684 0.0001038684
0.0001142553 0.0001142553 0.0001142553
0.0001246421 0.0001246421 0.0001246421
0.0001350289 0.0001350289 0.0001350289
0.0001454158 0.0001454158 0.0001454158
0.0001558026 0.0001558026 0.0001558026
0.0001661895 0.0001661895 0.0001661895
0.0001765763 0.0001765763 0.0001765763
0.0001869632 0.0001869632 0.0001869632
0.0001973500 0.0001973500 0.0001973500
0.0002077368 0.0002077368 0.0002077368
0.0002181237 0.0002181237 0.0002181237
0.0002285105 0.0002285105 0.0002285105
0.0002388974 0.0002388974 0.0002388974
0.0002492842 0.0002492842 0.0002492842
0.0002596710 0.0002596710 0.0002596710
0.0002700579 0.0002700579 0.0002700579
0.0002804447 0.0002804447 0.0002804447
0.0002908316 0.0002908316 0.0002908316
0.0003012184 0.0003012184 0.0003012184
0.0003116053 0.0003116053 0.0003116053
0.0003219921 0.0003219921 0.0003219921
0.0003323789 0.0003323789 0.0003323789
0.0003427658 0.0003427658 0.0003427658
0.0003531526 0.0003531526 0.0003531526
0.0003635395 0.0003635395 0.0003635395
0.0003739263 0.0003739263 0.0003739263
0.0003843131 0.0003843131 0.0003843131
0.0003947000 0.0003947000 0.0003947000
0.0004050868 0.0004050868 0.0004050868
0.0004154737 0.0004154737 0.0004154737
0.0004258605 0.0004258605 0.0004258605
0.0004362474 0.0004362474 0.0004362474
0.0004466342 0.0004466342 0.0004466342
0.0004570210 0.0004570210 0.0004570210
0.0004674079 0.0004674079 0.0004674079
0.0004777947 0.0004777947 0.0004777947
0.0004881816 0.0004881816 0.0004881816
0.0004985684 0.0004985684 0.0004985684
0.0005089552 0.0005089552 0.0005089552
0.0005193421 0.0005193421 0.0005193421
0.0005297289 0.0005297289 0.0005297289
0.0005401158 0.0005401158 0.0005401158
0.0005505026 0.0005505026 0.0005505026
0.0005608895 0.0005608895 0.0005608895
0.0005712763 0.0005712763 0.0005712763
0.0005816631 0.0005816631 0.0005816631
0.0005920500 0.0005920500 0.0005920500
0.0006024368 0.0006024368 0.0006024368
0.0006128237 0.0006128237 0.0006128237
0.0006232105 0.0006232105 0.0006232105
0.0006335973 0.0006335973 0.0006335973
0.0006439842 0.0006439842 0.0006439842
0.0006543710 0.0006543710 0.0006543710
0.0006647579 0.0006647579 0.0006647579
0.0006751447 0.0006751447 0.0006751447
0.0006855316 0.0006855316 0.0006855316
0.0006959184 0.0006959184 0.0006959184
0.0007063052 0.0007063052 0.0007063052
0.0007166921 0.0007166921 0.0007166921
0.0007270789 0.0007270789 0.0007270789
0.0007374658 0.0007374658 0.0007374658
0.0007478526 0.0007478526 0.0007478526
0.0007582394 0.0007582394 0.0007582394
0.0007686263 0.0007686263 0.0007686263
0.0007790131 0.0007790131 0.0007790131
0.0007894000 0.0007894000 0.0007894000
0.0007997868 0.0007997868 0.0007997868
0.0008101737 0.0008101737 0.0008101737
0.0008205605 0.0008205605 0.0008205605
0.0008309473 0.0008309473 0.0008309473
0.0008413342 0.0008413342 0.0008413342
0.0008517210 0.0008517210 0.0008517210
0.0008621079 0.0008621079 0.0008621079
0.0008724947 0.0008724947 0.0008724947
0.0008828815 0.0008828815 0.0008828815
0.0008932684 0.0008932684 0.0008932684
0.0009036552 0.0009036552 0.0009036552
0.0009140421 0.0009140421 0.0009140421
0.0009244289 0.0009244289 0.0009244289
0.0009348158 0.0009348158 0.0009348158
0.0009452026 0.0009452026 0.0009452026
0.0009555894 0.0009555894 0.0009555894
0.0009659763 0.0009659763 0.0009659763
0.0009763631 0.0009763631 0.0009763631
0.0009867500 0.0009867500 0.0009867500
0.0009971368 0.0009971368 0.0009971368
0.0010075236 0.0010075236 0.0010075236
0.0010179105 0.0010179105 0.0010179105
0.0010282973 0.0010282973 0.0010282973
0.0010386842 0.0010386842 0.0010386842
0.0010490710 0.0010490710 0.0010490710
0.0010594579 0.0010594579 0.0010594579
0.0010698447 0.0010698447 0.0010698447
0.0010802315 0.0010802315 0.0010802315
0.0010906184 0.0010906184 0.0010906184
0.0011010052 0.0011010052 0.0011010052
0.0011113921 0.0011113921 0.0011113921
0.0011217789 0.0011217789 0.0011217789
0.0011321657 0.0011321657 0.0011321657
0.0011425526 0.0011425526 0.0011425526
0.0011529394 0.0011529394 0.0011529394
0.0011633263 0.0011633263 0.0011633263
0.0011737131 0.0011737131 0.0011737131
0.0011841000 0.0011841000 0.0011841000
0.0011944868 0.0011944868 0.0011944868
0.0012048736 0.0012048736 0.0012048736
0.0012152605 0.0012152605 0.0012152605
0.0012256473 0.0012256473 0.0012256473
0.0012360342 0.0012360342 0.0012360342
0.0012464210 0.0012464210 0.0012464210
0.0012568079 0.0012568079 0.0012568079
0.0012671947 0.0012671947 0.0012671947
0.0012775815 0.0012775815 0.0012775815
0.0012879684 0.0012879684 0.0012879684
0.0012983552 0.0012983552 0.0012983552
0.0013087421 0.0013087421 0.0013087421
0.0013191289 0.0013191289 0.0013191289
0.0013295157 0.0013295157 0.0013295157
0.0013399026 0.0013399026 0.0013399026
0.0013502894 0.0013502894 0.0013502894
0.0013606763 0.0013606763 0.0013606763
0.0013710631 0.0013710631 0.0013710631
0.0013814500 0.0013814500 0.0013814500
0.0013918368 0.0013918368 0.0013918368
0.0014022236 0.0014022236 0.0014022236
0.0014126105 0.0014126105 0.0014126105
0.0014229973 0.0014229973 0.0014229973
0.0014333842 0.0014333842 0.0014333842
0.0014437710 0.0014437710 0.0014437710
0.0014541578 0.0014541578 0.0014541578
0.0014645447 0.0014645447 0.0014645447
0.0014749315 0.0014749315 0.0014749315
0.0014853184 0.0014853184 0.0014853184
0.0014957052 0.0014957052 0.0014957052
0.0015060921 0.0015060921 0.0015060921
0.0015164789 0.0015164789 0.0015164789
0.0015268657 0.0015268657 0.0015268657
0.0015372526 0.0015372526 0.0015372526
0.0015476394 0.0015476394 0.0015476394
0.0015580263 0.0015580263 0.0015580263
0.0015684131 0.0015684131 0.0015684131
0.0015787999 0.0015787999 0.0015787999
0.0015891868 0.0015891868 0.0015891868
0.0015995736 0.0015995736 0.0015995736
0.0016099605 0.0016099605 0.0016099605
0.0016203473 0.0016203473 0.0016203473
0.0016307342 0.0016307342 0.0016307342
0.0016411210 0.0016411210 0.0016411210
0.0016515078 0.0016515078 0.0016515078
0.0016618947 0.0016618947 0.0016618947
0.0016722815 0.0016722815 0.0016722815
0.0016826684 0.0016826684 0.0016826684
0.0016930552 0.0016930552 0.0016930552
0.0017034420 0.0017034420 0.0017034420
0.0017138289 0.0017138289 0.0017138289
0.0017242157 0.0017242157 0.0017242157
0.0017346026 0.0017346026 0.0017346026
0.0017449894 0.0017449894 0.0017449894
0.0017553763 0.0017553763 0.0017553763
0.0017657631 0.0017657631 0.0017657631
0.0017761499 0.0017761499 0.0017761499
0.0017865368 0.0017865368 0.0017865368
0.0017969236 0.0017969236 0.0017969236
0.0018073105 0.0018073105 0.0018073105
0.0018176973 0.0018176973 0.0018176973
0.0018280841 0.0018280841 0.0018280841
0.0018384710 0.0018384710 0.0018384710
0.0018488578 0.0018488578 0.0018488578
0.0018592447 0.0018592447 0.0018592447
0.0018696315 0.0018696315 0.0018696315
0.0018800184 0.0018800184 0.0018800184
0.0018904052 0.0018904052 0.0018904052
0.0019007920 0.0019007920 0.0019007920
0.0019111789 0.0019111789 0.0019111789
0.0019215657 0.0019215657 0.0019215657
0.0019319526 0.0019319526 0.0019319526
0.0019423394 0.0019423394 0.0019423394
0.0019527262 0.0019527262 0.0019527262
0.0019631131 0.0019631131 0.0019631131
0.0019734999 0.0019734999 0.0019734999
0.0019838868 0.0019838868 0.0019838868
0.0019942736 0.0019942736 0.0019942736
0.0020046605 0.0020046605 0.0020046605
0.0020150473 0.0020150473 0.0020150473
0.0020254341 0.0020254341 0.0020254341
0.0020358210 0.0020358210 0.0020358210
0.0020462078 0.0020462078 0.0020462078
0.0020565947 0.0020565947 0.0020565947
0.0020669815 0.0020669815 0.0020669815
0.0020773683 0.0020773683 0.0020773683
0.0020877552 0.0020877552 0.0020877552
0.0020981420 0.0020981420 0.0020981420
0.0021085289 0.0021085289 0.0021085289
0.0021189157 0.0021189157 0.0021189157
0.0021293026 0.0021293026 0.0021293026
0.0021396894 0.0021396894 0.0021396894
0.0021500762 0.0021500762 0.0021500762
0.0021604631 0.0021604631 0.0021604631
0.0021708499 0.0021708499 0.0021708499
0.0021812368 0.0021812368 0.0021812368
0.0021916236 0.0021916236 0.0021916236
0.0022020104 0.0022020104 0.0022020104
0.0022123973 0.0022123973 0.0022123973
0.0022227841 0.0022227841 0.0022227841
0.0022331710 0.0022331710 0.0022331710
0.0022435578 0.0022435578 0.0022435578
0.0022539447 0.0022539447 0.0022539447
0.0022643315 0.0022643315 0.0022643315
0.0022747183 0.0022747183 0.0022747183
0.0022851052 0.0022851052 0.0022851052
0.0022954920 0.0022954920 0.0022954920
0.0023058789 0.0023058789 0.0023058789
0.0023162657 0.0023162657 0.0023162657
0.0023266525 0.0023266525 0.0023266525
0.0023370394 0.0023370394 0.0023370394
0.0023474262 0.0023474262 0.0023474262
0.0023578131 0.0023578131 0.0023578131
0.0023681999 0.0023681999 0.0023681999
0.0023785868 0.0023785868 0.0023785868
0.0023889736 0.0023889736 0.0023889736
0.0023993604 0.0023993604 0.0023993604
0.0024097473 0.0024097473 0.0024097473
0.0024201341 0.0024201341 0.0024201341
0.0024305210 0.0024305210 0.0024305210
0.0024409078 0.0024409078 0.0024409078
0.0024512946 0.0024512946 0.0024512946
0.0024616815 0.0024616815 0.0024616815
0.0024720683 0.0024720683 0.0024720683
0.0024824552 0.0024824552 0.0024824552
0.0024928420 0.0024928420 0.0024928420
0.0025032289 0.0025032289 0.0025032289
0.0025136157 0.0025136157 0.0025136157
0.0025240025 0.0025240025 0.0025240025
0.0025343894 0.0025343894 0.0025343894
0.0025447762 0.0025447762 0.0025447762
0.0025551631 0.0025551631 0.0025551631
0.0025655499 0.0025655499 0.0025655499
0.0025759368 0.0025759368 0.0025759368
0.0025863236 0.0025863236 0.0025863236
0.0025967104 0.0025967104 0.0025967104
0.0026070973 0.0026070973 0.0026070973
0.0026174841 0.0026174841 0.0026174841
0.0026278710 0.0026278710 0.0026278710
0.0026382578 0.0026382578 0.0026382578
0.0026486446 0.0026486446 0.0026486446
0.0026590315 0.0026590315 0.0026590315
0.0026694183 0.0026694183 0.0026694183
0.0026798052 0.0026798052 0.0026798052
0.0026901920 0.0026901920 0.0026901920
0.0027005789 0.0027005789 0.0027005789
0.0027109657 0.0027109657 0.0027109657
0.0027213525 0.0027213525 0.0027213525
0.0027317394 0.0027317394 0.0027317394
0.0027421262 0.0027421262 0.0027421262
0.0027525131 0.0027525131 0.0027525131
0.0027628999 0.0027628999 0.0027628999
0.0027732867 0.0027732867 0.0027732867
0.0027836736 0.0027836736 0.0027836736
0.0027940604 0.0027940604 0.0027940604
0.0028044473 0.0028044473 0.0028044473
0.0028148341 0.0028148341 0.0028148341
0.0028252210 0.0028252210 0.0028252210
0.0028356078 0.0028356078 0.0028356078
0.0028459946 0.0028459946 0.0028459946
0.0028563815 0.0028563815 0.0028563815
0.0028667683 0.0028667683 0.0028667683
0.0028771552 0.0028771552 0.0028771552
0.0028875420 0.0028875420 0.0028875420
0.0028979288 0.0028979288 0.0028979288
0.0029083157 0.0029083157 0.0029083157
0.0029187025 0.0029187025 0.0029187025
0.0029290894 0.0029290894 0.0029290894
0.0029394762 0.0029394762 0.0029394762
0.0029498631 0.0029498631 0.0029498631
0.0029602499 0.0029602499 0.0029602499
0.0029706367 0.0029706367 0.0029706367
0.0029810236 0.0029810236 0.0029810236
0.0029914104 0.0029914104 0.0029914104
0.0030017973 0.0030017973 0.0030017973
0.0030121841 0.0030121841 0.0030121841
0.0030225709 0.0030225709 0.0030225709
0.0030329578 0.0030329578 0.0030329578
0.0030433446 0.0030433446 0.0030433446
0.0030537315 0.0030537315 0.0030537315
0.0030641183 0.0030641183 0.0030641183
0.0030745052 0.0030745052 0.0030745052
0.0030848920 0.0030848920 0.0030848920
0.0030952788 0.0030952788 0.0030952788
0.0031056657 0.0031056657 0.0031056657
0.0031160525 0.0031160525 0.0031160525
0.0031264394 0.0031264394 0.0031264394
0.0031368262 0.0031368262 0.0031368262
0.0031472130 0.0031472130 0.0031472130
0.0031575999 0.0031575999 0.0031575999
0.0031679867 0.0031679867 0.0031679867
0.0031783736 0.0031783736 0.0031783736
0.0031887604 0.0031887604 0.0031887604
0.0031991473 0.0031991473 0.0031991473
0.0032095341 0.0032095341 0.0032095341
0.0032199209 0.0032199209 0.0032199209
0.0032303078 0.0032303078 0.0032303078
0.0032406946 0.0032406946 0.0032406946
0.0032510815 0.0032510815 0.0032510815
0.0032614683 0.0032614683 0.0032614683
0.0032718551 0.0032718551 0.0032718551
0.0032822420 0.0032822420 0.0032822420
0.0032926288 0.0032926288 0.0032926288
0.0033030157 0.0033030157 0.0033030157
0.0033134025 0.0033134025 0.0033134025
0.0033237894 0.0033237894 0.0033237894
0.0033341762 0.0033341762 0.0033341762
0.0033445630 0.0033445630 0.0033445630
0.0033549499 0.0033549499 0.0033549499
0.0033653367 0.0033653367 0.0033653367
0.0033757236 0.0033757236 0.0033757236
0.0033861104 0.0033861104 0.0033861104
0.0033964972 0.0033964972 0.0033964972
0.0034068841 0.0034068841 0.0034068841
0.0034172709 0.0034172709 0.0034172709
0.0034276578 0.0034276578 0.0034276578
0.0034380446 0.0034380446 0.0034380446
0.0034484315 0.0034484315 0.0034484315
0.0034588183 0.0034588183 0.0034588183
0.0034692051 0.0034692051 0.0034692051
0.0034795920 0.0034795920 0.0034795920
0.0034899788 0.0034899788 0.0034899788
0.0035003657 0.0035003657 0.0035003657
0.0035107525 0.0035107525 0.0035107525
0.0035211393 0.0035211393 0.0035211393
0.0035315262 0.0035315262 0.0035315262
0.0035419130 0.0035419130 0.0035419130
0.0035522999 0.0035522999 0.0035522999
0.0035626867 0.0035626867 0.0035626867
0.0035730736 0.0035730736 0.0035730736
0.0035834604 0.0035834604 0.0035834604
0.0035938472 0.0035938472 0.0035938472
0.0036042341 0.0036042341 0.0036042341
0.0036146209 0.0036146209 0.0036146209
0.0036250078 0.0036250078 0.0036250078
0.0036353946 0.0036353946 0.0036353946
0.0036457814 0.0036457814 0.0036457814
0.0036561683 0.0036561683 0.0036561683
0.0036665551 0.0036665551 0.0036665551
0.0036769420 0.0036769420 0.0036769420
0.0036873288 0.0036873288 0.0036873288
0.0036977157 0.0036977157 0.0036977157
0.0037081025 0.0037081025 0.0037081025
0.0037184893 0.0037184893 0.0037184893
0.0037288762 0.0037288762 0.0037288762
0.0037392630 0.0037392630 0.0037392630
0.0037496499 0.0037496499 0.0037496499
0.0037600367 0.0037600367 0.0037600367
0.0037704236 0.0037704236 0.0037704236
0.0037808104 0.0037808104 0.0037808104
0.0037911972 0.0037911972 0.0037911972
0.0038015841 0.0038015841 0.0038015841
0.0038119709 0.0038119709 0.0038119709
0.0038223578 0.0038223578 0.0038223578
0.0038327446 0.0038327446 0.0038327446
0.0038431314 0.0038431314 0.0038431314
0.0038535183 0.0038535183 0.0038535183
0.0038639051 0.0038639051 0.0038639051
0.0038742920 0.0038742920 0.0038742920
0.0038846788 0.0038846788 0.0038846788
0.0038950657 0.0038950657 0.0038950657
0.0039054525 0.0039054525 0.0039054525
0.0039158393 0.0039158393 0.0039158393
0.0039262262 0.0039262262 0.0039262262
0.0039366130 0.0039366130 0.0039366130
0.0039469999 0.0039469999 0.0039469999
0.0039573867 0.0039573867 0.0039573867
0.0039677735 0.0039677735 0.0039677735
0.0039781604 0.0039781604 0.0039781604
0.0039885472 0.0039885472 0.0039885472
0.0039989341 0.0039989341 0.0039989341
0.0040093209 0.0040093209 0.0040093209
0.0040197078 0.0040197078 0.0040197078
0.0040300946 0.0040300946 0.0040300946
0.0040404814 0.0040404814 0.0040404814
0.0040508683 0.0040508683 0.0040508683
0.0040612551 0.0040612551 0.0040612551
0.0040716420 0.0040716420 0.0040716420
0.0040820288 0.0040820288 0.0040820288
0.0040924156 0.0040924156 0.0040924156
0.0041028025 0.0041028025 0.0041028025
0.0041131893 0.0041131893 0.0041131893
0.0041235762 0.0041235762 0.0041235762
0.0041339630 0.0041339630 0.0041339630
0.0041443499 0.0041443499 0.0041443499
0.0041547367 0.0041547367 0.0041547367
0.0041651235 0.0041651235 0.0041651235
0.0041755104 0.0041755104 0.0041755104
0.0041858972 0.0041858972 0.0041858972
0.0041962841 0.0041962841 0.0041962841
0.0042066709 0.0042066709 0.0042066709
0.0042170577 0.0042170577 0.0042170577
0.0042274446 0.0042274446 0.0042274446
0.0042378314 0.0042378314 0.0042378314
0.0042482183 0.0042482183 0.0042482183
0.0042586051 0.0042586051 0.0042586051
0.0042689920 0.0042689920 0.0042689920
0.0042793788 0.0042793788 0.0042793788
0.0042897656 0.0042897656 0.0042897656
0.0043001525 0.0043001525 0.0043001525
0.0043105393 0.0043105393 0.0043105393
0.0043209262 0.0043209262 0.0043209262
0.0043313130 0.0043313130 0.0043313130
0.0043416998 0.0043416998 0.0043416998
0.0043520867 0.0043520867 0.0043520867
0.0043624735 0.0043624735 0.0043624735
0.0043728604 0.0043728604 0.0043728604
0.0043832472 0.0043832472 0.0043832472
0.0043936341 0.0043936341 0.0043936341
0.0044040209 0.0044040209 0.0044040209
0.0044144077 0.0044144077 0.0044144077
0.0044247946 0.0044247946 0.0044247946
0.0044351814 0.0044351814 0.0044351814
0.0044455683 0.0044455683 0.0044455683
0.0044559551 0.0044559551 0.0044559551
0.0044663419 0.0044663419 0.0044663419
0.0044767288 0.0044767288 0.0044767288
0.0044871156 0.0044871156 0.0044871156
0.0044975025 0.0044975025 0.0044975025
0.0045078893 0.0045078893 0.0045078893
0.0045182762 0.0045182762 0.0045182762
0.0045286630 0.0045286630 0.0045286630
0.0045390498 0.0045390498 0.0045390498
0.0045494367 0.0045494367 0.0045494367
0.0045598235 0.0045598235 0.0045598235
0.0045702104 0.0045702104 0.0045702104
0.0045805972 0.0045805972 0.0045805972
0.0045909840 0.0045909840 0.0045909840
0.0046013709 0.0046013709 0.0046013709
0.0046117577 0.0046117577 0.0046117577
0.0046221446 0.0046221446 0.0046221446
0.0046325314 0.0046325314 0.0046325314
0.0046429183 0.0046429183 0.0046429183
0.0046533051 0.0046533051 0.0046533051
0.0046636919 0.0046636919 0.0046636919
0.0046740788 0.0046740788 0.0046740788
0.0046844656 0.0046844656 0.0046844656
0.0046948525 0.0046948525 0.0046948525
0.0047052393 0.0047052393 0.0047052393
0.0047156261 0.0047156261 0.0047156261
0.0047260130 0.0047260130 0.0047260130
0.0047363998 0.0047363998 0.0047363998
0.0047467867 0.0047467867 0.0047467867
0.0047571735 0.0047571735 0.0047571735
0.0047675604 0.0047675604 0.0047675604
0.0047779472 0.0047779472 0.0047779472
0.0047883340 0.0047883340 0.0047883340
0.0047987209 0.0047987209 0.0047987209
0.0048091077 0.0048091077 0.0048091077
0.0048194946 0.0048194946 0.0048194946
0.0048298814 0.0048298814 0.0048298814
0.0048402682 0.0048402682 0.0048402682
0.0048506551 0.0048506551 0.0048506551
0.0048610419 0.0048610419 0.0048610419
0.0048714288 0.0048714288 0.0048714288
0.0048818156 0.0048818156 0.0048818156
0.0048922025 0.0048922025 0.0048922025
0.0049025893 0.0049025893 0.0049025893
0.0049129761 0.0049129761 0.0049129761
0.0049233630 0.0049233630 0.0049233630
0.0049337498 0.0049337498 0.0049337498
0.0049441367 0.0049441367 0.0049441367
0.0049545235 0.0049545235 0.0049545235
0.0049649103 0.0049649103 0.0049649103
0.0049752972 0.0049752972 0.0049752972
0.0049856840 0.0049856840 0.0049856840
0.0049960709 0.0049960709 0.0049960709
0.0050064577 0.0050064577 0.0050064577
0.0050168446 0.0050168446 0.0050168446
0.0050272314 0.0050272314 0.0050272314
0.0050376182 0.0050376182 0.0050376182
0.0050480051 0.0050480051 0.0050480051
0.0050583919 0.0050583919 0.0050583919
0.0050687788 0.0050687788 0.0050687788
0.0050791656 0.0050791656 0.0050791656
0.0050895525 0.0050895525 0.0050895525
0.0050999393 0.0050999393 0.0050999393
0.0051103261 0.0051103261 0.0051103261
0.0051207130 0.0051207130 0.0051207130
0.0051310998 0.0051310998 0.0051310998
0.0051414867 0.0051414867 0.0051414867
0.0051518735 0.0051518735 0.0051518735
0.0051622603 0.0051622603 0.0051622603
0.0051726472 0.0051726472 0.0051726472
0.0051830340 0.0051830340 0.0051830340
0.0051934209 0.0051934209 0.0051934209
0.0052038077 0.0052038077 0.0052038077
0.0052141946 0.0052141946 0.0052141946
0.0052245814 0.0052245814 0.0052245814
0.0052349682 0.0052349682 0.0052349682
0.0052453551 0.0052453551 0.0052453551
0.0052557419 0.0052557419 0.0052557419
0.0052661288 0.0052661288 0.0052661288
0.0052765156 0.0052765156 0.0052765156
0.0052869024 0.0052869024 0.0052869024
0.0052972893 0.0052972893 0.0052972893
0.0053076761 0.0053076761 0.0053076761
0.0053180630 0.0053180630 0.0053180630
0.0053284498 0.0053284498 0.0053284498
0.0053388367 0.0053388367 0.0053388367
0.0053492235 0.0053492235 0.0053492235
0.0053596103 0.0053596103 0.0053596103
0.0053699972 0.0053699972 0.0053699972
0.0053803840 0.0053803840 0.0053803840
0.0053907709 0.0053907709 0.0053907709
0.0054011577 0.0054011577 0.0054011577
0.0054115445 0.0054115445 0.0054115445
0.0054219314 0.0054219314 0.0054219314
0.0054323182 0.0054323182 0.0054323182
0.0054427051 0.0054427051 0.0054427051
0.0054530919 0.0054530919 0.0054530919
0.0054634788 0.0054634788 0.0054634788
0.0054738656 0.0054738656 0.0054738656
0.0054842524 0.0054842524 0.0054842524
0.0054946393 0.0054946393 0.0054946393
0.0055050261 0.0055050261 0.0055050261
0.0055154130 0.0055154130 0.0055154130
0.0055257998 0.0055257998 0.0055257998
0.0055361866 0.0055361866 0.0055361866
0.0055465735 0.0055465735 0.0055465735
0.0055569603 0.0055569603 0.0055569603
0.0055673472 0.0055673472 0.0055673472
0.0055777340 0.0055777340 0.0055777340
0.0055881209 0.0055881209 0.0055881209
0.0055985077 0.0055985077 0.0055985077
0.0056088945 0.0056088945 0.0056088945
0.0056192814 0.0056192814 0.0056192814
0.0056296682 0.0056296682 0.0056296682
0.0056400551 0.0056400551 0.0056400551
0.0056504419 0.0056504419 0.0056504419
0.0056608287 0.0056608287 0.0056608287
0.0056712156 0.0056712156 0.0056712156
0.0056816024 0.0056816024 0.0056816024
0.0056919893 0.0056919893 0.0056919893
0.0057023761 0.0057023761 0.0057023761
0.0057127630 0.0057127630 0.0057127630
0.0057231498 0.0057231498 0.0057231498
0.0057335366 0.0057335366 0.0057335366
0.0057439235 0.0057439235 0.0057439235
0.0057543103 0.0057543103 0.0057543103
0.0057646972 0.0057646972 0.0057646972
0.0057750840 0.0057750840 0.0057750840
0.0057854708 0.0057854708 0.0057854708
0.0057958577 0.0057958577 0.0057958577
0.0058062445 0.0058062445 0.0058062445
0.0058166314 0.0058166314 0.0058166314
0.0058270182 0.0058270182 0.0058270182
0.0058374051 0.0058374051 0.0058374051
0.0058477919 0.0058477919 0.0058477919
0.0058581787 0.0058581787 0.0058581787
0.0058685656 0.0058685656 0.0058685656
0.0058789524 0.0058789524 0.0058789524
0.0058893393 0.0058893393 0.0058893393
0.0058997261 0.0058997261 0.0058997261
0.0059101129 0.0059101129 0.0059101129
0.0059204998 0.0059204998 0.0059204998
0.0059308866 0.0059308866 0.0059308866
0.0059412735 0.0059412735 0.0059412735
0.0059516603 0.0059516603 0.0059516603
0.0059620472 0.0059620472 0.0059620472
0.0059724340 0.0059724340 0.0059724340
0.0059828208 0.0059828208 0.0059828208
0.0059932077 0.0059932077 0.0059932077
0.0060035945 0.0060035945 0.0060035945
0.0060139814 0.0060139814 0.0060139814
0.0060243682 0.0060243682 0.0060243682
0.0060347550 0.0060347550 0.0060347550
0.0060451419 0.0060451419 0.0060451419
0.0060555287 0.0060555287 0.0060555287
0.0060659156 0.0060659156 0.0060659156
0.0060763024 0.0060763024 0.0060763024
0.0060866893 0.0060866893 0.0060866893
0.0060970761 0.0060970761 0.0060970761
0.0061074629 0.0061074629 0.0061074629
0.0061178498 0.0061178498 0.0061178498
0.0061282366 0.0061282366 0.0061282366
0.0061386235 0.0061386235 0.0061386235
0.0061490103 0.0061490103 0.0061490103
0.0061593971 0.0061593971 0.0061593971
0.0061697840 0.0061697840 0.0061697840
0.0061801708 0.0061801708 0.0061801708
0.0061905577 0.0061905577 0.0061905577
0.0062009445 0.0062009445 0.0062009445
0.0062113314 0.0062113314 0.0062113314
0.0062217182 0.0062217182 0.0062217182
0.0062321050 0.0062321050 0.0062321050
0.0062424919 0.0062424919 0.0062424919
0.0062528787 0.0062528787 0.0062528787
0.0062632656 0.0062632656 0.0062632656
0.0062736524 0.0062736524 0.0062736524
0.0062840393 0.0062840393 0.0062840393
0.0062944261 0.0062944261 0.0062944261
0.0063048129 0.0063048129 0.0063048129
