skills/davinci/davinci-film-colorist/assets/tonality/GreenShape_500T_DWG_DI_static.cube
# DWG/DaVinci Intermediate -> same. Independent channels. Input domain ONLY 0..1.
# Outside input domain requires DCTL; host may clamp/extrapolate. No display transform.
TITLE "GreenShape_500T_DWG_DI_static"
LUT_1D_SIZE 65536
DOMAIN_MIN 0.0 0.0 0.0
DOMAIN_MAX 1.0 1.0 1.0
0.0000000000 0.0000000000 0.0000000000
0.0000466955 0.0000466955 0.0000466955
0.0000933595 0.0000933595 0.0000933595
0.0001399921 0.0001399921 0.0001399921
0.0001865931 0.0001865931 0.0001865931
0.0002331627 0.0002331627 0.0002331627
0.0002797008 0.0002797008 0.0002797008
0.0003262074 0.0003262074 0.0003262074
0.0003726825 0.0003726825 0.0003726825
0.0004191261 0.0004191261 0.0004191261
0.0004655382 0.0004655382 0.0004655382
0.0005119189 0.0005119189 0.0005119189
0.0005582680 0.0005582680 0.0005582680
0.0006045857 0.0006045857 0.0006045857
0.0006508719 0.0006508719 0.0006508719
0.0006971266 0.0006971266 0.0006971266
0.0007433498 0.0007433498 0.0007433498
0.0007895415 0.0007895415 0.0007895415
0.0008357017 0.0008357017 0.0008357017
0.0008818305 0.0008818305 0.0008818305
0.0009279277 0.0009279277 0.0009279277
0.0009739935 0.0009739935 0.0009739935
0.0010200278 0.0010200278 0.0010200278
0.0010660306 0.0010660306 0.0010660306
0.0011120019 0.0011120019 0.0011120019
0.0011579417 0.0011579417 0.0011579417
0.0012038501 0.0012038501 0.0012038501
0.0012497269 0.0012497269 0.0012497269
0.0012955723 0.0012955723 0.0012955723
0.0013413862 0.0013413862 0.0013413862
0.0013871686 0.0013871686 0.0013871686
0.0014329195 0.0014329195 0.0014329195
0.0014786389 0.0014786389 0.0014786389
0.0015243268 0.0015243268 0.0015243268
0.0015699832 0.0015699832 0.0015699832
0.0016156082 0.0016156082 0.0016156082
0.0016612017 0.0016612017 0.0016612017
0.0017067636 0.0017067636 0.0017067636
0.0017522941 0.0017522941 0.0017522941
0.0017977931 0.0017977931 0.0017977931
0.0018432607 0.0018432607 0.0018432607
0.0018886967 0.0018886967 0.0018886967
0.0019341012 0.0019341012 0.0019341012
0.0019794743 0.0019794743 0.0019794743
0.0020248159 0.0020248159 0.0020248159
0.0020701260 0.0020701260 0.0020701260
0.0021154046 0.0021154046 0.0021154046
0.0021606517 0.0021606517 0.0021606517
0.0022058673 0.0022058673 0.0022058673
0.0022510514 0.0022510514 0.0022510514
0.0022962041 0.0022962041 0.0022962041
0.0023413252 0.0023413252 0.0023413252
0.0023864149 0.0023864149 0.0023864149
0.0024314731 0.0024314731 0.0024314731
0.0024764998 0.0024764998 0.0024764998
0.0025214950 0.0025214950 0.0025214950
0.0025664587 0.0025664587 0.0025664587
0.0026113910 0.0026113910 0.0026113910
0.0026562917 0.0026562917 0.0026562917
0.0027011610 0.0027011610 0.0027011610
0.0027459988 0.0027459988 0.0027459988
0.0027908050 0.0027908050 0.0027908050
0.0028355798 0.0028355798 0.0028355798
0.0028803232 0.0028803232 0.0028803232
0.0029250350 0.0029250350 0.0029250350
0.0029697153 0.0029697153 0.0029697153
0.0030143642 0.0030143642 0.0030143642
0.0030589816 0.0030589816 0.0030589816
0.0031035674 0.0031035674 0.0031035674
0.0031481218 0.0031481218 0.0031481218
0.0031926447 0.0031926447 0.0031926447
0.0032371362 0.0032371362 0.0032371362
0.0032815961 0.0032815961 0.0032815961
0.0033260245 0.0033260245 0.0033260245
0.0033704215 0.0033704215 0.0033704215
0.0034147870 0.0034147870 0.0034147870
0.0034591209 0.0034591209 0.0034591209
0.0035034234 0.0035034234 0.0035034234
0.0035476945 0.0035476945 0.0035476945
0.0035919340 0.0035919340 0.0035919340
0.0036361420 0.0036361420 0.0036361420
0.0036803186 0.0036803186 0.0036803186
0.0037244636 0.0037244636 0.0037244636
0.0037685772 0.0037685772 0.0037685772
0.0038126593 0.0038126593 0.0038126593
0.0038567099 0.0038567099 0.0038567099
0.0039007290 0.0039007290 0.0039007290
0.0039447166 0.0039447166 0.0039447166
0.0039886728 0.0039886728 0.0039886728
0.0040325974 0.0040325974 0.0040325974
0.0040764906 0.0040764906 0.0040764906
0.0041203523 0.0041203523 0.0041203523
0.0041641824 0.0041641824 0.0041641824
0.0042079812 0.0042079812 0.0042079812
0.0042517484 0.0042517484 0.0042517484
0.0042954841 0.0042954841 0.0042954841
0.0043391883 0.0043391883 0.0043391883
0.0043828611 0.0043828611 0.0043828611
0.0044265024 0.0044265024 0.0044265024
0.0044701121 0.0044701121 0.0044701121
0.0045136904 0.0045136904 0.0045136904
0.0045572372 0.0045572372 0.0045572372
0.0046007526 0.0046007526 0.0046007526
0.0046442364 0.0046442364 0.0046442364
0.0046876887 0.0046876887 0.0046876887
0.0047311096 0.0047311096 0.0047311096
0.0047744990 0.0047744990 0.0047744990
0.0048178569 0.0048178569 0.0048178569
0.0048611833 0.0048611833 0.0048611833
0.0049044782 0.0049044782 0.0049044782
0.0049477416 0.0049477416 0.0049477416
0.0049909735 0.0049909735 0.0049909735
0.0050341740 0.0050341740 0.0050341740
0.0050773429 0.0050773429 0.0050773429
0.0051204804 0.0051204804 0.0051204804
0.0051635864 0.0051635864 0.0051635864
0.0052066609 0.0052066609 0.0052066609
0.0052497039 0.0052497039 0.0052497039
0.0052927154 0.0052927154 0.0052927154
0.0053356955 0.0053356955 0.0053356955
0.0053786440 0.0053786440 0.0053786440
0.0054215611 0.0054215611 0.0054215611
0.0054644467 0.0054644467 0.0054644467
0.0055073008 0.0055073008 0.0055073008
0.0055501234 0.0055501234 0.0055501234
0.0055929145 0.0055929145 0.0055929145
0.0056356741 0.0056356741 0.0056356741
0.0056784023 0.0056784023 0.0056784023
0.0057210989 0.0057210989 0.0057210989
0.0057637641 0.0057637641 0.0057637641
0.0058063978 0.0058063978 0.0058063978
0.0058490000 0.0058490000 0.0058490000
0.0058915707 0.0058915707 0.0058915707
0.0059341099 0.0059341099 0.0059341099
0.0059766176 0.0059766176 0.0059766176
0.0060190939 0.0060190939 0.0060190939
0.0060615386 0.0060615386 0.0060615386
0.0061039519 0.0061039519 0.0061039519
0.0061463337 0.0061463337 0.0061463337
0.0061886840 0.0061886840 0.0061886840
0.0062310028 0.0062310028 0.0062310028
0.0062732901 0.0062732901 0.0062732901
0.0063155460 0.0063155460 0.0063155460
0.0063577703 0.0063577703 0.0063577703
0.0063999632 0.0063999632 0.0063999632
0.0064421246 0.0064421246 0.0064421246
0.0064842544 0.0064842544 0.0064842544
0.0065263528 0.0065263528 0.0065263528
0.0065684198 0.0065684198 0.0065684198
0.0066104552 0.0066104552 0.0066104552
0.0066524591 0.0066524591 0.0066524591
0.0066944316 0.0066944316 0.0066944316
0.0067363725 0.0067363725 0.0067363725
0.0067782820 0.0067782820 0.0067782820
0.0068201600 0.0068201600 0.0068201600
0.0068620065 0.0068620065 0.0068620065
0.0069038215 0.0069038215 0.0069038215
0.0069456051 0.0069456051 0.0069456051
0.0069873571 0.0069873571 0.0069873571
0.0070290777 0.0070290777 0.0070290777
0.0070707667 0.0070707667 0.0070707667
0.0071124243 0.0071124243 0.0071124243
0.0071540504 0.0071540504 0.0071540504
0.0071956450 0.0071956450 0.0071956450
0.0072372082 0.0072372082 0.0072372082
0.0072787398 0.0072787398 0.0072787398
0.0073202399 0.0073202399 0.0073202399
0.0073617086 0.0073617086 0.0073617086
0.0074031458 0.0074031458 0.0074031458
0.0074445515 0.0074445515 0.0074445515
0.0074859257 0.0074859257 0.0074859257
0.0075272684 0.0075272684 0.0075272684
0.0075685796 0.0075685796 0.0075685796
0.0076098593 0.0076098593 0.0076098593
0.0076511076 0.0076511076 0.0076511076
0.0076923243 0.0076923243 0.0076923243
0.0077335096 0.0077335096 0.0077335096
0.0077746634 0.0077746634 0.0077746634
0.0078157857 0.0078157857 0.0078157857
0.0078568765 0.0078568765 0.0078568765
0.0078979359 0.0078979359 0.0078979359
0.0079389637 0.0079389637 0.0079389637
0.0079799600 0.0079799600 0.0079799600
0.0080209249 0.0080209249 0.0080209249
0.0080618583 0.0080618583 0.0080618583
0.0081027602 0.0081027602 0.0081027602
0.0081436306 0.0081436306 0.0081436306
0.0081844695 0.0081844695 0.0081844695
0.0082252769 0.0082252769 0.0082252769
0.0082660529 0.0082660529 0.0082660529
0.0083067973 0.0083067973 0.0083067973
0.0083475103 0.0083475103 0.0083475103
0.0083881918 0.0083881918 0.0083881918
0.0084288418 0.0084288418 0.0084288418
0.0084694603 0.0084694603 0.0084694603
0.0085100473 0.0085100473 0.0085100473
0.0085506029 0.0085506029 0.0085506029
0.0085911269 0.0085911269 0.0085911269
0.0086316195 0.0086316195 0.0086316195
0.0086720805 0.0086720805 0.0086720805
0.0087125101 0.0087125101 0.0087125101
0.0087529082 0.0087529082 0.0087529082
0.0087932748 0.0087932748 0.0087932748
0.0088336100 0.0088336100 0.0088336100
0.0088739136 0.0088739136 0.0088739136
0.0089141858 0.0089141858 0.0089141858
0.0089544264 0.0089544264 0.0089544264
0.0089946356 0.0089946356 0.0089946356
0.0090348133 0.0090348133 0.0090348133
0.0090749595 0.0090749595 0.0090749595
0.0091150742 0.0091150742 0.0091150742
0.0091551574 0.0091551574 0.0091551574
0.0091952092 0.0091952092 0.0091952092
0.0092352294 0.0092352294 0.0092352294
0.0092752182 0.0092752182 0.0092752182
0.0093151755 0.0093151755 0.0093151755
0.0093551013 0.0093551013 0.0093551013
0.0093949956 0.0093949956 0.0093949956
0.0094348584 0.0094348584 0.0094348584
0.0094746897 0.0094746897 0.0094746897
0.0095144896 0.0095144896 0.0095144896
0.0095542579 0.0095542579 0.0095542579
0.0095939948 0.0095939948 0.0095939948
0.0096337002 0.0096337002 0.0096337002
0.0096733741 0.0096733741 0.0096733741
0.0097130165 0.0097130165 0.0097130165
0.0097526274 0.0097526274 0.0097526274
0.0097922069 0.0097922069 0.0097922069
0.0098317548 0.0098317548 0.0098317548
0.0098712713 0.0098712713 0.0098712713
0.0099107562 0.0099107562 0.0099107562
0.0099502097 0.0099502097 0.0099502097
0.0099896317 0.0099896317 0.0099896317
0.0100290222 0.0100290222 0.0100290222
0.0100683813 0.0100683813 0.0100683813
0.0101077088 0.0101077088 0.0101077088
0.0101470049 0.0101470049 0.0101470049
0.0101862694 0.0101862694 0.0101862694
0.0102255025 0.0102255025 0.0102255025
0.0102647041 0.0102647041 0.0102647041
0.0103038742 0.0103038742 0.0103038742
0.0103430128 0.0103430128 0.0103430128
0.0103821199 0.0103821199 0.0103821199
0.0104211956 0.0104211956 0.0104211956
0.0104602397 0.0104602397 0.0104602397
0.0104992524 0.0104992524 0.0104992524
0.0105382336 0.0105382336 0.0105382336
0.0105771833 0.0105771833 0.0105771833
0.0106161015 0.0106161015 0.0106161015
0.0106549882 0.0106549882 0.0106549882
0.0106938434 0.0106938434 0.0106938434
0.0107326672 0.0107326672 0.0107326672
0.0107714594 0.0107714594 0.0107714594
0.0108102202 0.0108102202 0.0108102202
0.0108489495 0.0108489495 0.0108489495
0.0108876473 0.0108876473 0.0108876473
0.0109263136 0.0109263136 0.0109263136
0.0109649484 0.0109649484 0.0109649484
0.0110035518 0.0110035518 0.0110035518
0.0110421236 0.0110421236 0.0110421236
0.0110806640 0.0110806640 0.0110806640
0.0111191729 0.0111191729 0.0111191729
0.0111576502 0.0111576502 0.0111576502
0.0111960961 0.0111960961 0.0111960961
0.0112345106 0.0112345106 0.0112345106
0.0112728935 0.0112728935 0.0112728935
0.0113112449 0.0113112449 0.0113112449
0.0113495649 0.0113495649 0.0113495649
0.0113878533 0.0113878533 0.0113878533
0.0114261103 0.0114261103 0.0114261103
0.0114643358 0.0114643358 0.0114643358
0.0115025298 0.0115025298 0.0115025298
0.0115406923 0.0115406923 0.0115406923
0.0115788234 0.0115788234 0.0115788234
0.0116169229 0.0116169229 0.0116169229
0.0116549910 0.0116549910 0.0116549910
0.0116930275 0.0116930275 0.0116930275
0.0117310326 0.0117310326 0.0117310326
0.0117690062 0.0117690062 0.0117690062
0.0118069483 0.0118069483 0.0118069483
0.0118448589 0.0118448589 0.0118448589
0.0118827381 0.0118827381 0.0118827381
0.0119205857 0.0119205857 0.0119205857
0.0119584019 0.0119584019 0.0119584019
0.0119961865 0.0119961865 0.0119961865
0.0120339397 0.0120339397 0.0120339397
0.0120716614 0.0120716614 0.0120716614
0.0121093516 0.0121093516 0.0121093516
0.0121470104 0.0121470104 0.0121470104
0.0121846376 0.0121846376 0.0121846376
0.0122222334 0.0122222334 0.0122222334
0.0122597976 0.0122597976 0.0122597976
0.0122973304 0.0122973304 0.0122973304
0.0123348317 0.0123348317 0.0123348317
0.0123723015 0.0123723015 0.0123723015
0.0124097398 0.0124097398 0.0124097398
0.0124471466 0.0124471466 0.0124471466
0.0124845220 0.0124845220 0.0124845220
0.0125218658 0.0125218658 0.0125218658
0.0125591782 0.0125591782 0.0125591782
0.0125964591 0.0125964591 0.0125964591
0.0126337085 0.0126337085 0.0126337085
0.0126709264 0.0126709264 0.0126709264
0.0127081128 0.0127081128 0.0127081128
0.0127452677 0.0127452677 0.0127452677
0.0127823912 0.0127823912 0.0127823912
0.0128194831 0.0128194831 0.0128194831
0.0128565436 0.0128565436 0.0128565436
0.0128935726 0.0128935726 0.0128935726
0.0129305701 0.0129305701 0.0129305701
0.0129675361 0.0129675361 0.0129675361
0.0130044706 0.0130044706 0.0130044706
0.0130413736 0.0130413736 0.0130413736
0.0130782452 0.0130782452 0.0130782452
0.0131150852 0.0131150852 0.0131150852
0.0131518938 0.0131518938 0.0131518938
0.0131886709 0.0131886709 0.0131886709
0.0132254165 0.0132254165 0.0132254165
0.0132621306 0.0132621306 0.0132621306
0.0132988132 0.0132988132 0.0132988132
0.0133354644 0.0133354644 0.0133354644
0.0133720840 0.0133720840 0.0133720840
0.0134086722 0.0134086722 0.0134086722
0.0134452288 0.0134452288 0.0134452288
0.0134817540 0.0134817540 0.0134817540
0.0135182477 0.0135182477 0.0135182477
0.0135547100 0.0135547100 0.0135547100
0.0135911407 0.0135911407 0.0135911407
0.0136275399 0.0136275399 0.0136275399
0.0136639077 0.0136639077 0.0136639077
0.0137002439 0.0137002439 0.0137002439
0.0137365487 0.0137365487 0.0137365487
0.0137728220 0.0137728220 0.0137728220
0.0138090638 0.0138090638 0.0138090638
0.0138452741 0.0138452741 0.0138452741
0.0138814530 0.0138814530 0.0138814530
0.0139176003 0.0139176003 0.0139176003
0.0139537162 0.0139537162 0.0139537162
0.0139898005 0.0139898005 0.0139898005
0.0140258534 0.0140258534 0.0140258534
0.0140618748 0.0140618748 0.0140618748
0.0140978647 0.0140978647 0.0140978647
0.0141338232 0.0141338232 0.0141338232
0.0141697501 0.0141697501 0.0141697501
0.0142056455 0.0142056455 0.0142056455
0.0142415095 0.0142415095 0.0142415095
0.0142773420 0.0142773420 0.0142773420
0.0143131430 0.0143131430 0.0143131430
0.0143489125 0.0143489125 0.0143489125
0.0143846505 0.0143846505 0.0143846505
0.0144203570 0.0144203570 0.0144203570
0.0144560320 0.0144560320 0.0144560320
0.0144916756 0.0144916756 0.0144916756
0.0145272877 0.0145272877 0.0145272877
0.0145628682 0.0145628682 0.0145628682
0.0145984173 0.0145984173 0.0145984173
0.0146339349 0.0146339349 0.0146339349
0.0146694210 0.0146694210 0.0146694210
0.0147048757 0.0147048757 0.0147048757
0.0147402988 0.0147402988 0.0147402988
0.0147756905 0.0147756905 0.0147756905
0.0148110506 0.0148110506 0.0148110506
0.0148463793 0.0148463793 0.0148463793
0.0148816765 0.0148816765 0.0148816765
0.0149169422 0.0149169422 0.0149169422
0.0149521764 0.0149521764 0.0149521764
0.0149873792 0.0149873792 0.0149873792
0.0150225504 0.0150225504 0.0150225504
0.0150576902 0.0150576902 0.0150576902
0.0150927984 0.0150927984 0.0150927984
0.0151278752 0.0151278752 0.0151278752
0.0151629205 0.0151629205 0.0151629205
0.0151979343 0.0151979343 0.0151979343
0.0152329166 0.0152329166 0.0152329166
0.0152678675 0.0152678675 0.0152678675
0.0153027868 0.0153027868 0.0153027868
0.0153376747 0.0153376747 0.0153376747
0.0153725311 0.0153725311 0.0153725311
0.0154073560 0.0154073560 0.0154073560
0.0154421494 0.0154421494 0.0154421494
0.0154769113 0.0154769113 0.0154769113
0.0155116417 0.0155116417 0.0155116417
0.0155463406 0.0155463406 0.0155463406
0.0155810081 0.0155810081 0.0155810081
0.0156156441 0.0156156441 0.0156156441
0.0156502485 0.0156502485 0.0156502485
0.0156848215 0.0156848215 0.0156848215
0.0157193630 0.0157193630 0.0157193630
0.0157538730 0.0157538730 0.0157538730
0.0157883516 0.0157883516 0.0157883516
0.0158227986 0.0158227986 0.0158227986
0.0158572142 0.0158572142 0.0158572142
0.0158915982 0.0158915982 0.0158915982
0.0159259508 0.0159259508 0.0159259508
0.0159602719 0.0159602719 0.0159602719
0.0159945615 0.0159945615 0.0159945615
0.0160288196 0.0160288196 0.0160288196
0.0160630463 0.0160630463 0.0160630463
0.0160972414 0.0160972414 0.0160972414
0.0161314051 0.0161314051 0.0161314051
0.0161655372 0.0161655372 0.0161655372
0.0161996379 0.0161996379 0.0161996379
0.0162337071 0.0162337071 0.0162337071
0.0162677448 0.0162677448 0.0162677448
0.0163017511 0.0163017511 0.0163017511
0.0163357258 0.0163357258 0.0163357258
0.0163696690 0.0163696690 0.0163696690
0.0164035808 0.0164035808 0.0164035808
0.0164374611 0.0164374611 0.0164374611
0.0164713099 0.0164713099 0.0164713099
0.0165051272 0.0165051272 0.0165051272
0.0165389130 0.0165389130 0.0165389130
0.0165726673 0.0165726673 0.0165726673
0.0166063902 0.0166063902 0.0166063902
0.0166400815 0.0166400815 0.0166400815
0.0166737414 0.0166737414 0.0166737414
0.0167073697 0.0167073697 0.0167073697
0.0167409666 0.0167409666 0.0167409666
0.0167745320 0.0167745320 0.0167745320
0.0168080660 0.0168080660 0.0168080660
0.0168415684 0.0168415684 0.0168415684
0.0168750393 0.0168750393 0.0168750393
0.0169084788 0.0169084788 0.0169084788
0.0169418868 0.0169418868 0.0169418868
0.0169752632 0.0169752632 0.0169752632
0.0170086082 0.0170086082 0.0170086082
0.0170419217 0.0170419217 0.0170419217
0.0170752038 0.0170752038 0.0170752038
0.0171084543 0.0171084543 0.0171084543
0.0171416733 0.0171416733 0.0171416733
0.0171748609 0.0171748609 0.0171748609
0.0172080170 0.0172080170 0.0172080170
0.0172411416 0.0172411416 0.0172411416
0.0172742347 0.0172742347 0.0172742347
0.0173072963 0.0173072963 0.0173072963
0.0173403264 0.0173403264 0.0173403264
0.0173733250 0.0173733250 0.0173733250
0.0174062922 0.0174062922 0.0174062922
0.0174392278 0.0174392278 0.0174392278
0.0174721320 0.0174721320 0.0174721320
0.0175050047 0.0175050047 0.0175050047
0.0175378459 0.0175378459 0.0175378459
0.0175706556 0.0175706556 0.0175706556
0.0176034339 0.0176034339 0.0176034339
0.0176361806 0.0176361806 0.0176361806
0.0176688958 0.0176688958 0.0176688958
0.0177015796 0.0177015796 0.0177015796
0.0177342319 0.0177342319 0.0177342319
0.0177668527 0.0177668527 0.0177668527
0.0177994420 0.0177994420 0.0177994420
0.0178319998 0.0178319998 0.0178319998
0.0178645261 0.0178645261 0.0178645261
0.0178970210 0.0178970210 0.0178970210
0.0179294843 0.0179294843 0.0179294843
0.0179619162 0.0179619162 0.0179619162
0.0179943166 0.0179943166 0.0179943166
0.0180266855 0.0180266855 0.0180266855
0.0180590229 0.0180590229 0.0180590229
0.0180913288 0.0180913288 0.0180913288
0.0181236032 0.0181236032 0.0181236032
0.0181558462 0.0181558462 0.0181558462
0.0181880577 0.0181880577 0.0181880577
0.0182202376 0.0182202376 0.0182202376
0.0182523861 0.0182523861 0.0182523861
0.0182845031 0.0182845031 0.0182845031
0.0183165886 0.0183165886 0.0183165886
0.0183486426 0.0183486426 0.0183486426
0.0183806652 0.0183806652 0.0183806652
0.0184126562 0.0184126562 0.0184126562
0.0184446158 0.0184446158 0.0184446158
0.0184765439 0.0184765439 0.0184765439
0.0185084405 0.0185084405 0.0185084405
0.0185403056 0.0185403056 0.0185403056
0.0185721392 0.0185721392 0.0185721392
0.0186039413 0.0186039413 0.0186039413
0.0186357120 0.0186357120 0.0186357120
0.0186674511 0.0186674511 0.0186674511
0.0186991588 0.0186991588 0.0186991588
0.0187308350 0.0187308350 0.0187308350
0.0187624796 0.0187624796 0.0187624796
0.0187940928 0.0187940928 0.0187940928
0.0188256746 0.0188256746 0.0188256746
0.0188572248 0.0188572248 0.0188572248
0.0188887435 0.0188887435 0.0188887435
0.0189202308 0.0189202308 0.0189202308
0.0189516866 0.0189516866 0.0189516866
0.0189831109 0.0189831109 0.0189831109
0.0190145036 0.0190145036 0.0190145036
0.0190458650 0.0190458650 0.0190458650
0.0190771948 0.0190771948 0.0190771948
0.0191084931 0.0191084931 0.0191084931
0.0191397600 0.0191397600 0.0191397600
0.0191709953 0.0191709953 0.0191709953
0.0192021992 0.0192021992 0.0192021992
0.0192333716 0.0192333716 0.0192333716
0.0192645125 0.0192645125 0.0192645125
0.0192956219 0.0192956219 0.0192956219
0.0193266998 0.0193266998 0.0193266998
0.0193577463 0.0193577463 0.0193577463
0.0193887612 0.0193887612 0.0193887612
0.0194197447 0.0194197447 0.0194197447
0.0194506967 0.0194506967 0.0194506967
0.0194816171 0.0194816171 0.0194816171
0.0195125061 0.0195125061 0.0195125061
0.0195433637 0.0195433637 0.0195433637
0.0195741897 0.0195741897 0.0195741897
0.0196049842 0.0196049842 0.0196049842
0.0196357473 0.0196357473 0.0196357473
0.0196664789 0.0196664789 0.0196664789
0.0196971789 0.0196971789 0.0196971789
0.0197278475 0.0197278475 0.0197278475
0.0197584846 0.0197584846 0.0197584846
0.0197890903 0.0197890903 0.0197890903
0.0198196644 0.0198196644 0.0198196644
0.0198502070 0.0198502070 0.0198502070
0.0198807182 0.0198807182 0.0198807182
0.0199111979 0.0199111979 0.0199111979
0.0199416460 0.0199416460 0.0199416460
0.0199720627 0.0199720627 0.0199720627
0.0200024479 0.0200024479 0.0200024479
0.0200328017 0.0200328017 0.0200328017
0.0200631239 0.0200631239 0.0200631239
0.0200934147 0.0200934147 0.0200934147
0.0201236739 0.0201236739 0.0201236739
0.0201539017 0.0201539017 0.0201539017
0.0201840980 0.0201840980 0.0201840980
0.0202142628 0.0202142628 0.0202142628
0.0202443961 0.0202443961 0.0202443961
0.0202744979 0.0202744979 0.0202744979
0.0203045683 0.0203045683 0.0203045683
0.0203346071 0.0203346071 0.0203346071
0.0203646145 0.0203646145 0.0203646145
0.0203945903 0.0203945903 0.0203945903
0.0204245347 0.0204245347 0.0204245347
0.0204544476 0.0204544476 0.0204544476
0.0204843291 0.0204843291 0.0204843291
0.0205141790 0.0205141790 0.0205141790
0.0205439974 0.0205439974 0.0205439974
0.0205737844 0.0205737844 0.0205737844
0.0206035399 0.0206035399 0.0206035399
0.0206332638 0.0206332638 0.0206332638
0.0206629563 0.0206629563 0.0206629563
0.0206926173 0.0206926173 0.0206926173
0.0207222469 0.0207222469 0.0207222469
0.0207518449 0.0207518449 0.0207518449
0.0207814114 0.0207814114 0.0207814114
0.0208109465 0.0208109465 0.0208109465
0.0208404501 0.0208404501 0.0208404501
0.0208699221 0.0208699221 0.0208699221
0.0208993627 0.0208993627 0.0208993627
0.0209287719 0.0209287719 0.0209287719
0.0209581495 0.0209581495 0.0209581495
0.0209874956 0.0209874956 0.0209874956
0.0210168103 0.0210168103 0.0210168103
0.0210460934 0.0210460934 0.0210460934
0.0210753451 0.0210753451 0.0210753451
0.0211045653 0.0211045653 0.0211045653
0.0211337540 0.0211337540 0.0211337540
0.0211629112 0.0211629112 0.0211629112
0.0211920369 0.0211920369 0.0211920369
0.0212211312 0.0212211312 0.0212211312
0.0212501939 0.0212501939 0.0212501939
0.0212792252 0.0212792252 0.0212792252
0.0213082250 0.0213082250 0.0213082250
0.0213371933 0.0213371933 0.0213371933
0.0213661301 0.0213661301 0.0213661301
0.0213950354 0.0213950354 0.0213950354
0.0214239092 0.0214239092 0.0214239092
0.0214527516 0.0214527516 0.0214527516
0.0214815624 0.0214815624 0.0214815624
0.0215103418 0.0215103418 0.0215103418
0.0215390897 0.0215390897 0.0215390897
0.0215678061 0.0215678061 0.0215678061
0.0215964910 0.0215964910 0.0215964910
0.0216251444 0.0216251444 0.0216251444
0.0216537663 0.0216537663 0.0216537663
0.0216823568 0.0216823568 0.0216823568
0.0217109157 0.0217109157 0.0217109157
0.0217394432 0.0217394432 0.0217394432
0.0217679392 0.0217679392 0.0217679392
0.0217964037 0.0217964037 0.0217964037
0.0218248367 0.0218248367 0.0218248367
0.0218532382 0.0218532382 0.0218532382
0.0218816082 0.0218816082 0.0218816082
0.0219099468 0.0219099468 0.0219099468
0.0219382539 0.0219382539 0.0219382539
0.0219665294 0.0219665294 0.0219665294
0.0219947735 0.0219947735 0.0219947735
0.0220229861 0.0220229861 0.0220229861
0.0220511672 0.0220511672 0.0220511672
0.0220793169 0.0220793169 0.0220793169
0.0221074350 0.0221074350 0.0221074350
0.0221355217 0.0221355217 0.0221355217
0.0221635768 0.0221635768 0.0221635768
0.0221916005 0.0221916005 0.0221916005
0.0222195927 0.0222195927 0.0222195927
0.0222475534 0.0222475534 0.0222475534
0.0222754826 0.0222754826 0.0222754826
0.0223033804 0.0223033804 0.0223033804
0.0223312466 0.0223312466 0.0223312466
0.0223590814 0.0223590814 0.0223590814
0.0223868846 0.0223868846 0.0223868846
0.0224146564 0.0224146564 0.0224146564
0.0224423967 0.0224423967 0.0224423967
0.0224701055 0.0224701055 0.0224701055
0.0224977828 0.0224977828 0.0224977828
0.0225254287 0.0225254287 0.0225254287
0.0225530430 0.0225530430 0.0225530430
