skills/davinci/davinci-film-colorist/assets/tonality/GreenShape_250D_DWG_DI_static.cube
# DWG/DaVinci Intermediate -> same. Independent channels. Input domain ONLY 0..1.
# Outside input domain requires DCTL; host may clamp/extrapolate. No display transform.
TITLE "GreenShape_250D_DWG_DI_static"
LUT_1D_SIZE 65536
DOMAIN_MIN 0.0 0.0 0.0
DOMAIN_MAX 1.0 1.0 1.0
0.0000000000 0.0000000000 0.0000000000
0.0001002744 0.0001002744 0.0001002744
0.0002004712 0.0002004712 0.0002004712
0.0003005905 0.0003005905 0.0003005905
0.0004006323 0.0004006323 0.0004006323
0.0005005965 0.0005005965 0.0005005965
0.0006004832 0.0006004832 0.0006004832
0.0007002924 0.0007002924 0.0007002924
0.0008000240 0.0008000240 0.0008000240
0.0008996781 0.0008996781 0.0008996781
0.0009992546 0.0009992546 0.0009992546
0.0010987536 0.0010987536 0.0010987536
0.0011981751 0.0011981751 0.0011981751
0.0012975190 0.0012975190 0.0012975190
0.0013967854 0.0013967854 0.0013967854
0.0014959743 0.0014959743 0.0014959743
0.0015950857 0.0015950857 0.0015950857
0.0016941195 0.0016941195 0.0016941195
0.0017930757 0.0017930757 0.0017930757
0.0018919544 0.0018919544 0.0018919544
0.0019907556 0.0019907556 0.0019907556
0.0020894793 0.0020894793 0.0020894793
0.0021881254 0.0021881254 0.0021881254
0.0022866940 0.0022866940 0.0022866940
0.0023851850 0.0023851850 0.0023851850
0.0024835985 0.0024835985 0.0024835985
0.0025819345 0.0025819345 0.0025819345
0.0026801930 0.0026801930 0.0026801930
0.0027783739 0.0027783739 0.0027783739
0.0028764772 0.0028764772 0.0028764772
0.0029745031 0.0029745031 0.0029745031
0.0030724514 0.0030724514 0.0030724514
0.0031703221 0.0031703221 0.0031703221
0.0032681153 0.0032681153 0.0032681153
0.0033658310 0.0033658310 0.0033658310
0.0034634692 0.0034634692 0.0034634692
0.0035610298 0.0035610298 0.0035610298
0.0036585129 0.0036585129 0.0036585129
0.0037559184 0.0037559184 0.0037559184
0.0038532464 0.0038532464 0.0038532464
0.0039504969 0.0039504969 0.0039504969
0.0040476698 0.0040476698 0.0040476698
0.0041447652 0.0041447652 0.0041447652
0.0042417831 0.0042417831 0.0042417831
0.0043387234 0.0043387234 0.0043387234
0.0044355862 0.0044355862 0.0044355862
0.0045323715 0.0045323715 0.0045323715
0.0046290792 0.0046290792 0.0046290792
0.0047257094 0.0047257094 0.0047257094
0.0048222620 0.0048222620 0.0048222620
0.0049187372 0.0049187372 0.0049187372
0.0050151347 0.0050151347 0.0050151347
0.0051114548 0.0051114548 0.0051114548
0.0052076973 0.0052076973 0.0052076973
0.0053038623 0.0053038623 0.0053038623
0.0053999497 0.0053999497 0.0053999497
0.0054959596 0.0054959596 0.0054959596
0.0055918919 0.0055918919 0.0055918919
0.0056877468 0.0056877468 0.0056877468
0.0057835241 0.0057835241 0.0057835241
0.0058792238 0.0058792238 0.0058792238
0.0059748460 0.0059748460 0.0059748460
0.0060703907 0.0060703907 0.0060703907
0.0061658579 0.0061658579 0.0061658579
0.0062612475 0.0062612475 0.0062612475
0.0063565596 0.0063565596 0.0063565596
0.0064517941 0.0064517941 0.0064517941
0.0065469511 0.0065469511 0.0065469511
0.0066420306 0.0066420306 0.0066420306
0.0067370325 0.0067370325 0.0067370325
0.0068319569 0.0068319569 0.0068319569
0.0069268037 0.0069268037 0.0069268037
0.0070215731 0.0070215731 0.0070215731
0.0071162649 0.0071162649 0.0071162649
0.0072108791 0.0072108791 0.0072108791
0.0073054158 0.0073054158 0.0073054158
0.0073998750 0.0073998750 0.0073998750
0.0074942567 0.0074942567 0.0074942567
0.0075885608 0.0075885608 0.0075885608
0.0076827873 0.0076827873 0.0076827873
0.0077769364 0.0077769364 0.0077769364
0.0078710079 0.0078710079 0.0078710079
0.0079650018 0.0079650018 0.0079650018
0.0080589183 0.0080589183 0.0080589183
0.0081527572 0.0081527572 0.0081527572
0.0082465185 0.0082465185 0.0082465185
0.0083402023 0.0083402023 0.0083402023
0.0084338086 0.0084338086 0.0084338086
0.0085273374 0.0085273374 0.0085273374
0.0086207886 0.0086207886 0.0086207886
0.0087141623 0.0087141623 0.0087141623
0.0088074584 0.0088074584 0.0088074584
0.0089006770 0.0089006770 0.0089006770
0.0089938181 0.0089938181 0.0089938181
0.0090868816 0.0090868816 0.0090868816
0.0091798676 0.0091798676 0.0091798676
0.0092727761 0.0092727761 0.0092727761
0.0093656070 0.0093656070 0.0093656070
0.0094583604 0.0094583604 0.0094583604
0.0095510363 0.0095510363 0.0095510363
0.0096436346 0.0096436346 0.0096436346
0.0097361554 0.0097361554 0.0097361554
0.0098285986 0.0098285986 0.0098285986
0.0099209643 0.0099209643 0.0099209643
0.0100132525 0.0100132525 0.0100132525
0.0101054631 0.0101054631 0.0101054631
0.0101975962 0.0101975962 0.0101975962
0.0102896518 0.0102896518 0.0102896518
0.0103816298 0.0103816298 0.0103816298
0.0104735303 0.0104735303 0.0104735303
0.0105653533 0.0105653533 0.0105653533
0.0106570987 0.0106570987 0.0106570987
0.0107487666 0.0107487666 0.0107487666
0.0108403569 0.0108403569 0.0108403569
0.0109318698 0.0109318698 0.0109318698
0.0110233050 0.0110233050 0.0110233050
0.0111146628 0.0111146628 0.0111146628
0.0112059430 0.0112059430 0.0112059430
0.0112971457 0.0112971457 0.0112971457
0.0113882708 0.0113882708 0.0113882708
0.0114793184 0.0114793184 0.0114793184
0.0115702885 0.0115702885 0.0115702885
0.0116611810 0.0116611810 0.0116611810
0.0117519960 0.0117519960 0.0117519960
0.0118427335 0.0118427335 0.0118427335
0.0119333934 0.0119333934 0.0119333934
0.0120239758 0.0120239758 0.0120239758
0.0121144806 0.0121144806 0.0121144806
0.0122049079 0.0122049079 0.0122049079
0.0122952577 0.0122952577 0.0122952577
0.0123855299 0.0123855299 0.0123855299
0.0124757247 0.0124757247 0.0124757247
0.0125658418 0.0125658418 0.0125658418
0.0126558815 0.0126558815 0.0126558815
0.0127458436 0.0127458436 0.0127458436
0.0128357281 0.0128357281 0.0128357281
0.0129255351 0.0129255351 0.0129255351
0.0130152646 0.0130152646 0.0130152646
0.0131049166 0.0131049166 0.0131049166
0.0131944910 0.0131944910 0.0131944910
0.0132839879 0.0132839879 0.0132839879
0.0133734072 0.0133734072 0.0133734072
0.0134627490 0.0134627490 0.0134627490
0.0135520133 0.0135520133 0.0135520133
0.0136412001 0.0136412001 0.0136412001
0.0137303093 0.0137303093 0.0137303093
0.0138193409 0.0138193409 0.0138193409
0.0139082951 0.0139082951 0.0139082951
0.0139971717 0.0139971717 0.0139971717
0.0140859707 0.0140859707 0.0140859707
0.0141746922 0.0141746922 0.0141746922
0.0142633362 0.0142633362 0.0142633362
0.0143519027 0.0143519027 0.0143519027
0.0144403916 0.0144403916 0.0144403916
0.0145288030 0.0145288030 0.0145288030
0.0146171368 0.0146171368 0.0146171368
0.0147053931 0.0147053931 0.0147053931
0.0147935719 0.0147935719 0.0147935719
0.0148816731 0.0148816731 0.0148816731
0.0149696968 0.0149696968 0.0149696968
0.0150576430 0.0150576430 0.0150576430
0.0151455116 0.0151455116 0.0151455116
0.0152333027 0.0152333027 0.0152333027
0.0153210163 0.0153210163 0.0153210163
0.0154086523 0.0154086523 0.0154086523
0.0154962108 0.0154962108 0.0154962108
0.0155836917 0.0155836917 0.0155836917
0.0156710952 0.0156710952 0.0156710952
0.0157584210 0.0157584210 0.0157584210
0.0158456694 0.0158456694 0.0158456694
0.0159328402 0.0159328402 0.0159328402
0.0160199335 0.0160199335 0.0160199335
0.0161069492 0.0161069492 0.0161069492
0.0161938874 0.0161938874 0.0161938874
0.0162807481 0.0162807481 0.0162807481
0.0163675312 0.0163675312 0.0163675312
0.0164542368 0.0164542368 0.0164542368
0.0165408648 0.0165408648 0.0165408648
0.0166274153 0.0166274153 0.0166274153
0.0167138883 0.0167138883 0.0167138883
0.0168002838 0.0168002838 0.0168002838
0.0168866017 0.0168866017 0.0168866017
0.0169728421 0.0169728421 0.0169728421
0.0170590049 0.0170590049 0.0170590049
0.0171450902 0.0171450902 0.0171450902
0.0172310980 0.0172310980 0.0172310980
0.0173170282 0.0173170282 0.0173170282
0.0174028809 0.0174028809 0.0174028809
0.0174886561 0.0174886561 0.0174886561
0.0175743537 0.0175743537 0.0175743537
0.0176599738 0.0176599738 0.0176599738
0.0177455163 0.0177455163 0.0177455163
0.0178309813 0.0178309813 0.0178309813
0.0179163688 0.0179163688 0.0179163688
0.0180016788 0.0180016788 0.0180016788
0.0180869112 0.0180869112 0.0180869112
0.0181720661 0.0181720661 0.0181720661
0.0182571434 0.0182571434 0.0182571434
0.0183421432 0.0183421432 0.0183421432
0.0184270655 0.0184270655 0.0184270655
0.0185119102 0.0185119102 0.0185119102
0.0185966774 0.0185966774 0.0185966774
0.0186813670 0.0186813670 0.0186813670
0.0187659792 0.0187659792 0.0187659792
0.0188505137 0.0188505137 0.0188505137
0.0189349708 0.0189349708 0.0189349708
0.0190193503 0.0190193503 0.0190193503
0.0191036523 0.0191036523 0.0191036523
0.0191878767 0.0191878767 0.0191878767
0.0192720236 0.0192720236 0.0192720236
0.0193560930 0.0193560930 0.0193560930
0.0194400848 0.0194400848 0.0194400848
0.0195239991 0.0195239991 0.0195239991
0.0196078359 0.0196078359 0.0196078359
0.0196915951 0.0196915951 0.0196915951
0.0197752768 0.0197752768 0.0197752768
0.0198588810 0.0198588810 0.0198588810
0.0199424076 0.0199424076 0.0199424076
0.0200258567 0.0200258567 0.0200258567
0.0201092282 0.0201092282 0.0201092282
0.0201925222 0.0201925222 0.0201925222
0.0202757387 0.0202757387 0.0202757387
0.0203588776 0.0203588776 0.0203588776
0.0204419390 0.0204419390 0.0204419390
0.0205249229 0.0205249229 0.0205249229
0.0206078292 0.0206078292 0.0206078292
0.0206906580 0.0206906580 0.0206906580
0.0207734093 0.0207734093 0.0207734093
0.0208560830 0.0208560830 0.0208560830
0.0209386792 0.0209386792 0.0209386792
0.0210211979 0.0210211979 0.0210211979
0.0211036390 0.0211036390 0.0211036390
0.0211860026 0.0211860026 0.0211860026
0.0212682886 0.0212682886 0.0212682886
0.0213504971 0.0213504971 0.0213504971
0.0214326281 0.0214326281 0.0214326281
0.0215146815 0.0215146815 0.0215146815
0.0215966574 0.0215966574 0.0215966574
0.0216785558 0.0216785558 0.0216785558
0.0217603766 0.0217603766 0.0217603766
0.0218421199 0.0218421199 0.0218421199
0.0219237857 0.0219237857 0.0219237857
0.0220053739 0.0220053739 0.0220053739
0.0220868846 0.0220868846 0.0220868846
0.0221683177 0.0221683177 0.0221683177
0.0222496733 0.0222496733 0.0222496733
0.0223309514 0.0223309514 0.0223309514
0.0224121520 0.0224121520 0.0224121520
0.0224932750 0.0224932750 0.0224932750
0.0225743204 0.0225743204 0.0225743204
0.0226552884 0.0226552884 0.0226552884
0.0227361788 0.0227361788 0.0227361788
0.0228169916 0.0228169916 0.0228169916
0.0228977270 0.0228977270 0.0228977270
0.0229783848 0.0229783848 0.0229783848
0.0230589650 0.0230589650 0.0230589650
0.0231394677 0.0231394677 0.0231394677
0.0232198929 0.0232198929 0.0232198929
0.0233002406 0.0233002406 0.0233002406
0.0233805107 0.0233805107 0.0233805107
0.0234607033 0.0234607033 0.0234607033
0.0235408183 0.0235408183 0.0235408183
0.0236208558 0.0236208558 0.0236208558
0.0237008158 0.0237008158 0.0237008158
0.0237806982 0.0237806982 0.0237806982
0.0238605031 0.0238605031 0.0238605031
0.0239402305 0.0239402305 0.0239402305
0.0240198803 0.0240198803 0.0240198803
0.0240994526 0.0240994526 0.0240994526
0.0241789473 0.0241789473 0.0241789473
0.0242583645 0.0242583645 0.0242583645
0.0243377042 0.0243377042 0.0243377042
0.0244169664 0.0244169664 0.0244169664
0.0244961510 0.0244961510 0.0244961510
0.0245752580 0.0245752580 0.0245752580
0.0246542876 0.0246542876 0.0246542876
0.0247332396 0.0247332396 0.0247332396
0.0248121140 0.0248121140 0.0248121140
0.0248909110 0.0248909110 0.0248909110
0.0249696304 0.0249696304 0.0249696304
0.0250482722 0.0250482722 0.0250482722
0.0251268365 0.0251268365 0.0251268365
0.0252053233 0.0252053233 0.0252053233
0.0252837326 0.0252837326 0.0252837326
0.0253620643 0.0253620643 0.0253620643
0.0254403185 0.0254403185 0.0254403185
0.0255184951 0.0255184951 0.0255184951
0.0255965942 0.0255965942 0.0255965942
0.0256746158 0.0256746158 0.0256746158
0.0257525598 0.0257525598 0.0257525598
0.0258304263 0.0258304263 0.0258304263
0.0259082153 0.0259082153 0.0259082153
0.0259859267 0.0259859267 0.0259859267
0.0260635606 0.0260635606 0.0260635606
0.0261411170 0.0261411170 0.0261411170
0.0262185958 0.0262185958 0.0262185958
0.0262959971 0.0262959971 0.0262959971
0.0263733208 0.0263733208 0.0263733208
0.0264505670 0.0264505670 0.0264505670
0.0265277357 0.0265277357 0.0265277357
0.0266048268 0.0266048268 0.0266048268
0.0266818404 0.0266818404 0.0266818404
0.0267587765 0.0267587765 0.0267587765
0.0268356350 0.0268356350 0.0268356350
0.0269124160 0.0269124160 0.0269124160
0.0269891195 0.0269891195 0.0269891195
0.0270657454 0.0270657454 0.0270657454
0.0271422938 0.0271422938 0.0271422938
0.0272187647 0.0272187647 0.0272187647
0.0272951580 0.0272951580 0.0272951580
0.0273714738 0.0273714738 0.0273714738
0.0274477037 0.0274477037 0.0274477037
0.0275238075 0.0275238075 0.0275238075
0.0275997791 0.0275997791 0.0275997791
0.0276756189 0.0276756189 0.0276756189
0.0277513270 0.0277513270 0.0277513270
0.0278269037 0.0278269037 0.0278269037
0.0279023493 0.0279023493 0.0279023493
0.0279776640 0.0279776640 0.0279776640
0.0280528480 0.0280528480 0.0280528480
0.0281279015 0.0281279015 0.0281279015
0.0282028249 0.0282028249 0.0282028249
0.0282776183 0.0282776183 0.0282776183
0.0283522820 0.0283522820 0.0283522820
0.0284268163 0.0284268163 0.0284268163
0.0285012212 0.0285012212 0.0285012212
0.0285754972 0.0285754972 0.0285754972
0.0286496445 0.0286496445 0.0286496445
0.0287236632 0.0287236632 0.0287236632
0.0287975535 0.0287975535 0.0287975535
0.0288713159 0.0288713159 0.0288713159
0.0289449503 0.0289449503 0.0289449503
0.0290184572 0.0290184572 0.0290184572
0.0290918367 0.0290918367 0.0290918367
0.0291650891 0.0291650891 0.0291650891
0.0292382145 0.0292382145 0.0292382145
0.0293112133 0.0293112133 0.0293112133
0.0293840856 0.0293840856 0.0293840856
0.0294568316 0.0294568316 0.0294568316
0.0295294517 0.0295294517 0.0295294517
0.0296019460 0.0296019460 0.0296019460
0.0296743147 0.0296743147 0.0296743147
0.0297465581 0.0297465581 0.0297465581
0.0298186763 0.0298186763 0.0298186763
0.0298906697 0.0298906697 0.0298906697
0.0299625384 0.0299625384 0.0299625384
0.0300342827 0.0300342827 0.0300342827
0.0301059027 0.0301059027 0.0301059027
0.0301773987 0.0301773987 0.0301773987
0.0302487709 0.0302487709 0.0302487709
0.0303200196 0.0303200196 0.0303200196
0.0303911449 0.0303911449 0.0303911449
0.0304621471 0.0304621471 0.0304621471
0.0305330263 0.0305330263 0.0305330263
0.0306037829 0.0306037829 0.0306037829
0.0306744169 0.0306744169 0.0306744169
0.0307449287 0.0307449287 0.0307449287
0.0308153184 0.0308153184 0.0308153184
0.0308855862 0.0308855862 0.0308855862
0.0309557324 0.0309557324 0.0309557324
0.0310257572 0.0310257572 0.0310257572
0.0310956608 0.0310956608 0.0310956608
0.0311654433 0.0311654433 0.0311654433
0.0312351051 0.0312351051 0.0312351051
0.0313046462 0.0313046462 0.0313046462
0.0313740670 0.0313740670 0.0313740670
0.0314433676 0.0314433676 0.0314433676
0.0315125482 0.0315125482 0.0315125482
0.0315816091 0.0315816091 0.0315816091
0.0316505503 0.0316505503 0.0316505503
0.0317193723 0.0317193723 0.0317193723
0.0317880750 0.0317880750 0.0317880750
0.0318566589 0.0318566589 0.0318566589
0.0319251240 0.0319251240 0.0319251240
0.0319934705 0.0319934705 0.0319934705
0.0320616987 0.0320616987 0.0320616987
0.0321298087 0.0321298087 0.0321298087
0.0321978008 0.0321978008 0.0321978008
0.0322656752 0.0322656752 0.0322656752
0.0323334320 0.0323334320 0.0323334320
0.0324010714 0.0324010714 0.0324010714
0.0324685937 0.0324685937 0.0324685937
0.0325359991 0.0325359991 0.0325359991
0.0326032877 0.0326032877 0.0326032877
0.0326704597 0.0326704597 0.0326704597
0.0327375153 0.0327375153 0.0327375153
0.0328044548 0.0328044548 0.0328044548
0.0328712783 0.0328712783 0.0328712783
0.0329379860 0.0329379860 0.0329379860
0.0330045782 0.0330045782 0.0330045782
0.0330710549 0.0330710549 0.0330710549
0.0331374164 0.0331374164 0.0331374164
0.0332036629 0.0332036629 0.0332036629
0.0332697945 0.0332697945 0.0332697945
0.0333358115 0.0333358115 0.0333358115
0.0334017141 0.0334017141 0.0334017141
0.0334675024 0.0334675024 0.0334675024
0.0335331766 0.0335331766 0.0335331766
0.0335987369 0.0335987369 0.0335987369
0.0336641835 0.0336641835 0.0336641835
0.0337295166 0.0337295166 0.0337295166
0.0337947364 0.0337947364 0.0337947364
0.0338598430 0.0338598430 0.0338598430
0.0339248366 0.0339248366 0.0339248366
0.0339897175 0.0339897175 0.0339897175
0.0340544858 0.0340544858 0.0340544858
0.0341191416 0.0341191416 0.0341191416
0.0341836852 0.0341836852 0.0341836852
0.0342481168 0.0342481168 0.0342481168
0.0343124365 0.0343124365 0.0343124365
0.0343766445 0.0343766445 0.0343766445
0.0344407410 0.0344407410 0.0344407410
0.0345047262 0.0345047262 0.0345047262
0.0345686002 0.0345686002 0.0345686002
0.0346323633 0.0346323633 0.0346323633
0.0346960155 0.0346960155 0.0346960155
0.0347595571 0.0347595571 0.0347595571
0.0348229883 0.0348229883 0.0348229883
0.0348863092 0.0348863092 0.0348863092
0.0349495200 0.0349495200 0.0349495200
0.0350126209 0.0350126209 0.0350126209
0.0350756120 0.0350756120 0.0350756120
0.0351384936 0.0351384936 0.0351384936
0.0352012658 0.0352012658 0.0352012658
0.0352639287 0.0352639287 0.0352639287
0.0353264826 0.0353264826 0.0353264826
0.0353889276 0.0353889276 0.0353889276
0.0354512639 0.0354512639 0.0354512639
0.0355134917 0.0355134917 0.0355134917
0.0355756111 0.0355756111 0.0355756111
0.0356376223 0.0356376223 0.0356376223
0.0356995254 0.0356995254 0.0356995254
0.0357613207 0.0357613207 0.0357613207
0.0358230083 0.0358230083 0.0358230083
0.0358845884 0.0358845884 0.0358845884
0.0359460611 0.0359460611 0.0359460611
0.0360074266 0.0360074266 0.0360074266
0.0360686851 0.0360686851 0.0360686851
0.0361298367 0.0361298367 0.0361298367
0.0361908816 0.0361908816 0.0361908816
0.0362518199 0.0362518199 0.0362518199
0.0363126520 0.0363126520 0.0363126520
0.0363733777 0.0363733777 0.0363733777
0.0364339975 0.0364339975 0.0364339975
0.0364945114 0.0364945114 0.0364945114
0.0365549195 0.0365549195 0.0365549195
0.0366152221 0.0366152221 0.0366152221
0.0366754193 0.0366754193 0.0366754193
0.0367355112 0.0367355112 0.0367355112
0.0367954981 0.0367954981 0.0367954981
0.0368553800 0.0368553800 0.0368553800
0.0369151572 0.0369151572 0.0369151572
0.0369748298 0.0369748298 0.0369748298
0.0370343979 0.0370343979 0.0370343979
0.0370938618 0.0370938618 0.0370938618
0.0371532215 0.0371532215 0.0371532215
0.0372124772 0.0372124772 0.0372124772
0.0372716292 0.0372716292 0.0372716292
0.0373306774 0.0373306774 0.0373306774
0.0373896222 0.0373896222 0.0373896222
0.0374484636 0.0374484636 0.0374484636
0.0375072018 0.0375072018 0.0375072018
0.0375658370 0.0375658370 0.0375658370
0.0376243692 0.0376243692 0.0376243692
0.0376827988 0.0376827988 0.0376827988
0.0377411257 0.0377411257 0.0377411257
0.0377993502 0.0377993502 0.0377993502
0.0378574725 0.0378574725 0.0378574725
0.0379154926 0.0379154926 0.0379154926
0.0379734107 0.0379734107 0.0379734107
0.0380312270 0.0380312270 0.0380312270
0.0380889416 0.0380889416 0.0380889416
0.0381465547 0.0381465547 0.0381465547
0.0382040664 0.0382040664 0.0382040664
0.0382614768 0.0382614768 0.0382614768
0.0383187862 0.0383187862 0.0383187862
0.0383759946 0.0383759946 0.0383759946
0.0384331023 0.0384331023 0.0384331023
0.0384901092 0.0384901092 0.0384901092
0.0385470157 0.0385470157 0.0385470157
0.0386038219 0.0386038219 0.0386038219
0.0386605278 0.0386605278 0.0386605278
0.0387171337 0.0387171337 0.0387171337
0.0387736396 0.0387736396 0.0387736396
0.0388300458 0.0388300458 0.0388300458
0.0388863523 0.0388863523 0.0388863523
0.0389425594 0.0389425594 0.0389425594
0.0389986671 0.0389986671 0.0389986671
0.0390546755 0.0390546755 0.0390546755
0.0391105850 0.0391105850 0.0391105850
0.0391663955 0.0391663955 0.0391663955
0.0392221072 0.0392221072 0.0392221072
0.0392777203 0.0392777203 0.0392777203
0.0393332349 0.0393332349 0.0393332349
0.0393886511 0.0393886511 0.0393886511
0.0394439691 0.0394439691 0.0394439691
0.0394991891 0.0394991891 0.0394991891
0.0395543110 0.0395543110 0.0395543110
0.0396093352 0.0396093352 0.0396093352
0.0396642617 0.0396642617 0.0396642617
0.0397190907 0.0397190907 0.0397190907
0.0397738223 0.0397738223 0.0397738223
0.0398284566 0.0398284566 0.0398284566
0.0398829938 0.0398829938 0.0398829938
0.0399374341 0.0399374341 0.0399374341
0.0399917774 0.0399917774 0.0399917774
0.0400460241 0.0400460241 0.0400460241
0.0401001742 0.0401001742 0.0401001742
0.0401542278 0.0401542278 0.0401542278
0.0402081851 0.0402081851 0.0402081851
0.0402620462 0.0402620462 0.0402620462
0.0403158113 0.0403158113 0.0403158113
0.0403694805 0.0403694805 0.0403694805
0.0404230539 0.0404230539 0.0404230539
0.0404765317 0.0404765317 0.0404765317
0.0405299139 0.0405299139 0.0405299139
0.0405832007 0.0405832007 0.0405832007
0.0406363923 0.0406363923 0.0406363923
0.0406894888 0.0406894888 0.0406894888
0.0407424902 0.0407424902 0.0407424902
0.0407953968 0.0407953968 0.0407953968
0.0408482086 0.0408482086 0.0408482086
0.0409009259 0.0409009259 0.0409009259
0.0409535486 0.0409535486 0.0409535486
0.0410060770 0.0410060770 0.0410060770
0.0410585112 0.0410585112 0.0410585112
0.0411108513 0.0411108513 0.0411108513
0.0411630974 0.0411630974 0.0411630974
0.0412152497 0.0412152497 0.0412152497
0.0412673082 0.0412673082 0.0412673082
0.0413192731 0.0413192731 0.0413192731
0.0413711446 0.0413711446 0.0413711446
0.0414229227 0.0414229227 0.0414229227
0.0414746077 0.0414746077 0.0414746077
0.0415261995 0.0415261995 0.0415261995
0.0415776983 0.0415776983 0.0415776983
0.0416291043 0.0416291043 0.0416291043
0.0416804176 0.0416804176 0.0416804176
0.0417316383 0.0417316383 0.0417316383
0.0417827665 0.0417827665 0.0417827665
0.0418338023 0.0418338023 0.0418338023
0.0418847459 0.0418847459 0.0418847459
0.0419355974 0.0419355974 0.0419355974
0.0419863569 0.0419863569 0.0419863569
0.0420370245 0.0420370245 0.0420370245
0.0420876004 0.0420876004 0.0420876004
0.0421380846 0.0421380846 0.0421380846
0.0421884773 0.0421884773 0.0421884773
0.0422387787 0.0422387787 0.0422387787
0.0422889887 0.0422889887 0.0422889887
0.0423391076 0.0423391076 0.0423391076
0.0423891355 0.0423891355 0.0423891355
0.0424390725 0.0424390725 0.0424390725
0.0424889186 0.0424889186 0.0424889186
0.0425386741 0.0425386741 0.0425386741
0.0425883390 0.0425883390 0.0425883390
0.0426379134 0.0426379134 0.0426379134
0.0426873975 0.0426873975 0.0426873975
0.0427367914 0.0427367914 0.0427367914
0.0427860952 0.0427860952 0.0427860952
0.0428353090 0.0428353090 0.0428353090
0.0428844329 0.0428844329 0.0428844329
0.0429334671 0.0429334671 0.0429334671
0.0429824116 0.0429824116 0.0429824116
0.0430312666 0.0430312666 0.0430312666
0.0430800322 0.0430800322 0.0430800322
0.0431287085 0.0431287085 0.0431287085
0.0431772956 0.0431772956 0.0431772956
0.0432257936 0.0432257936 0.0432257936
0.0432742026 0.0432742026 0.0432742026
0.0433225228 0.0433225228 0.0433225228
0.0433707543 0.0433707543 0.0433707543
0.0434188971 0.0434188971 0.0434188971
0.0434669514 0.0434669514 0.0434669514
0.0435149173 0.0435149173 0.0435149173
0.0435627949 0.0435627949 0.0435627949
0.0436105843 0.0436105843 0.0436105843
0.0436582856 0.0436582856 0.0436582856
0.0437058990 0.0437058990 0.0437058990
0.0437534245 0.0437534245 0.0437534245
0.0438008622 0.0438008622 0.0438008622
0.0438482123 0.0438482123 0.0438482123
0.0438954749 0.0438954749 0.0438954749
0.0439426500 0.0439426500 0.0439426500
0.0439897378 0.0439897378 0.0439897378
0.0440367384 0.0440367384 0.0440367384
0.0440836519 0.0440836519 0.0440836519
0.0441304785 0.0441304785 0.0441304785
0.0441772181 0.0441772181 0.0441772181
0.0442238709 0.0442238709 0.0442238709
0.0442704370 0.0442704370 0.0442704370
0.0443169166 0.0443169166 0.0443169166
0.0443633097 0.0443633097 0.0443633097
0.0444096165 0.0444096165 0.0444096165
0.0444558369 0.0444558369 0.0444558369
0.0445019713 0.0445019713 0.0445019713
0.0445480195 0.0445480195 0.0445480195
0.0445939819 0.0445939819 0.0445939819
0.0446398583 0.0446398583 0.0446398583
0.0446856491 0.0446856491 0.0446856491
0.0447313542 0.0447313542 0.0447313542
0.0447769737 0.0447769737 0.0447769737
0.0448225078 0.0448225078 0.0448225078
0.0448679566 0.0448679566 0.0448679566
0.0449133202 0.0449133202 0.0449133202
0.0449585986 0.0449585986 0.0449585986
0.0450037920 0.0450037920 0.0450037920
0.0450489005 0.0450489005 0.0450489005
